; generated by Slic3r 1.1.7 on 2014-10-03 at 20:07:47

; perimeters extrusion width = 0.40mm
; infill extrusion width = 0.42mm
; solid infill extrusion width = 0.42mm
; top infill extrusion width = 0.42mm
; support material extrusion width = 0.40mm

G21 ; set units to millimeters
M107
M104 S195 ; set temperature
G28 ; home all axes
G1 Z5 F5000 ; lift nozzle
M109 S195 ; wait for temperature to be reached
G90 ; use absolute coordinates
G92 E0
M82 ; use absolute distances for extrusion
G1 F1800.000 E-1.00000
G92 E0
G1 Z0.300 F7800.000
G1 X22.486 Y21.453 F7800.000
G1 E1.00000 F1800.000
G1 X22.975 Y20.984 E1.03198 F2100.000
G1 X23.493 Y20.544 E1.06403
G1 X24.037 Y20.140 E1.09600
G1 X24.606 Y19.769 E1.12799
G1 X25.196 Y19.436 E1.15993
G1 X25.806 Y19.140 E1.19194
G1 X26.665 Y18.800 E1.23547
G1 X27.077 Y18.666 E1.25593
G1 X27.733 Y18.489 E1.28795
G1 X28.637 Y18.317 E1.33135
G1 X29.313 Y18.239 E1.36344
G1 X30.210 Y18.200 E1.40580
G1 X62.424 Y18.203 E2.92490
G1 X63.344 Y18.261 E2.96836 F2100.000
G1 X63.778 Y18.316 E2.98898
G1 X64.442 Y18.434 E3.02083
G1 X65.336 Y18.664 E3.06435
G1 X65.749 Y18.798 E3.08483
G1 X66.383 Y19.040 E3.11684
G1 X67.219 Y19.433 E3.16037
G1 X67.598 Y19.642 E3.18079
G1 X68.175 Y19.998 E3.21278
G1 X68.728 Y20.390 E3.24474
G1 X69.257 Y20.817 E3.27680
G1 X69.929 Y21.449 E3.32029
G1 X70.227 Y21.765 E3.34075
G1 X70.666 Y22.283 E3.37280
G1 X71.208 Y23.030 E3.41630
G1 X71.441 Y23.396 E3.43675
G1 X71.774 Y23.985 E3.46870
G1 X72.167 Y24.820 E3.51222
G1 X72.327 Y25.224 E3.53271
G1 X72.544 Y25.867 E3.56469
G1 X72.721 Y26.523 E3.59672
G1 X72.855 Y27.184 E3.62856
G1 X72.949 Y27.860 E3.66072
G1 X72.999 Y28.535 E3.69265
G1 X73.010 Y29.000 E3.71458
G1 X73.007 Y61.214 E5.23368
G1 X72.972 Y61.890 E5.26562
G1 X72.895 Y62.567 E5.29777
G1 X72.776 Y63.232 E5.32961
G1 X72.614 Y63.892 E5.36164
G1 X72.412 Y64.539 E5.39362
G1 X72.170 Y65.173 E5.42563
G1 X71.888 Y65.791 E5.45763
G1 X71.569 Y66.388 E5.48958
G1 X71.212 Y66.965 E5.52157
G1 X70.820 Y67.518 E5.55353
G1 X70.393 Y68.047 E5.58559
G1 X69.934 Y68.547 E5.61757
G1 X69.446 Y69.016 E5.64954
G1 X68.927 Y69.456 E5.68160
G1 X68.383 Y69.861 E5.71357
G1 X67.815 Y70.231 E5.74555
G1 X67.225 Y70.564 E5.77750
G1 X66.614 Y70.860 E5.80950
G1 X65.986 Y71.117 E5.84152
G1 X65.343 Y71.334 E5.87350
G1 X64.688 Y71.511 E5.90552
G1 X64.026 Y71.645 E5.93737
G1 X63.343 Y71.739 E5.96988
G1 X62.675 Y71.789 E6.00145
G1 X62.210 Y71.800 E6.02338
G1 X29.996 Y71.797 E7.54249
G1 X29.313 Y71.761 E7.57478
G1 X28.643 Y71.684 E7.60657
G1 X27.978 Y71.566 E7.63841
G1 X27.319 Y71.405 E7.67040
G1 X26.671 Y71.202 E7.70242
G1 X26.030 Y70.957 E7.73479
G1 X25.419 Y70.678 E7.76644
G1 X24.822 Y70.358 E7.79839
G1 X24.239 Y69.997 E7.83074
G1 X23.692 Y69.610 E7.86234
G1 X23.164 Y69.183 E7.89437
G1 X22.658 Y68.719 E7.92672
G1 X22.195 Y68.236 E7.95829
G1 X21.754 Y67.717 E7.99040
G1 X21.350 Y67.173 E8.02236
G1 X20.980 Y66.604 E8.05436
G1 X20.643 Y66.008 E8.08666
G1 X20.351 Y65.406 E8.11821
G1 X20.095 Y64.780 E8.15011
G1 X19.876 Y64.134 E8.18226
G1 X19.698 Y63.469 E8.21471
G1 X19.565 Y62.816 E8.24617
G1 X19.472 Y62.140 E8.27833
G1 X19.421 Y61.466 E8.31019
G1 X19.414 Y28.786 E9.85129
G1 X19.471 Y27.868 E9.89468
G1 X19.526 Y27.433 E9.91536
G1 X19.645 Y26.768 E9.94721
G1 X19.806 Y26.108 E9.97923
G1 X20.008 Y25.461 E10.01122
G1 X20.250 Y24.827 E10.04323
G1 X20.644 Y23.991 E10.08679
G1 X20.852 Y23.612 E10.10718
G1 X21.208 Y23.035 E10.13917
G1 X21.750 Y22.289 E10.18266
G1 X22.027 Y21.953 E10.20318
G1 X22.445 Y21.497 E10.23233
G1 X22.769 Y21.736 F7800.000
G1 X23.239 Y21.284 E10.26312 F2100.000
G1 X23.739 Y20.860 E10.29399
G1 X24.262 Y20.470 E10.32477
G1 X24.809 Y20.114 E10.35557
G1 X25.377 Y19.793 E10.38634
G1 X25.965 Y19.507 E10.41716
G1 X26.800 Y19.176 E10.45950
G1 X27.189 Y19.050 E10.47878
G1 X27.820 Y18.880 E10.50961
G1 X28.699 Y18.712 E10.55183
G1 X29.350 Y18.637 E10.58273
G1 X30.210 Y18.600 E10.62332
G1 X62.411 Y18.603 E12.14183
G1 X63.306 Y18.659 E12.18410 F2100.000
G1 X63.715 Y18.711 E12.20353
G1 X64.355 Y18.825 E12.23420
G1 X65.225 Y19.048 E12.27653
G1 X65.614 Y19.174 E12.29583
G1 X66.225 Y19.407 E12.32666
G1 X67.037 Y19.789 E12.36899
G1 X67.395 Y19.986 E12.38824
G1 X67.950 Y20.329 E12.41904
G1 X68.483 Y20.706 E12.44982
G1 X68.992 Y21.117 E12.48069
G1 X69.647 Y21.731 E12.52300
G1 X69.927 Y22.029 E12.54227
G1 X70.350 Y22.528 E12.57313
G1 X70.877 Y23.254 E12.61545
G1 X71.096 Y23.599 E12.63472
G1 X71.418 Y24.167 E12.66548
G1 X71.800 Y24.979 E12.70781
G1 X71.951 Y25.360 E12.72712
G1 X72.160 Y25.978 E12.75792
G1 X72.330 Y26.610 E12.78876
G1 X72.460 Y27.247 E12.81942
G1 X72.550 Y27.897 E12.85038
G1 X72.599 Y28.548 E12.88113
G1 X72.610 Y29.000 E12.90247
G1 X72.607 Y61.201 E14.42098
G1 X72.574 Y61.852 E14.45173
G1 X72.500 Y62.505 E14.48269
G1 X72.385 Y63.145 E14.51336
G1 X72.230 Y63.780 E14.54420
G1 X72.036 Y64.404 E14.57500
G1 X71.803 Y65.014 E14.60582
G1 X71.532 Y65.609 E14.63664
G1 X71.224 Y66.184 E14.66740
G1 X70.881 Y66.740 E14.69821
G1 X70.504 Y67.273 E14.72899
G1 X70.093 Y67.782 E14.75985
G1 X69.652 Y68.264 E14.79065
G1 X69.181 Y68.716 E14.82144
G1 X68.682 Y69.140 E14.85231
G1 X68.158 Y69.530 E14.88309
G1 X67.611 Y69.886 E14.91389
G1 X67.043 Y70.207 E14.94466
G1 X66.455 Y70.493 E14.97547
G1 X65.850 Y70.741 E15.00630
G1 X65.232 Y70.950 E15.03710
G1 X64.600 Y71.120 E15.06794
G1 X63.963 Y71.250 E15.09861
G1 X63.305 Y71.341 E15.12992
G1 X62.663 Y71.389 E15.16031
G1 X62.210 Y71.400 E15.18165
G1 X30.009 Y71.397 E16.70016
G1 X29.358 Y71.364 E16.73091
G1 X28.705 Y71.289 E16.76187
G1 X28.065 Y71.175 E16.79254
G1 X27.431 Y71.020 E16.82334
G1 X26.806 Y70.826 E16.85418
G1 X26.196 Y70.593 E16.88497
G1 X25.601 Y70.322 E16.91582
G1 X25.026 Y70.014 E16.94659
G1 X24.471 Y69.671 E16.97735
G1 X23.937 Y69.294 E17.00817
G1 X23.428 Y68.883 E17.03901
G1 X22.941 Y68.436 E17.07018
G1 X22.495 Y67.972 E17.10056
G1 X22.070 Y67.472 E17.13149
G1 X21.681 Y66.948 E17.16226
G1 X21.324 Y66.401 E17.19308
G1 X20.999 Y65.826 E17.22420
G1 X20.718 Y65.247 E17.25456
G1 X20.471 Y64.644 E17.28528
G1 X20.260 Y64.022 E17.31624
G1 X20.088 Y63.382 E17.34751
G1 X19.960 Y62.753 E17.37779
G1 X19.870 Y62.103 E17.40875
G1 X19.821 Y61.454 E17.43943
G1 X19.813 Y28.799 E18.97934
G1 X19.869 Y27.905 E19.02156
G1 X19.921 Y27.495 E19.04104
G1 X20.035 Y26.855 E19.07171
G1 X20.190 Y26.220 E19.10255
G1 X20.384 Y25.596 E19.13335
G1 X20.617 Y24.986 E19.16417
G1 X21.000 Y24.172 E19.20655
G1 X21.196 Y23.816 E19.22575
G1 X21.539 Y23.260 E19.25656
G1 X22.066 Y22.534 E19.29886
G1 X22.728 Y21.780 E19.34615
G1 F1800.000 E18.34615
G92 E0
G1 X63.741 Y62.438 F7800.000
G1 E1.00000 F1800.000
G1 X63.445 Y62.699 E1.01865 F2520.000
G1 X63.104 Y62.900 E1.03729
G1 X62.732 Y63.034 E1.05594
G1 X62.408 Y63.094 E1.07148
G1 X62.408 Y63.302 E1.08129
G1 X61.437 Y62.953 E1.12996
G1 X61.198 Y62.841 E1.14239
G1 X60.976 Y62.699 E1.15484
G1 X60.772 Y62.531 E1.16727
G1 X60.469 Y62.180 E1.18917
G1 X60.404 Y62.180 E1.19224
G1 X60.176 Y61.522 E1.22506
G1 X60.126 Y61.263 E1.23749
G1 X60.110 Y61.000 E1.24993
G1 X60.126 Y60.737 E1.26237
G1 X60.176 Y60.478 E1.27480
G1 X60.257 Y60.227 E1.28725
G1 X60.370 Y59.988 E1.29968
G1 X60.592 Y59.661 E1.31832
G1 X60.772 Y59.469 E1.33077
G1 X60.976 Y59.301 E1.34320
G1 X61.198 Y59.159 E1.35564
G1 X61.437 Y59.047 E1.36807
G1 X61.688 Y58.966 E1.38052
G1 X61.947 Y58.916 E1.39296
G1 X62.342 Y58.904 E1.41159
G1 X62.732 Y58.966 E1.43023 F2520.000
G1 X63.390 Y59.193 E1.46305
G1 X63.390 Y59.258 E1.46612
G1 X63.741 Y59.562 E1.48802
G1 X63.983 Y59.875 E1.50666
G1 X64.163 Y60.227 E1.52530
G1 X64.370 Y60.802 E1.55413
G1 X64.512 Y60.802 E1.56084
G1 X64.441 Y61.000 E1.57076
G1 X64.512 Y61.198 E1.58068
G1 X64.370 Y61.198 E1.58740
G1 X64.110 Y61.894 E1.62244
G1 X63.983 Y62.125 E1.63488
G1 X63.781 Y62.393 E1.65069
G1 X63.450 Y62.164 F7800.000
G1 X63.209 Y62.375 E1.66578 F1512.000
G1 X63.029 Y62.490 E1.67585
G1 X62.836 Y62.581 E1.68592
G1 X62.633 Y62.647 E1.69599
G1 X62.423 Y62.687 E1.70606
G1 X62.008 Y62.694 E1.72563
G1 X62.008 Y62.733 E1.72750
G1 X61.486 Y62.538 E1.75377
G1 X61.211 Y62.375 E1.76885
G1 X60.971 Y62.164 E1.78395
G1 X60.685 Y61.780 E1.80652
G1 X60.563 Y61.423 E1.82431
G1 X60.523 Y61.213 E1.83437
G1 X60.510 Y61.000 E1.84444
G1 X60.523 Y60.787 E1.85451
G1 X60.563 Y60.577 E1.86457
G1 X60.629 Y60.374 E1.87465
G1 X60.720 Y60.181 E1.88471
G1 X60.835 Y60.001 E1.89478
G1 X60.971 Y59.836 E1.90485
G1 X61.127 Y59.690 E1.91492
G1 X61.299 Y59.565 E1.92499
G1 X61.486 Y59.462 E1.93505
G1 X61.685 Y59.383 E1.94512
G1 X61.892 Y59.330 E1.95519
G1 X62.103 Y59.303 E1.96526
G1 X62.317 Y59.303 E1.97532 F1512.000
G1 X62.529 Y59.330 E1.98540
G1 X62.990 Y59.475 E2.00819
G1 X63.294 Y59.690 E2.02575
G1 X63.450 Y59.836 E2.03582
G1 X63.639 Y60.079 E2.05035
G1 X63.748 Y60.276 E2.06097
G1 X63.943 Y60.798 E2.08725
G1 X63.904 Y60.798 E2.08911
G1 X63.904 Y61.202 E2.10816
G1 X63.943 Y61.202 E2.11003
G1 X63.748 Y61.724 E2.13630
G1 X63.646 Y61.911 E2.14636
G1 X63.489 Y62.119 E2.15863
G1 F1800.000 E1.15863
G92 E0
G1 X62.066 Y59.093 F7800.000
G1 X62.367 Y31.496 F7800.000
G1 E1.00000 F1800.000
G1 X61.897 Y31.481 E1.02218 F2520.000
G1 X61.588 Y31.422 E1.03699
G1 X61.289 Y31.325 E1.05182
G1 X60.870 Y31.111 E1.07400
G1 X60.499 Y30.823 E1.09618
G1 X60.187 Y30.470 E1.11839
G1 X60.019 Y30.205 E1.13320
G1 X59.885 Y29.921 E1.14799
G1 X59.754 Y29.469 E1.17019
G1 X59.710 Y29.000 E1.19239
G1 X59.754 Y28.531 E1.21459
G1 X59.885 Y28.079 E1.23678
G1 X60.019 Y27.796 E1.25158
G1 X60.187 Y27.530 E1.26639
G1 X60.499 Y27.177 E1.28860
G1 X60.870 Y26.889 E1.31078
G1 X61.289 Y26.675 E1.33296
G1 X61.588 Y26.578 E1.34778
G1 X61.897 Y26.519 E1.36259
G1 X62.367 Y26.504 E1.38478
G1 X62.832 Y26.578 E1.40696 F2520.000
G1 X63.275 Y26.737 E1.42917
G1 X63.680 Y26.977 E1.45136
G1 X64.033 Y27.288 E1.47356
G1 X64.321 Y27.660 E1.49575
G1 X64.535 Y28.079 E1.51794
G1 X64.666 Y28.531 E1.54014
G1 X64.711 Y29.000 E1.56233
G1 X64.666 Y29.469 E1.58453
G1 X64.535 Y29.921 E1.60673
G1 X64.321 Y30.340 E1.62892
G1 X64.033 Y30.712 E1.65111
G1 X63.680 Y31.023 E1.67331
G1 X63.275 Y31.262 E1.69550
G1 X62.832 Y31.422 E1.71771
G1 X62.427 Y31.490 E1.73707
G1 X62.342 Y31.096 F7800.000
G1 X61.947 Y31.084 E1.75570 F2520.000
G1 X61.688 Y31.034 E1.76814
G1 X61.437 Y30.953 E1.78059
G1 X61.085 Y30.773 E1.79922
G1 X60.773 Y30.531 E1.81786
G1 X60.511 Y30.235 E1.83651
G1 X60.310 Y29.894 E1.85514
G1 X60.176 Y29.522 E1.87380
G1 X60.114 Y29.132 E1.89243
G1 X60.126 Y28.737 E1.91107
G1 X60.176 Y28.478 E1.92350
G1 X60.257 Y28.227 E1.93595
G1 X60.437 Y27.875 E1.95459
G1 X60.679 Y27.562 E1.97322
G1 X60.976 Y27.301 E1.99188
G1 X61.316 Y27.100 E2.01052
G1 X61.688 Y26.966 E2.02916
G1 X62.078 Y26.904 E2.04780
G1 X62.473 Y26.916 E2.06644 F2520.000
G1 X62.732 Y26.966 E2.07887
G1 X62.983 Y27.047 E2.09132
G1 X63.336 Y27.227 E2.10996
G1 X63.648 Y27.469 E2.12860
G1 X63.909 Y27.766 E2.14724
G1 X64.110 Y28.106 E2.16588
G1 X64.245 Y28.478 E2.18453
G1 X64.306 Y28.868 E2.20317
G1 X64.294 Y29.263 E2.22181
G1 X64.208 Y29.649 E2.24044
G1 X64.051 Y30.012 E2.25909
G1 X63.829 Y30.339 E2.27772
G1 X63.549 Y30.618 E2.29639
G1 X63.222 Y30.841 E2.31502
G1 X62.859 Y30.998 E2.33367
G1 X62.604 Y31.063 E2.34609
G1 X62.402 Y31.091 E2.35571
G1 X62.317 Y30.697 F7800.000
G1 X61.997 Y30.687 E2.37080 F1512.000
G1 X61.787 Y30.647 E2.38087
G1 X61.584 Y30.581 E2.39094
G1 X61.299 Y30.435 E2.40603
G1 X61.046 Y30.239 E2.42111
G1 X60.835 Y29.999 E2.43620
G1 X60.720 Y29.819 E2.44628
G1 X60.629 Y29.626 E2.45634
G1 X60.540 Y29.319 E2.47143
G1 X60.510 Y29.000 E2.48652
G1 X60.540 Y28.681 E2.50161
G1 X60.629 Y28.374 E2.51670
G1 X60.720 Y28.181 E2.52677
G1 X60.835 Y28.001 E2.53684
G1 X61.046 Y27.761 E2.55193
G1 X61.299 Y27.565 E2.56702
G1 X61.584 Y27.419 E2.58210
G1 X61.787 Y27.353 E2.59218
G1 X61.997 Y27.313 E2.60224
G1 X62.317 Y27.303 E2.61733
G1 X62.633 Y27.353 E2.63242 F1512.000
G1 X62.934 Y27.462 E2.64751
G1 X63.209 Y27.625 E2.66260
G1 X63.450 Y27.836 E2.67769
G1 X63.646 Y28.089 E2.69278
G1 X63.791 Y28.374 E2.70787
G1 X63.880 Y28.681 E2.72296
G1 X63.910 Y29.000 E2.73805
G1 X63.880 Y29.319 E2.75314
G1 X63.791 Y29.626 E2.76823
G1 X63.646 Y29.911 E2.78332
G1 X63.450 Y30.164 E2.79841
G1 X63.209 Y30.375 E2.81350
G1 X62.934 Y30.538 E2.82859
G1 X62.633 Y30.647 E2.84368
G1 X62.377 Y30.691 E2.85594
G1 F1800.000 E1.85594
G92 E0
G1 X62.340 Y26.984 F7800.000
G1 X59.995 Y32.744 F7800.000
G1 E1.00000 F1800.000
G1 X60.428 Y33.236 E1.03091 F2520.000
G1 X61.139 Y34.152 E1.08561
G1 X61.791 Y35.112 E1.14033
G1 X62.381 Y36.109 E1.19497
G1 X62.908 Y37.143 E1.24970
G1 X63.368 Y38.205 E1.30425
G1 X63.761 Y39.299 E1.35906
G1 X64.084 Y40.411 E1.41369
G1 X64.337 Y41.541 E1.46830
G1 X64.519 Y42.688 E1.52304
G1 X64.628 Y43.840 E1.57761
G1 X64.664 Y45.000 E1.63233
G1 X64.628 Y46.159 E1.68702
G1 X64.518 Y47.313 E1.74169
G1 X64.337 Y48.458 E1.79635
G1 X64.084 Y49.589 E1.85102
G1 X63.761 Y50.703 E1.90569
G1 X63.368 Y51.793 E1.96036
G1 X62.908 Y52.857 E2.01503
G1 X62.381 Y53.890 E2.06970
G1 X61.791 Y54.888 E2.12437
G1 X61.140 Y55.847 E2.17904
G1 X60.429 Y56.763 E2.23371
G1 X59.662 Y57.632 E2.28837
G1 X58.843 Y58.452 E2.34305
G1 X57.973 Y59.219 E2.39772
G1 X57.057 Y59.929 E2.45238
G1 X56.139 Y60.553 E2.50471
G1 X55.100 Y61.171 E2.56172
G1 X54.067 Y61.698 E2.61639
G1 X53.004 Y62.158 E2.67106
G1 X51.913 Y62.551 E2.72573
G1 X50.799 Y62.874 E2.78040
G1 X49.668 Y63.127 E2.83507
G1 X48.523 Y63.308 E2.88973
G1 X47.369 Y63.417 E2.94440
G1 X46.210 Y63.454 E2.99908
G1 X45.051 Y63.417 E3.05376
G1 X43.943 Y63.313 E3.10627
G1 X42.753 Y63.127 E3.16304
G1 X41.620 Y62.874 E3.21778
G1 X40.508 Y62.551 E3.27239
G1 X39.418 Y62.159 E3.32702
G1 X38.352 Y61.697 E3.38182
G1 X37.321 Y61.172 E3.43638
G1 X36.363 Y60.605 E3.48885
G1 X35.363 Y59.929 E3.54576
G1 X34.448 Y59.220 E3.60038
G1 X33.576 Y58.451 E3.65518
G1 X32.758 Y57.633 E3.70977
G1 X31.992 Y56.764 E3.76437
G1 X31.281 Y55.848 E3.81904
G1 X30.658 Y54.931 E3.87135
G1 X30.039 Y53.891 E3.92841
G1 X29.512 Y52.857 E3.98315
G1 X29.053 Y51.795 E4.03768
G1 X28.677 Y50.751 E4.09002
G1 X28.336 Y49.589 E4.14714
G1 X28.077 Y48.419 E4.20363
G1 X27.902 Y47.312 E4.25648
G1 X27.793 Y46.160 E4.31104
G1 X27.756 Y45.001 E4.36576
G1 X27.793 Y43.841 E4.42046
G1 X27.902 Y42.687 E4.47512
G1 X28.077 Y41.578 E4.52807
G1 X28.336 Y40.411 E4.58445
G1 X28.659 Y39.297 E4.63913
G1 X29.052 Y38.206 E4.69382
G1 X29.513 Y37.143 E4.74846
G1 X30.022 Y36.143 E4.80139
G1 X30.629 Y35.112 E4.85779
G1 X31.281 Y34.153 E4.91247
G1 X31.991 Y33.237 E4.96714
G1 X32.758 Y32.367 E5.02181
G1 X33.578 Y31.548 E5.07649
G1 X34.447 Y30.781 E5.13114
G1 X35.363 Y30.070 E5.18582
G1 X36.322 Y29.419 E5.24049
G1 X37.320 Y28.829 E5.29515
G1 X38.293 Y28.333 E5.34665
G1 X39.415 Y27.843 E5.40441
G1 X40.509 Y27.449 E5.45923
G1 X41.621 Y27.126 E5.51386
G1 X42.751 Y26.873 E5.56845
G1 X43.898 Y26.692 E5.62319
G1 X45.050 Y26.583 E5.67776
G1 X46.210 Y26.546 E5.73248
G1 X47.302 Y26.580 E5.78400
G1 X48.524 Y26.692 E5.84190 F2520.000
G1 X49.667 Y26.873 E5.89647
G1 X50.800 Y27.126 E5.95121
G1 X51.912 Y27.449 E6.00583
G1 X53.002 Y27.841 E6.06045
G1 X54.069 Y28.303 E6.11525
G1 X55.100 Y28.828 E6.16982
G1 X56.054 Y29.393 E6.22209
G1 X57.057 Y30.071 E6.27919
G1 X57.972 Y30.780 E6.33380
G1 X58.844 Y31.549 E6.38860
G1 X59.662 Y32.367 E6.44319
G1 X59.955 Y32.699 E6.46405
G1 X59.695 Y33.009 F7800.000
G1 X60.120 Y33.491 E6.49439 F2520.000
G1 X60.816 Y34.388 E6.54790
G1 X61.453 Y35.326 E6.60141
G1 X62.031 Y36.302 E6.65488
G1 X62.546 Y37.314 E6.70839
G1 X62.996 Y38.353 E6.76181
G1 X63.380 Y39.422 E6.81538
G1 X63.697 Y40.511 E6.86884
G1 X63.944 Y41.617 E6.92228
G1 X64.121 Y42.738 E6.97581
G1 X64.228 Y43.866 E7.02924
G1 X64.264 Y45.000 E7.08275
G1 X64.228 Y46.134 E7.13625
G1 X64.121 Y47.263 E7.18973
G1 X63.944 Y48.383 E7.24321
G1 X63.697 Y49.490 E7.29669
G1 X63.380 Y50.579 E7.35018
G1 X62.996 Y51.646 E7.40366
G1 X62.546 Y52.687 E7.45714
G1 X62.031 Y53.697 E7.51063
G1 X61.453 Y54.674 E7.56411
G1 X60.816 Y55.612 E7.61760
G1 X60.121 Y56.508 E7.67108
G1 X59.371 Y57.359 E7.72456
G1 X58.569 Y58.161 E7.77805
G1 X57.718 Y58.911 E7.83153
G1 X56.822 Y59.606 E7.88501
G1 X55.915 Y60.222 E7.93671
G1 X54.908 Y60.821 E7.99198
G1 X53.897 Y61.335 E8.04546
G1 X52.856 Y61.786 E8.09894
G1 X51.789 Y62.170 E8.15243
