; generated by Slic3r 1.1.7 on 2014-10-03 at 19:44:05

; perimeters extrusion width = 0.40mm
; infill extrusion width = 0.42mm
; solid infill extrusion width = 0.42mm
; top infill extrusion width = 0.42mm
; support material extrusion width = 0.40mm

G21 ; set units to millimeters
M107
M104 S195 ; set temperature
G28 ; home all axes
G1 Z5 F5000 ; lift nozzle
M109 S195 ; wait for temperature to be reached
G90 ; use absolute coordinates
G92 E0
M82 ; use absolute distances for extrusion
G1 F1800.000 E-1.00000
G92 E0
G1 Z0.300 F7800.000
G1 X28.077 Y30.800 F7800.000
G1 E1.00000 F1800.000
G1 X33.919 Y25.475 E1.37277 F2100.000
G1 X35.878 Y24.226 E1.48235
G1 X38.500 Y23.700 E1.60843
G1 X57.500 Y23.700 E2.50442
G1 X59.790 Y24.097 E2.61400
G1 X62.081 Y25.475 E2.74008 F2100.000
G1 X73.434 Y35.836 E3.46491
G1 X73.962 Y36.383 E3.50076
G1 X74.507 Y37.021 E3.54032
G1 X74.978 Y37.652 E3.57748
G1 X75.416 Y38.319 E3.61509
G1 X75.811 Y39.011 E3.65268
G1 X76.169 Y39.741 E3.69099
G1 X76.483 Y40.501 E3.72977
G1 X76.744 Y41.268 E3.76799
G1 X76.949 Y42.029 E3.80515
G1 X77.107 Y42.793 E3.84195
G1 X77.228 Y43.658 E3.88314
G1 X77.285 Y44.407 E3.91854
G1 X77.297 Y45.216 E3.95669
G1 X77.260 Y45.993 E3.99340
G1 X77.167 Y46.835 E4.03331
G1 X77.031 Y47.603 E4.07011
G1 X76.848 Y48.369 E4.10727
G1 X76.607 Y49.155 E4.14600
G1 X76.319 Y49.915 E4.18434
G1 X75.975 Y50.669 E4.22342
G1 X75.617 Y51.341 E4.25932
G1 X75.191 Y52.038 E4.29785
G1 X74.737 Y52.683 E4.33504
G1 X74.212 Y53.337 E4.37459
G1 X73.682 Y53.916 E4.41160
G1 X73.189 Y54.399 E4.44417
G1 X62.081 Y64.525 E5.15297
G1 X60.122 Y65.774 E5.26256
G1 X57.500 Y66.300 E5.38864
G1 X38.500 Y66.300 E6.28462
G1 X36.210 Y65.903 E6.39421
G1 X33.919 Y64.525 E6.52029
G1 X22.584 Y54.182 E7.24391
G1 X22.020 Y53.599 E7.28217
G1 X21.512 Y53.003 E7.31907
G1 X21.022 Y52.350 E7.35761
G1 X20.575 Y51.667 E7.39610
G1 X20.182 Y50.975 E7.43363
G1 X19.833 Y50.261 E7.47110
G1 X19.523 Y49.511 E7.50938
G1 X19.258 Y48.732 E7.54817
G1 X19.053 Y47.971 E7.58533
G1 X18.895 Y47.207 E7.62213
G1 X18.779 Y46.404 E7.66039
G1 X18.715 Y45.594 E7.69871
G1 X18.703 Y44.783 E7.73693
G1 X18.743 Y43.976 E7.77504
G1 X18.835 Y43.165 E7.81352
G1 X18.971 Y42.397 E7.85031
G1 X19.154 Y41.630 E7.88748
G1 X19.399 Y40.834 E7.92677
G1 X19.683 Y40.087 E7.96444
G1 X20.015 Y39.356 E8.00232
G1 X20.392 Y38.643 E8.04033
G1 X20.810 Y37.964 E8.07792
G1 X21.280 Y37.297 E8.11645
G1 X21.772 Y36.685 E8.15345
G1 X22.300 Y36.104 E8.19048
G1 X22.811 Y35.601 E8.22430
G1 X28.033 Y30.840 E8.55751
G1 X28.347 Y31.096 F7800.000
G1 X34.188 Y25.770 E8.93028 F2100.000
G1 X36.095 Y24.569 E9.03657
G1 X38.500 Y24.100 E9.15209
G1 X57.500 Y24.100 E10.04808
G1 X59.719 Y24.497 E10.15436
G1 X61.812 Y25.770 E10.26989 F2100.000
G1 X73.150 Y36.118 E10.99378
G1 X73.663 Y36.648 E11.02857
G1 X74.190 Y37.266 E11.06685
G1 X74.648 Y37.877 E11.10286
G1 X75.072 Y38.523 E11.13931
G1 X75.455 Y39.194 E11.17573
G1 X75.802 Y39.900 E11.21284
G1 X76.106 Y40.637 E11.25044
G1 X76.359 Y41.379 E11.28739
G1 X76.559 Y42.116 E11.32341
G1 X76.712 Y42.857 E11.35910
G1 X76.830 Y43.694 E11.39897
G1 X76.885 Y44.420 E11.43328
G1 X76.897 Y45.203 E11.47022
G1 X76.862 Y45.957 E11.50582
G1 X76.772 Y46.771 E11.54443
G1 X76.641 Y47.516 E11.58010
G1 X76.463 Y48.259 E11.61613
G1 X76.231 Y49.019 E11.65362
G1 X75.952 Y49.756 E11.69075
G1 X75.620 Y50.486 E11.72859
G1 X75.273 Y51.138 E11.76342
G1 X74.860 Y51.813 E11.80073
G1 X74.420 Y52.438 E11.83677
G1 X73.913 Y53.072 E11.87504
G1 X73.400 Y53.633 E11.91092
G1 X72.920 Y54.104 E11.94262
G1 X61.812 Y64.230 E12.65142
G1 X59.905 Y65.431 E12.75771
G1 X57.500 Y65.900 E12.87324
G1 X38.500 Y65.900 E13.76922
G1 X36.281 Y65.503 E13.87551
G1 X34.188 Y64.230 E13.99104
G1 X22.866 Y53.899 E14.71379
G1 X22.320 Y53.335 E14.75084
G1 X21.828 Y52.758 E14.78661
G1 X21.352 Y52.125 E14.82393
G1 X20.919 Y51.464 E14.86120
G1 X20.538 Y50.793 E14.89757
G1 X20.200 Y50.102 E14.93388
G1 X19.899 Y49.375 E14.97095
G1 X19.643 Y48.621 E15.00851
G1 X19.443 Y47.884 E15.04453
G1 X19.290 Y47.143 E15.08021
G1 X19.177 Y46.365 E15.11726
G1 X19.115 Y45.581 E15.15437
G1 X19.103 Y44.796 E15.19139
G1 X19.141 Y44.014 E15.22831
G1 X19.230 Y43.229 E15.26556
G1 X19.361 Y42.484 E15.30124
G1 X19.539 Y41.741 E15.33727
G1 X19.775 Y40.970 E15.37530
G1 X20.050 Y40.246 E15.41179
G1 X20.372 Y39.536 E15.44855
G1 X20.736 Y38.847 E15.48531
G1 X21.140 Y38.189 E15.52174
G1 X21.596 Y37.542 E15.55904
G1 X22.072 Y36.949 E15.59491
G1 X22.584 Y36.386 E15.63080
G1 X23.080 Y35.896 E15.66369
G1 X28.302 Y31.136 E15.99690
G1 F1800.000 E14.99690
G92 E0
G1 X68.255 Y47.256 F7800.000
G1 E1.00000 F1800.000
G1 X67.627 Y47.517 E1.03207 F2520.000
G1 X66.991 Y47.600 E1.06230
G1 X61.447 Y47.600 E1.32376
G1 X60.811 Y47.517 E1.35398
G1 X60.183 Y47.256 E1.38605
G1 X59.644 Y46.842 E1.41810
G1 X59.230 Y46.303 E1.45016
G1 X58.969 Y45.675 E1.48223
G1 X58.881 Y45.000 E1.51432
G1 X58.969 Y44.325 E1.54641
G1 X59.230 Y43.697 E1.57848
G1 X59.644 Y43.158 E1.61053
G1 X60.183 Y42.744 E1.64258
G1 X60.811 Y42.483 E1.67465
G1 X61.447 Y42.400 E1.70488
G1 X66.991 Y42.400 E1.96634
G1 X67.517 Y42.469 E1.99134
G1 X67.627 Y42.483 E1.99656 F2520.000
G1 X68.255 Y42.744 E2.02863
G1 X68.794 Y43.158 E2.06069
G1 X69.208 Y43.697 E2.09274
G1 X69.469 Y44.325 E2.12481
G1 X69.557 Y45.000 E2.15690
G1 X69.469 Y45.675 E2.18899
G1 X69.208 Y46.303 E2.22106
G1 X68.794 Y46.842 E2.25311
G1 X68.302 Y47.219 E2.28233
G1 X68.053 Y46.907 F7800.000
G1 X67.522 Y47.127 E2.30943 F1512.000
G1 X66.965 Y47.200 E2.33593
G1 X61.473 Y47.200 E2.59492
G1 X60.916 Y47.127 E2.62142
G1 X60.385 Y46.907 E2.64852
G1 X59.929 Y46.557 E2.67561
G1 X59.579 Y46.101 E2.70271
G1 X59.359 Y45.570 E2.72981
G1 X59.284 Y45.000 E2.75693
G1 X59.359 Y44.430 E2.78405
G1 X59.579 Y43.899 E2.81115
G1 X59.929 Y43.443 E2.83824
G1 X60.385 Y43.093 E2.86534
G1 X60.916 Y42.873 E2.89243
G1 X61.473 Y42.800 E2.91893
G1 X66.965 Y42.800 E3.17793 F1512.000
G1 X67.522 Y42.873 E3.20443
G1 X68.053 Y43.093 E3.23152
G1 X68.509 Y43.443 E3.25862
G1 X68.859 Y43.899 E3.28571
G1 X69.079 Y44.430 E3.31281
G1 X69.154 Y45.000 E3.33993
G1 X69.079 Y45.570 E3.36705
G1 X68.859 Y46.101 E3.39415
G1 X68.509 Y46.557 E3.42124
G1 X68.101 Y46.870 E3.44551
G1 F1800.000 E2.44551
G92 E0
G1 X61.332 Y42.426 F7800.000
G1 X37.105 Y45.122 F7800.000
G1 E1.00000 F1800.000
G1 X37.033 Y45.675 E1.02628 F2520.000
G1 X36.772 Y46.303 E1.05835
G1 X36.358 Y46.842 E1.09041
G1 X35.819 Y47.256 E1.12246
G1 X35.191 Y47.517 E1.15453
G1 X34.555 Y47.600 E1.18475
G1 X29.011 Y47.600 E1.44621
G1 X28.375 Y47.517 E1.47644
G1 X27.748 Y47.256 E1.50848
G1 X27.206 Y46.842 E1.54065
G1 X26.794 Y46.303 E1.57262
G1 X26.531 Y45.675 E1.60474
G1 X26.445 Y45.000 E1.63682
G1 X26.531 Y44.325 E1.66889
G1 X26.794 Y43.697 E1.70101
G1 X27.206 Y43.158 E1.73299
G1 X27.748 Y42.744 E1.76516
G1 X28.375 Y42.483 E1.79719
G1 X29.011 Y42.400 E1.82742
G1 X34.555 Y42.400 E2.08888
G1 X35.191 Y42.483 E2.11910
G1 X35.819 Y42.744 E2.15118
G1 X36.358 Y43.158 E2.18323
G1 X36.772 Y43.697 E2.21528
G1 X37.363 Y45.122 E2.28803
G1 X37.165 Y45.122 E2.29737
G1 X36.709 Y45.070 F7800.000
G1 X36.643 Y45.570 E2.32116 F1512.000
G1 X36.423 Y46.101 E2.34826
G1 X36.073 Y46.557 E2.37536
G1 X35.617 Y46.907 E2.40245
G1 X35.086 Y47.127 E2.42955
G1 X34.529 Y47.200 E2.45605
G1 X29.037 Y47.200 E2.71504
G1 X28.480 Y47.127 E2.74154
G1 X27.949 Y46.907 E2.76862
G1 X27.491 Y46.557 E2.79581
G1 X27.143 Y46.101 E2.82284
G1 X26.921 Y45.570 E2.84998
G1 X26.848 Y45.000 E2.87709
G1 X26.921 Y44.430 E2.90419
G1 X27.143 Y43.899 E2.93133
G1 X27.491 Y43.443 E2.95836
G1 X27.949 Y43.093 E2.98555
G1 X28.480 Y42.873 E3.01263
G1 X29.037 Y42.800 E3.03913
G1 X34.529 Y42.800 E3.29813 F1512.000
G1 X35.086 Y42.873 E3.32463
G1 X35.617 Y43.093 E3.35172
G1 X36.073 Y43.443 E3.37882
G1 X36.423 Y43.899 E3.40591
G1 X36.764 Y44.722 E3.44794
G1 X36.681 Y44.722 E3.45185
G1 X36.716 Y45.011 E3.46555
G1 F1800.000 E2.46555
G92 E0
G1 X28.866 Y42.438 F7800.000
G1 X37.962 Y45.522 F7800.000
G1 E1.00000 F1800.000
G1 X37.121 Y43.495 E1.10348 F2520.000
G1 X36.643 Y42.873 E1.14049
G1 X36.021 Y42.395 E1.17750
G1 X35.295 Y42.094 E1.21455
G1 X34.581 Y42.000 E1.24850
G1 X28.985 Y42.000 E1.51242
G1 X28.271 Y42.094 E1.54637
G1 X27.490 Y42.418 E1.58624
G1 X27.339 Y42.233 E1.59748
G1 X27.649 Y41.814 E1.62205
G1 X28.077 Y41.356 E1.65161
G1 X28.564 Y40.954 E1.68139
G1 X28.821 Y40.779 E1.69605
G1 X29.090 Y40.620 E1.71080
G1 X29.661 Y40.352 E1.74055
G1 X29.954 Y40.246 E1.75526
G1 X30.565 Y40.089 E1.78497
G1 X31.188 Y40.010 E1.81458
G1 X31.516 Y40.000 E1.83007
G1 X39.500 Y40.000 E2.20657
G1 X39.500 Y31.500 E2.60741
G1 X56.500 Y31.500 E3.40908
G1 X56.500 Y40.000 E3.80991
G1 X64.484 Y40.000 E4.18642
G1 X64.814 Y40.010 E4.20199
G1 X65.437 Y40.089 E4.23161
G1 X66.046 Y40.246 E4.26128
G1 X66.342 Y40.352 E4.27607
G1 X66.911 Y40.619 E4.30572
G1 X67.180 Y40.779 E4.32045
G1 X67.439 Y40.955 E4.33525
G1 X67.922 Y41.355 E4.36481
G1 X68.353 Y41.814 E4.39452
G1 X68.660 Y42.232 E4.41896
G1 X68.509 Y42.417 E4.43020
G1 X67.731 Y42.094 E4.46993
G1 X67.017 Y42.000 E4.50388
G1 X61.421 Y42.000 E4.76781
G1 X60.707 Y42.094 E4.80176
G1 X59.981 Y42.395 E4.83880
G1 X59.359 Y42.873 E4.87581
G1 X58.881 Y43.495 E4.91282
G1 X58.580 Y44.221 E4.94987
G1 X58.477 Y45.000 E4.98693
G1 X58.580 Y45.779 E5.02399
G1 X58.881 Y46.505 E5.06103
G1 X59.359 Y47.127 E5.09804
G1 X59.981 Y47.605 E5.13505
G1 X60.707 Y47.906 E5.17209
G1 X61.421 Y48.000 E5.20604
G1 X67.017 Y48.000 E5.46997
G1 X67.731 Y47.906 E5.50392
G1 X68.511 Y47.583 E5.54375
G1 X68.662 Y47.767 E5.55499
G1 X68.353 Y48.188 E5.57959
G1 X67.922 Y48.646 E5.60923
G1 X67.688 Y48.853 E5.62398
G1 X67.180 Y49.221 E5.65359
G1 X66.629 Y49.525 E5.68325
G1 X66.344 Y49.649 E5.69790
G1 X65.742 Y49.843 E5.72773
G1 X65.437 Y49.911 E5.74245
G1 X65.127 Y49.961 E5.75725
G1 X64.484 Y50.000 E5.78764
G1 X56.500 Y50.000 E6.16415
G1 X56.500 Y58.500 E6.56498
G1 X39.500 Y58.500 E7.36665
G1 X39.500 Y50.000 E7.76749
G1 X31.516 Y50.000 E8.14399
G1 X30.873 Y49.961 E8.17438
G1 X30.565 Y49.911 E8.18910
G1 X30.258 Y49.843 E8.20393
G1 X29.659 Y49.649 E8.23361
G1 X29.373 Y49.525 E8.24829
G1 X28.821 Y49.221 E8.27803
G1 X28.313 Y48.852 E8.30765
G1 X28.077 Y48.644 E8.32247
G1 X27.649 Y48.188 E8.35198
G1 X27.337 Y47.766 E8.37669
G1 X27.488 Y47.581 E8.38794
G1 X28.271 Y47.906 E8.42790
G1 X28.985 Y48.000 E8.46185
G1 X34.581 Y48.000 E8.72578
G1 X35.295 Y47.906 E8.75973
G1 X36.021 Y47.605 E8.79678
G1 X36.643 Y47.127 E8.83378
G1 X37.121 Y46.505 E8.87079
G1 X37.422 Y45.779 E8.90784
G1 X37.456 Y45.522 E8.92007
G1 X37.902 Y45.522 E8.94111
G1 F1800.000 E7.94111
G92 E0
G1 X39.100 Y50.400 F7800.000
G1 E1.00000 F1800.000
G1 X31.161 Y50.389 E1.37440 F2520.000
G1 X30.823 Y50.358 E1.39039
G1 X30.158 Y50.231 E1.42233
G1 X29.512 Y50.021 E1.45433
G1 X29.202 Y49.887 E1.47026
G1 X28.606 Y49.559 E1.50235
G1 X28.058 Y49.161 E1.53430
G1 X27.564 Y48.697 E1.56625
G1 X27.131 Y48.175 E1.59824
G1 X26.941 Y47.895 E1.61419
G1 X26.615 Y47.300 E1.64617
G1 X26.365 Y46.669 E1.67817
G1 X26.272 Y46.344 E1.69415
G1 X26.143 Y45.675 E1.72624
G1 X26.100 Y45.000 E1.75815
G1 X26.143 Y44.324 E1.79008
G1 X26.272 Y43.656 E1.82216
G1 X26.365 Y43.331 E1.83812
G1 X26.480 Y43.014 E1.85404
G1 X26.768 Y42.399 E1.88607
G1 X27.131 Y41.827 E1.91799
G1 X27.565 Y41.304 E1.95003
G1 X27.803 Y41.064 E1.96598
G1 X28.328 Y40.631 E1.99808
G1 X28.898 Y40.269 E2.02992
G1 X29.514 Y39.980 E2.06199
G1 X29.831 Y39.865 E2.07791
G1 X30.489 Y39.696 E2.10995
G1 X31.162 Y39.611 E2.14194
G1 X39.100 Y39.600 E2.51626
G1 X39.100 Y31.100 E2.91710
G1 X56.900 Y31.100 E3.75649
G1 X56.900 Y39.600 E4.15733
G1 X64.840 Y39.611 E4.53174
G1 X65.513 Y39.696 E4.56373
G1 X66.169 Y39.865 E4.59572
G1 X66.489 Y39.980 E4.61173
G1 X67.103 Y40.268 E4.64373
G1 X67.675 Y40.631 E4.67565
G1 X67.943 Y40.840 E4.69170
G1 X68.196 Y41.063 E4.70760
G1 X68.661 Y41.559 E4.73965
G1 X69.059 Y42.108 E4.77163
G1 X69.387 Y42.702 E4.80364
G1 X69.637 Y43.331 E4.83554
G1 X69.730 Y43.656 E4.85150
G1 X69.858 Y44.323 E4.88351
G1 X69.900 Y45.000 E4.91550
G1 X69.858 Y45.677 E4.94748
G1 X69.730 Y46.344 E4.97950
G1 X69.637 Y46.669 E4.99548
G1 X69.387 Y47.299 E5.02741
G1 X69.059 Y47.895 E5.05950
G1 X68.661 Y48.443 E5.09144
G1 X68.196 Y48.937 E5.12342
G1 X67.943 Y49.161 E5.13938
G1 X67.394 Y49.559 E5.17135
G1 X67.102 Y49.732 E5.18736
G1 X66.490 Y50.021 E5.21927
G1 X65.842 Y50.231 E5.25140
G1 X65.513 Y50.304 E5.26731
G1 X64.841 Y50.389 E5.29922
G1 X56.900 Y50.400 E5.67371
G1 X56.900 Y58.900 E6.07454
G1 X39.100 Y58.900 E6.91394
G1 X39.100 Y50.460 E7.31194
G1 X38.700 Y50.800 F7800.000
G1 X31.136 Y50.788 E7.66863 F1512.000
G1 X30.773 Y50.755 E7.68583
G1 X30.058 Y50.618 E7.72016
G1 X29.365 Y50.394 E7.75449
G1 X29.031 Y50.249 E7.77166
G1 X28.391 Y49.897 E7.80610
G1 X27.803 Y49.470 E7.84039
G1 X27.529 Y49.228 E7.85762
G1 X27.032 Y48.698 E7.89187
G1 X26.603 Y48.109 E7.92625
G1 X26.253 Y47.471 E7.96057
G1 X25.984 Y46.792 E7.99498
G1 X25.884 Y46.443 E8.01215
G1 X25.746 Y45.726 E8.04653
G1 X25.700 Y45.000 E8.08086
G1 X25.746 Y44.273 E8.11519
G1 X25.884 Y43.557 E8.14957
G1 X25.984 Y43.208 E8.16673
G1 X26.253 Y42.531 E8.20107
G1 X26.603 Y41.893 E8.23537
G1 X27.032 Y41.304 E8.26976
G1 X27.529 Y40.772 E8.30408
G1 X28.092 Y40.308 E8.33849
G1 X28.391 Y40.103 E8.35559
G1 X29.031 Y39.753 E8.38997
G1 X29.708 Y39.484 E8.42431
G1 X30.058 Y39.384 E8.44149
G1 X30.414 Y39.303 E8.45870
G1 X31.137 Y39.212 E8.49307
G1 X38.700 Y39.200 E8.84973
G1 X38.700 Y30.700 E9.25056
G1 X57.300 Y30.700 E10.12768
G1 X57.300 Y39.200 E10.52852
G1 X64.865 Y39.212 E10.88527
G1 X65.588 Y39.303 E10.91963
G1 X65.942 Y39.384 E10.93675
G1 X66.292 Y39.484 E10.95395
G1 X66.971 Y39.753 E10.98836
G1 X67.609 Y40.103 E11.02266
G1 X67.910 Y40.308 E11.03985
G1 X68.471 Y40.772 E11.07417
G1 X68.970 Y41.304 E11.10856
G1 X69.397 Y41.893 E11.14290
G1 X69.749 Y42.531 E11.17726
G1 X70.018 Y43.208 E11.21158
G1 X70.118 Y43.557 E11.22874
G1 X70.255 Y44.273 E11.26310
G1 X70.300 Y45.000 E11.29745
G1 X70.255 Y45.727 E11.33179
G1 X70.118 Y46.443 E11.36615
G1 X70.018 Y46.792 E11.38332
G1 X69.749 Y47.470 E11.41770
G1 X69.397 Y48.109 E11.45209
G1 X68.970 Y48.698 E11.48642
G1 X68.471 Y49.228 E11.52074
G1 X68.198 Y49.470 E11.53791
G1 X67.609 Y49.897 E11.57225
G1 X66.971 Y50.249 E11.60662
G1 X66.637 Y50.394 E11.62378
G1 X65.942 Y50.618 E11.65821
G1 X65.227 Y50.755 E11.69254
G1 X64.866 Y50.788 E11.70965
G1 X57.300 Y50.800 E12.06642
G1 X57.300 Y59.300 E12.46726
G1 X38.700 Y59.300 E13.34438
G1 X38.700 Y50.860 E13.74238
G1 X38.700 Y50.400 F7800.000
G1 X39.774 Y50.428 F7800.000
G1 X47.572 Y58.226 E14.28699 F2100.000
G1 X46.979 Y58.226 E14.31631
G1 X39.774 Y51.021 E14.81945
G1 X39.774 Y51.615 E14.84877
G1 X46.385 Y58.226 E15.31046
G1 X45.792 Y58.226 E15.33978
G1 X39.774 Y52.208 E15.76001
G1 X39.774 Y52.802 E15.78933
G1 X45.198 Y58.226 E16.16811
G1 X44.604 Y58.226 E16.19742
G1 X39.774 Y53.396 E16.53474
G1 X39.774 Y53.989 E16.56406
G1 X44.011 Y58.226 E16.85992
G1 X43.417 Y58.226 E16.88924
G1 X39.774 Y54.583 E17.14364
G1 X39.774 Y55.177 E17.17296
G1 X42.823 Y58.226 E17.38591
G1 X42.230 Y58.226 E17.41522
G1 X39.774 Y55.770 E17.58672
G1 X39.774 Y56.364 E17.61603
G1 X41.636 Y58.226 E17.74607
G1 X41.043 Y58.226 E17.77539
G1 X39.774 Y56.957 E17.86397
G1 X39.774 Y57.551 E17.89328
G1 X40.449 Y58.226 E17.94040
G1 X39.855 Y58.226 E17.96972
G1 X39.774 Y58.145 E17.97539
G1 F1800.000 E16.97539
G92 E0
G1 X38.138 Y45.229 F7800.000
G1 E1.00000 F1800.000
G1 X51.134 Y58.226 E1.90764 F2100.000
G1 X50.540 Y58.226 E1.93695
G1 X38.111 Y45.796 E2.80500
G1 X37.655 Y45.934 E2.82852
G1 X49.947 Y58.226 E3.68696
G1 X49.353 Y58.226 E3.71627
G1 X37.481 Y46.353 E4.54541
G1 X37.281 Y46.747 E4.56721
G1 X48.760 Y58.226 E5.36886
G1 X48.166 Y58.226 E5.39817
G1 X37.023 Y47.083 E6.17637
G1 X36.743 Y47.396 E6.19714
G1 X39.072 Y49.726 E6.35982
G1 X38.479 Y49.726 E6.38913
G1 X36.407 Y47.654 E6.53381
G1 X36.050 Y47.890 E6.55497
G1 X37.885 Y49.726 E6.68316
G1 X37.292 Y49.726 E6.71248
G1 X35.630 Y48.064 E6.82851
G1 X35.171 Y48.199 E6.85213
G1 X36.698 Y49.726 E6.95874
G1 X36.104 Y49.726 E6.98806
G1 X34.647 Y48.268 E7.08986
G1 X34.059 Y48.274 E7.11887
G1 X35.511 Y49.726 E7.22025
G1 X34.917 Y49.726 E7.24956
G1 X33.466 Y48.274 E7.35093
G1 X32.872 Y48.274 E7.38025
