; generated by Slic3r 1.1.7 on 2015-02-01 at 10:33:45

; perimeters extrusion width = 0.40mm
; infill extrusion width = 0.42mm
; solid infill extrusion width = 0.42mm
; top infill extrusion width = 0.42mm
; support material extrusion width = 0.40mm

G21 ; set units to millimeters
M107
M104 S195 ; set temperature
G28 ; home all axes
G1 Z5 F5000 ; lift nozzle
M109 S195 ; wait for temperature to be reached
G90 ; use absolute coordinates
G92 E0
M82 ; use absolute distances for extrusion
G1 F1800.000 E-1.00000
G92 E0
G1 Z0.300 F7800.000
G1 X39.924 Y23.628 F7800.000
G1 E1.00000 F1800.000
G1 X41.305 Y21.759 E1.10958 F1149.970
G1 X43.235 Y20.464 E1.21917
G1 X44.481 Y20.048 E1.28112
G1 X45.492 Y19.815 E1.33005
G1 X46.870 Y19.644 E1.39553
G1 X48.454 Y19.644 E1.47025
G1 X50.108 Y19.822 E1.54867 F1149.970
G1 X50.921 Y19.984 E1.58780
G1 X52.230 Y20.385 E1.65235
G1 X52.969 Y20.696 E1.69016
G1 X54.926 Y21.950 E1.79973
G1 X55.539 Y22.511 E1.83895
G1 X56.959 Y24.351 E1.94853
G1 X57.569 Y25.987 E2.03087
G1 X58.015 Y28.306 E2.14222
G1 X58.541 Y36.515 E2.53013
G1 X58.524 Y39.209 E2.65720
G1 X56.451 Y55.822 E3.44669
G1 X55.354 Y58.762 E3.59464
G1 X54.985 Y59.314 E3.62598
G1 X53.010 Y61.253 E3.75649
G1 X52.239 Y61.748 E3.79972
G1 X50.788 Y62.453 E3.87576
G1 X50.487 Y62.558 E3.89081
G1 X47.480 Y62.887 E4.03345
G1 X45.767 Y62.642 E4.11506
G1 X43.611 Y61.773 E4.22465
G1 X42.225 Y60.637 E4.30919
G1 X41.278 Y59.624 E4.37457
G1 X40.005 Y57.680 E4.48416
G1 X39.558 Y56.210 E4.55661
G1 X35.684 Y35.151 E5.56637
G1 X35.660 Y32.827 E5.67595
G1 X36.293 Y30.874 E5.77277
G1 X39.897 Y23.682 E6.15214
G1 X40.282 Y23.807 F7800.000
G1 X41.631 Y22.002 E6.25842 F1149.970
G1 X44.570 Y20.438 E6.41544
G1 X45.581 Y20.205 E6.46438
G1 X46.878 Y20.044 E6.52600
G1 X48.423 Y20.043 E6.59883
G1 X50.030 Y20.215 E6.67504
G1 X50.843 Y20.377 E6.71417 F1149.970
G1 X52.075 Y20.754 E6.77492
G1 X52.814 Y21.065 E6.81273
G1 X54.655 Y22.245 E6.91585
G1 X55.269 Y22.806 E6.95507
G1 X56.637 Y24.598 E7.06136
G1 X57.180 Y26.077 E7.13568
G1 X57.616 Y28.331 E7.24396
G1 X58.141 Y36.523 E7.63102
G1 X58.127 Y39.160 E7.75538
G1 X56.054 Y55.773 E8.54487
G1 X55.022 Y58.539 E8.68411
G1 X54.652 Y59.092 E8.71546
G1 X52.794 Y60.916 E8.83829
G1 X52.022 Y61.412 E8.88152
G1 X50.657 Y62.075 E8.95309
G1 X50.356 Y62.180 E8.96814
G1 X47.526 Y62.490 E9.10238
G1 X45.851 Y62.251 E9.18218
G1 X43.765 Y61.397 E9.28847
G1 X42.517 Y60.363 E9.36487
G1 X41.570 Y59.351 E9.43025
G1 X40.345 Y57.459 E9.53654
G1 X39.951 Y56.138 E9.60156
G1 X36.077 Y35.078 E10.61131
G1 X36.066 Y32.825 E10.71760
G1 X36.650 Y31.053 E10.80556
G1 X40.255 Y23.861 E11.18493
G1 F1800.000 E10.18493
G92 E0
G1 X47.131 Y54.145 F7800.000
G1 E1.00000 F1800.000
G1 X47.489 Y53.578 E1.03163 F1379.963
G1 X47.570 Y53.521 E1.03630
G1 X48.126 Y53.443 E1.06279
G1 X48.589 Y53.638 E1.08647
G1 X48.793 Y54.090 E1.10984
G1 X48.735 Y54.628 E1.13538
G1 X48.618 Y54.803 E1.14532
G1 X48.138 Y55.112 E1.17220
G1 X47.689 Y55.060 E1.19353
G1 X47.188 Y54.524 E1.22812
G1 X47.140 Y54.205 E1.24335
G1 X46.736 Y54.205 F7800.000
G1 X46.713 Y54.058 E1.25037 F1379.963
G1 X47.194 Y53.297 E1.29280
G1 X47.419 Y53.139 E1.30578
G1 X47.507 Y53.126 E1.30999
G1 X48.180 Y53.031 E1.34202 F1379.963
G1 X48.889 Y53.331 E1.37831
G1 X49.203 Y54.024 E1.41421
G1 X49.122 Y54.769 E1.44953
G1 X48.904 Y55.095 E1.46803
G1 X48.298 Y55.484 E1.50200
G1 X48.194 Y55.521 E1.50722
G1 X47.497 Y55.440 E1.54027
G1 X46.811 Y54.706 E1.58765
G1 X46.744 Y54.264 E1.60873
G1 X46.340 Y54.264 F7800.000
G1 X46.301 Y53.962 E1.62314 F900.000
G1 X46.898 Y53.016 E1.67589
G1 X47.268 Y52.756 E1.69719
G1 X48.234 Y52.620 E1.74319
G1 X48.511 Y52.737 E1.75736
G1 X49.189 Y53.023 E1.79209 F900.000
G1 X49.612 Y53.959 E1.84051
G1 X49.509 Y54.910 E1.88560
G1 X49.190 Y55.387 E1.91267
G1 X48.474 Y55.847 E1.95281
G1 X48.238 Y55.929 E1.96458
G1 X47.296 Y55.810 E2.00938
G1 X46.434 Y54.889 E2.06888
G1 X46.349 Y54.324 E2.09582
G1 F1800.000 E1.09582
G92 E0
G1 X48.711 Y53.083 F7800.000
G1 X48.331 Y53.827 F7800.000
G1 E1.00000 F1800.000
G1 X48.409 Y53.905 E1.00542 F1149.970
G1 X48.387 Y54.610 E1.04026
G1 X47.637 Y53.860 E1.09260
G1 X47.446 Y54.396 E1.12069
G1 X47.853 Y54.803 E1.14910
G1 F1800.000 E0.14910
G92 E0
G1 X50.216 Y41.481 F7800.000
G1 E1.00000 F1800.000
G1 X50.130 Y41.652 E1.00898 F1149.970
G1 X49.456 Y41.211 E1.04696
G1 X51.742 Y36.650 E1.28755
G1 X51.447 Y35.454 E1.34563
G1 X48.710 Y40.913 E1.63359
G1 X47.863 Y40.820 E1.67382
G1 X51.334 Y33.892 E2.03921
G1 X51.169 Y32.438 E2.10825
G1 X46.861 Y41.033 E2.56163
G1 X45.761 Y41.443 E2.61700
G1 X51.094 Y30.801 E3.17836
G1 X51.229 Y28.746 F7800.000
G1 X45.423 Y40.332 E3.78950 F1149.970
G1 X44.876 Y39.637 E3.83119
G1 X50.946 Y27.526 E4.47001
G1 X50.333 Y26.964 E4.50923
G1 X44.494 Y38.613 E5.12369
G1 X44.383 Y37.050 E5.19758
G1 X49.594 Y26.653 E5.74600
G1 X48.780 Y26.491 E5.78512
G1 X43.782 Y36.463 E6.31112
G1 X43.207 Y35.826 E6.35163
G1 X44.390 Y33.465 E6.47616
G1 X44.692 Y32.863 F7800.000
G1 X47.919 Y26.423 E6.81582 F1149.970
G1 X47.015 Y26.443 E6.85849
G1 X44.809 Y30.843 E7.09062
G1 X44.271 Y31.917 F7800.000
G1 X42.649 Y35.153 E7.26130 F1149.970
G1 X42.372 Y33.921 E7.32086
G1 X42.952 Y32.762 E7.38197
G1 F1800.000 E6.38197
G92 E0
G1 X44.872 Y28.931 F7800.000
G1 E1.00000 F1800.000
G1 X46.003 Y26.675 E1.11902 F1149.970
G1 F1800.000 E0.11902
G92 E0
G1 X51.776 Y38.367 F7800.000
G1 E1.00000 F1800.000
G1 X51.165 Y39.586 E1.06429 F1149.970
M106 S255
G1 F1800.000 E0.06429
G92 E0
G1 Z0.600 F7800.000
G1 X45.804 Y54.296 F7800.000
G1 E1.00000 F1800.000
M106 S255
G1 X45.788 Y54.018 E1.01373 F3000.000
G1 X45.965 Y53.299 E1.05032
G1 X46.564 Y52.545 E1.09787
G1 X46.684 Y52.449 E1.10546
G1 X47.468 Y52.098 E1.14790
G1 X48.166 Y52.036 E1.18249
G1 X48.640 Y52.163 E1.20671
M106 S255
M106 S255
G1 X48.896 Y52.232 E1.21981 F3000.000
G1 X49.526 Y52.625 E1.25647
G1 X49.588 Y52.686 E1.26080
G1 X49.986 Y53.296 E1.29677
G1 X50.200 Y54.034 E1.33470
G1 X50.151 Y54.742 E1.36974
G1 X49.822 Y55.511 E1.41104
G1 X49.653 Y55.723 E1.42444
G1 X49.027 Y56.227 E1.46410
G1 X48.939 Y56.275 E1.46906
G1 X48.177 Y56.454 E1.50773
G1 X47.438 Y56.396 E1.54430
G1 X46.780 Y56.130 E1.57938
G1 X46.109 Y55.437 E1.62703
G1 X45.990 Y55.210 E1.63964
G1 X45.832 Y54.775 E1.66250
G1 X45.807 Y54.356 E1.68326
M106 S255
G1 X45.405 Y54.319 F7800.000
M106 S255
G1 X45.385 Y53.981 E1.69997 F3000.000
G1 X45.597 Y53.118 E1.74386
G1 X46.279 Y52.261 E1.79796
G1 X46.474 Y52.105 E1.81030
G1 X47.366 Y51.706 E1.85856
M106 S255
M106 S255
G1 X48.201 Y51.631 E1.89997 F3000.000
G1 X49.057 Y51.861 E1.94374
G1 X49.775 Y52.309 E1.98550
G1 X49.950 Y52.481 E1.99766
G1 X49.939 Y52.492 E1.99843
G1 X50.354 Y53.128 E2.03590
G1 X50.604 Y53.991 E2.08027
G1 X50.545 Y54.837 E2.12216
G1 X50.168 Y55.718 E2.16947
G1 X49.938 Y56.007 E2.18771
G1 X49.250 Y56.561 E2.23133
G1 X49.083 Y56.652 E2.24074
G1 X48.208 Y56.857 E2.28515
G1 X47.348 Y56.790 E2.32771
G1 X46.655 Y56.520 E2.36448
G1 X46.531 Y56.448 E2.37151
G1 X45.781 Y55.673 E2.42479
G1 X45.624 Y55.372 E2.44157
G1 X45.436 Y54.857 E2.46863
G1 X45.408 Y54.379 E2.49227
M106 S255
G1 X45.005 Y54.343 F7800.000
M106 S255
G1 X44.982 Y53.945 E2.51197 F3000.000
G1 X45.230 Y52.938 E2.56315
G1 X45.993 Y51.977 E2.62380
G1 X46.264 Y51.760 E2.64089
G1 X47.264 Y51.314 E2.69499
G1 X48.236 Y51.226 E2.74319
G1 X48.847 Y51.390 E2.77443
M106 S255
M106 S255
G1 X49.218 Y51.490 E2.79342 F3000.000
G1 X50.024 Y51.993 E2.84029
G1 X50.211 Y52.176 E2.85324
G1 X50.722 Y52.959 E2.89940
G1 X51.008 Y53.948 E2.95022
G1 X50.940 Y54.932 E2.99896
G1 X50.515 Y55.925 E3.05226
G1 X50.224 Y56.290 E3.07535
G1 X49.473 Y56.895 E3.12293
G1 X49.227 Y57.029 E3.13678
G1 X48.238 Y57.261 E3.18693
G1 X47.258 Y57.184 E3.23549
G1 X46.481 Y56.881 E3.27668
G1 X46.283 Y56.767 E3.28797
G1 X45.453 Y55.910 E3.34689
G1 X45.257 Y55.534 E3.36784
G1 X45.040 Y54.939 E3.39909
G1 X45.009 Y54.403 E3.42562
M106 S255
G1 F1800.000 E2.42562
G92 E0
G1 X46.649 Y52.878 F7800.000
G1 E1.00000 F1800.000
M106 S255
G1 X46.854 Y52.673 E1.01433 F3000.000
G1 X47.868 Y52.338 E1.06706
G1 X46.069 Y54.137 E1.19269
G1 X46.120 Y54.765 E1.22380
G1 X48.481 Y52.404 E1.38865
G1 X48.965 Y52.598 E1.41443
G1 X46.318 Y55.245 E1.59930
G1 X46.655 Y55.587 E1.62300
G1 X49.364 Y52.878 E1.81220
G1 X49.645 Y53.276 E1.83624
G1 X46.998 Y55.923 E2.02110
G1 X47.482 Y56.118 E2.04685
G1 X49.836 Y53.764 E2.21126
G1 X49.901 Y54.377 E2.24173
G1 X48.105 Y56.173 E2.36715
M106 S255
G1 X49.311 Y55.647 F7800.000
M106 S255
G1 X49.567 Y55.390 E2.38508 F3000.000
M106 S255
G1 F1800.000 E1.38508
G92 E0
G1 X50.196 Y40.171 F7800.000
G1 E1.00000 F1800.000
G1 X45.792 Y40.171 E1.20768 F900.000
G1 X45.099 Y37.271 E1.34829
G1 X50.889 Y37.271 E1.62136
G1 X50.944 Y34.371 E1.75814
G1 X42.784 Y34.371 E2.14296
G1 F1800.000 E1.14296
G92 E0
G1 X45.164 Y31.471 F7800.000
G1 E1.00000 F1800.000
G1 X50.817 Y31.471 E1.26657 F900.000
G1 X50.820 Y28.571 F7800.000
G1 X45.159 Y28.571 E1.53354 F900.000
G1 X48.070 Y26.453 F7800.000
G1 X47.755 Y26.444 E1.54841 F900.000
G1 X46.859 Y26.470 E1.59064
G1 X46.447 Y26.553 E1.61045
G1 X46.087 Y26.660 E1.62820
G1 X45.719 Y26.822 E1.64715
G1 X45.295 Y27.118 E1.67154
G1 X44.839 Y27.739 E1.70786
G1 X44.768 Y28.705 E1.75355
G1 X44.964 Y29.053 E1.77238
G1 X44.839 Y29.223 E1.78233
G1 X44.768 Y30.189 E1.82801
G1 X44.964 Y30.537 E1.84684
G1 X44.839 Y30.707 E1.85679
G1 X44.768 Y31.673 E1.90248
G1 X45.060 Y32.192 E1.93055
G1 X44.871 Y32.148 E1.93971
G1 X44.774 Y32.280 E1.94746
G1 X44.727 Y32.272 E1.94972
G1 X44.692 Y33.644 E2.01444
G1 X44.271 Y33.426 E2.03679
G1 X44.135 Y33.331 E2.04461
G1 X44.010 Y33.211 E2.05281
G1 X43.911 Y33.075 E2.06071
G1 X43.840 Y32.922 E2.06869
G1 X43.803 Y32.751 E2.07691
G1 X43.808 Y32.571 E2.08543
G1 X43.852 Y32.408 E2.09337
G1 X43.929 Y32.262 E2.10115
G1 X44.032 Y32.134 E2.10894
G1 X44.163 Y32.022 E2.11702
G1 X44.284 Y31.948 E2.12371
G1 X44.135 Y31.847 E2.13219
G1 X44.009 Y31.726 E2.14041
G1 X42.826 Y32.918 E2.21959
G1 X42.624 Y33.211 E2.23637
G1 X42.477 Y33.541 E2.25342
G1 X42.392 Y33.906 E2.27107
G1 X42.383 Y34.301 E2.28972
G1 X42.453 Y34.679 E2.30784
G1 X42.589 Y35.020 E2.32515
G1 X42.778 Y35.321 E2.34191
G1 X44.204 Y36.901 E2.44230
G1 X44.190 Y36.959 E2.44512
G1 X44.288 Y36.995 E2.45007
G1 X44.317 Y37.027 E2.45208
G1 X44.322 Y37.007 E2.45303
G1 X44.735 Y37.156 E2.47374
G1 X44.222 Y38.393 E2.53687
G1 X44.607 Y38.669 E2.55919
G1 X44.300 Y39.067 E2.58288
G1 X45.326 Y40.033 E2.64932
G1 X45.382 Y40.131 E2.65466
G1 X45.841 Y41.639 E2.72900
G1 X46.136 Y41.402 E2.74684
G1 X46.876 Y41.002 E2.78654
G1 X47.620 Y40.800 E2.82288
G1 X48.368 Y40.800 E2.85813
G1 X49.111 Y41.002 E2.89447
G1 X49.760 Y41.352 E2.92923
G1 X49.760 Y41.328 E2.93037
G1 X50.147 Y41.639 E2.95379
G1 X50.605 Y40.131 E3.02814
G1 X50.662 Y40.033 E3.03347
G1 X51.688 Y39.067 E3.09991
G1 X51.381 Y38.669 E3.12360
G1 X51.765 Y38.393 E3.14593
G1 X51.253 Y37.156 E3.20906
G1 X51.798 Y36.959 E3.23640
G1 X51.408 Y35.383 E3.31295
G1 X51.311 Y34.197 E3.36907
G1 X51.331 Y32.453 E3.45134
G1 X51.165 Y32.476 E3.45924
G1 X51.025 Y32.187 E3.47439
G1 X51.210 Y31.731 E3.49762
G1 X51.174 Y31.010 E3.53167
G1 X51.025 Y30.703 E3.54774
G1 X51.210 Y30.247 E3.57096
G1 X51.174 Y29.526 E3.60502
G1 X51.025 Y29.219 E3.62109
G1 X51.210 Y28.763 E3.64431
G1 X51.174 Y28.041 E3.67837
G1 X50.910 Y27.497 E3.70690
G1 X50.580 Y27.133 E3.73007
G1 X50.305 Y26.950 E3.74561
G1 X49.946 Y26.790 E3.76415
G1 X49.577 Y26.669 E3.78250
G1 X49.201 Y26.576 E3.80074
G1 X48.933 Y26.524 E3.81361
G1 X48.070 Y26.453 E3.85447
G1 F1800.000 E2.85447
G92 E0
G1 Z0.900 F7800.000
G1 X44.873 Y54.349 F7800.000
G1 E1.00000 F1800.000
G1 X44.857 Y53.998 E1.01656 F900.000
G1 X45.003 Y53.227 E1.05356
G1 X45.455 Y52.412 E1.09751
G1 X45.845 Y51.965 E1.12548
G1 X46.250 Y51.641 E1.14994
G1 X46.616 Y51.429 E1.16990
G1 X47.423 Y51.168 E1.20987
G1 X48.183 Y51.118 E1.24580
G1 X48.647 Y51.209 E1.26809
G1 X48.959 Y51.269 E1.28310 F900.000
G1 X49.756 Y51.630 E1.32435
G1 X50.568 Y52.420 E1.37777
G1 X50.945 Y53.202 E1.41869
G1 X51.117 Y54.007 E1.45751
G1 X51.077 Y54.800 E1.49499
G1 X50.817 Y55.618 E1.53545
G1 X50.557 Y56.061 E1.55966
G1 X50.316 Y56.364 E1.57791
G1 X49.735 Y56.859 E1.61395
G1 X49.167 Y57.169 E1.64445
G1 X48.987 Y57.242 E1.65359
G1 X48.189 Y57.382 E1.69179
G1 X47.404 Y57.336 E1.72886
G1 X46.683 Y57.126 E1.76431
G1 X45.796 Y56.505 E1.81535
G1 X45.714 Y56.423 E1.82082
G1 X45.138 Y55.570 E1.86936
G1 X44.995 Y55.179 E1.88899
G1 X44.894 Y54.820 E1.90659
G1 X44.875 Y54.409 E1.92600
G1 X44.473 Y54.367 F7800.000
M106 S255
G1 X44.455 Y53.969 E1.94566 F3000.000
G1 X44.622 Y53.089 E1.98988
G1 X45.126 Y52.181 E2.04117
G1 X45.567 Y51.675 E2.07433
G1 X46.023 Y51.310 E2.10319
G1 X46.453 Y51.061 E2.12768
G1 X47.347 Y50.772 E2.17410
G1 X47.959 Y50.732 E2.20438
M106 S255
M106 S255
G1 X48.209 Y50.716 E2.21674 F3000.000
G1 X49.082 Y50.886 E2.26066
G1 X49.985 Y51.294 E2.30963
G1 X50.897 Y52.183 E2.37252
G1 X51.326 Y53.071 E2.42122
G1 X51.520 Y53.975 E2.46685
G1 X51.474 Y54.872 E2.51124
G1 X51.185 Y55.782 E2.55838
G1 X50.888 Y56.288 E2.58735
G1 X50.605 Y56.643 E2.60976
G1 X49.962 Y57.191 E2.65146
G1 X49.338 Y57.531 E2.68657
G1 X49.098 Y57.629 E2.69937
G1 X48.212 Y57.784 E2.74378
G1 X47.336 Y57.732 E2.78713
G1 X46.556 Y57.505 E2.82725
G1 X46.492 Y57.480 E2.83064
G1 X45.537 Y56.813 E2.88816
G1 X45.404 Y56.679 E2.89752
G1 X44.779 Y55.753 E2.95266
G1 X44.614 Y55.302 E2.97639
G1 X44.497 Y54.884 E2.99783
G1 X44.476 Y54.427 E3.02043
M106 S255
G1 X44.074 Y54.385 F7800.000
M106 S255
G1 X44.053 Y53.940 E3.04240 F3000.000
G1 X44.241 Y52.952 E3.09211
G1 X44.797 Y51.950 E3.14866
G1 X45.289 Y51.385 E3.18567
G1 X45.797 Y50.979 E3.21779
G1 X46.289 Y50.694 E3.24587
G1 X47.271 Y50.376 E3.29685
G1 X48.234 Y50.313 E3.34451
G1 X48.800 Y50.423 E3.37295
M106 S255
M106 S255
G1 X49.204 Y50.502 E3.39328 F3000.000
G1 X50.214 Y50.958 E3.44803
G1 X51.227 Y51.946 E3.51787
G1 X51.707 Y52.940 E3.57242
G1 X51.922 Y53.942 E3.62302
G1 X51.871 Y54.944 E3.67256
G1 X51.553 Y55.946 E3.72447
G1 X51.218 Y56.515 E3.75705
G1 X50.894 Y56.922 E3.78276
G1 X50.190 Y57.522 E3.82843
G1 X49.510 Y57.893 E3.86669
G1 X49.209 Y58.015 E3.88272
G1 X48.235 Y58.186 E3.93155
G1 X47.268 Y58.129 E3.97942
G1 X46.302 Y57.836 E4.02926
G1 X45.279 Y57.120 E4.09089
G1 X45.093 Y56.934 E4.10388
G1 X44.420 Y55.936 E4.16334
G1 X44.233 Y55.425 E4.19024
G1 X44.099 Y54.948 E4.21469
G1 X44.076 Y54.445 E4.23956
M106 S255
G1 F1800.000 E3.23956
G92 E0
G1 X45.868 Y56.161 F7800.000
G1 E1.00000 F1800.000
G1 X46.067 Y56.360 E1.01389 F900.000
G1 X47.361 Y57.037 F7800.000
G1 X45.193 Y54.869 E1.16532 F900.000
G1 X45.140 Y54.200 E1.19849
G1 X48.039 Y57.098 E1.40091
G1 X48.591 Y57.033 E1.42836
G1 X45.203 Y53.645 E1.66497
G1 X45.347 Y53.172 E1.68938
G1 X49.079 Y56.904 E1.95002
G1 X49.479 Y56.686 E1.97249
G1 X45.568 Y52.775 E2.24565
G1 X45.820 Y52.410 E2.26755
G1 X49.829 Y56.419 E2.54749
G1 X50.145 Y56.118 E2.56905
G1 X46.127 Y52.100 E2.84961
G1 X46.473 Y51.829 E2.87131
G1 X50.412 Y55.767 E3.14639
G1 X50.614 Y55.353 E3.16918
G1 X46.890 Y51.628 E3.42928
G1 X47.356 Y51.477 E3.45348
G1 X50.763 Y54.884 E3.69138
G1 X50.826 Y54.330 E3.71890
G1 X47.907 Y51.411 E3.92277
G1 X48.590 Y51.477 E3.95666
G1 X50.760 Y53.647 E4.10818
G1 X50.368 Y52.638 F7800.000
G1 X49.582 Y51.852 E4.16306 F900.000
G1 F1800.000 E3.16306
G92 E0
G1 X50.196 Y40.171 F7800.000
G1 E1.00000 F1800.000
G1 X45.792 Y40.171 E1.20768 F900.000
G1 X45.099 Y37.271 E1.34829
G1 X50.889 Y37.271 E1.62136
G1 X50.944 Y34.371 E1.75814
G1 X42.784 Y34.371 E2.14296
G1 F1800.000 E1.14296
G92 E0
G1 X45.164 Y31.471 F7800.000
G1 E1.00000 F1800.000
G1 X50.817 Y31.471 E1.26657 F900.000
G1 X50.820 Y28.571 F7800.000
G1 X45.159 Y28.571 E1.53354 F900.000
G1 X48.070 Y26.453 F7800.000
G1 X47.755 Y26.444 E1.54841 F900.000
G1 X46.859 Y26.470 E1.59064
G1 X46.447 Y26.553 E1.61045
G1 X46.087 Y26.660 E1.62820
G1 X45.719 Y26.822 E1.64715
G1 X45.295 Y27.118 E1.67154
G1 X44.839 Y27.739 E1.70786
G1 X44.768 Y28.705 E1.75355
G1 X44.964 Y29.053 E1.77238
G1 X44.839 Y29.223 E1.78233
G1 X44.768 Y30.189 E1.82801
G1 X44.964 Y30.537 E1.84684
G1 X44.839 Y30.707 E1.85679
G1 X44.768 Y31.673 E1.90248
G1 X45.060 Y32.192 E1.93055
G1 X44.871 Y32.148 E1.93971
G1 X44.774 Y32.280 E1.94746
