; generated by Slic3r 1.1.7 on 2015-02-10 at 18:09:06

; perimeters extrusion width = 0.40mm
; infill extrusion width = 0.42mm
; solid infill extrusion width = 0.42mm
; top infill extrusion width = 0.42mm
; support material extrusion width = 0.40mm

G21 ; set units to millimeters
M107
M104 S195 ; set temperature
G28 ; home all axes
G1 Z5 F5000 ; lift nozzle
M109 S195 ; wait for temperature to be reached
G90 ; use absolute coordinates
G92 E0
M82 ; use absolute distances for extrusion
G1 F1800.000 E-1.00000
G92 E0
G1 Z0.300 F7800.000
G1 X35.697 Y32.485 F7800.000
G1 E1.00000 F1800.000
G1 X37.556 Y31.090 E1.10958 F1771.230
G1 X40.648 Y30.346 E1.25955
G1 X55.352 Y30.346 E1.95298
G1 X57.642 Y30.744 E2.06256
G1 X59.664 Y31.888 E2.17214 F1771.230
G1 X61.183 Y33.647 E2.28173
G1 X62.136 Y36.681 E2.43170
G1 X62.749 Y46.231 E2.88298
G1 X62.586 Y47.554 E2.94583
G1 X62.549 Y47.717 E2.95369
G1 X62.187 Y48.856 E3.01008
G1 X62.105 Y49.052 E3.02011
G1 X61.549 Y50.108 E3.07637
G1 X60.721 Y51.233 E3.14224
G1 X59.997 Y51.993 E3.19176
G1 X53.948 Y57.515 E3.57797
G1 X52.676 Y58.400 E3.65104
G1 X51.265 Y59.066 E3.72465
G1 X49.763 Y59.488 E3.79819
G1 X48.212 Y59.654 E3.87175
G1 X46.655 Y59.559 E3.94530
G1 X45.137 Y59.206 E4.01882
G1 X43.696 Y58.604 E4.09245
G1 X42.377 Y57.772 E4.16600
G1 X41.667 Y57.187 E4.20937
G1 X35.536 Y51.521 E4.60304
G1 X34.618 Y50.369 E4.67251
G1 X34.452 Y50.110 E4.68704
G1 X33.895 Y49.051 E4.74347
G1 X33.813 Y48.855 E4.75350
G1 X33.450 Y47.716 E4.80984
G1 X33.415 Y47.557 E4.81753
G1 X33.258 Y46.373 E4.87386
G1 X33.261 Y45.470 E4.91642
G1 X33.864 Y36.681 E5.33186
G1 X34.416 Y34.424 E5.44145
G1 X35.664 Y32.535 E5.54820
G1 X36.042 Y32.721 F7800.000
G1 X36.082 Y32.661 E5.55158 F1771.230
G1 X37.920 Y31.357 E5.65787
G1 X40.648 Y30.746 E5.78967
G1 X55.352 Y30.746 E6.48309
G1 X57.571 Y31.143 E6.58938
G1 X59.514 Y32.285 E6.69567 F1771.230
G1 X60.942 Y34.029 E6.80195
G1 X61.737 Y36.708 E6.93376
G1 X62.349 Y46.214 E7.38293
G1 X62.195 Y47.467 E7.44246
G1 X61.818 Y48.702 E7.50336
G1 X61.209 Y49.898 E7.56667
G1 X60.431 Y50.959 E7.62869
G1 X59.726 Y51.699 E7.67687
G1 X53.700 Y57.201 E8.06169
G1 X52.484 Y58.049 E8.13162
G1 X51.133 Y58.689 E8.20207
G1 X49.697 Y59.093 E8.27246
G1 X48.212 Y59.254 E8.34287
G1 X46.722 Y59.164 E8.41327
G1 X45.268 Y58.828 E8.48364
G1 X43.888 Y58.254 E8.55412
G1 X42.625 Y57.458 E8.62452
G1 X41.937 Y56.893 E8.66651
G1 X35.834 Y51.254 E9.05834
G1 X34.955 Y50.152 E9.12482
G1 X34.264 Y48.897 E9.19241
G1 X33.841 Y47.629 E9.25544
G1 X33.657 Y46.355 E9.31612
G1 X33.660 Y45.498 E9.35656
G1 X34.263 Y36.708 E9.77200
G1 X34.810 Y34.522 E9.87829
G1 X36.008 Y32.770 E9.97836
G1 F1800.000 E8.97836
G92 E0
G1 X54.895 Y46.048 F7800.000
G1 E1.00000 F1800.000
G1 X54.698 Y46.267 E1.01393 F2125.476
G1 X54.438 Y46.493 E1.03015
G1 X54.091 Y46.740 E1.05025
G1 X53.664 Y46.996 E1.07372
G1 X53.168 Y47.253 E1.10005
G1 X52.612 Y47.502 E1.12878
G1 X52.007 Y47.739 E1.15943
G1 X51.362 Y47.959 E1.19155
G1 X50.640 Y48.172 E1.22706
G1 X50.434 Y48.247 E1.23741
G1 X50.198 Y48.380 E1.25019
G1 X49.988 Y48.551 E1.26295
G1 X49.808 Y48.754 E1.27574
G1 X49.664 Y48.984 E1.28855
G1 X49.560 Y49.234 E1.30130
G1 X49.499 Y49.498 E1.31408
G1 X49.482 Y49.769 E1.32687
G1 X49.536 Y50.294 E1.35176
G1 X49.520 Y50.550 E1.36387
G1 X49.461 Y50.800 E1.37598
G1 X49.361 Y51.036 E1.38809
G1 X49.223 Y51.253 E1.40020
G1 X49.051 Y51.444 E1.41231
G1 X48.849 Y51.603 E1.42442
G1 X48.624 Y51.726 E1.43653
G1 X48.382 Y51.811 E1.44864
G1 X48.128 Y51.854 E1.46075
G1 X47.872 Y51.854 E1.47286
G1 X47.618 Y51.811 E1.48497
G1 X47.376 Y51.726 E1.49708
G1 X47.151 Y51.603 E1.50919
G1 X46.949 Y51.444 E1.52130
G1 X46.777 Y51.253 E1.53341
G1 X46.639 Y51.036 E1.54552
G1 X46.540 Y50.800 E1.55763
G1 X46.480 Y50.550 E1.56974
G1 X46.464 Y50.293 E1.58185
G1 X46.518 Y49.769 E1.60674
G1 X46.501 Y49.498 E1.61952
G1 X46.440 Y49.234 E1.63231
G1 X46.336 Y48.984 E1.64508
G1 X46.192 Y48.754 E1.65786
G1 X46.012 Y48.551 E1.67065
G1 X45.802 Y48.380 E1.68343
G1 X45.566 Y48.247 E1.69620
G1 X43.993 Y47.739 E1.77415
G1 X43.388 Y47.502 E1.80481
G1 X42.832 Y47.253 E1.83354
G1 X42.336 Y46.996 E1.85986
G1 X41.909 Y46.740 E1.88333
G1 X41.562 Y46.493 E1.90344
G1 X41.302 Y46.268 E1.91966
G1 X41.105 Y46.048 E1.93359
G1 X41.355 Y45.942 E1.94636
G1 X41.679 Y45.852 E1.96221
G1 X42.092 Y45.781 E1.98200
G1 X43.276 Y45.698 E2.03795
G1 X43.533 Y45.631 E2.05049
G1 X43.776 Y45.523 E2.06303
G1 X43.998 Y45.377 E2.07557
G1 X44.194 Y45.197 E2.08811
G1 X44.358 Y44.988 E2.10064
G1 X44.486 Y44.755 E2.11318
G1 X44.575 Y44.504 E2.12572
G1 X44.622 Y44.243 E2.13826
G1 X44.626 Y43.977 E2.15080
G1 X44.587 Y43.714 E2.16334
G1 X44.507 Y43.461 E2.17588
G1 X43.507 Y41.752 E2.26926
G1 X42.878 Y40.598 E2.33118
G1 X42.407 Y39.636 E2.38171
G1 X42.071 Y38.845 E2.42223
G1 X41.827 Y38.146 E2.45714
G1 X45.529 Y38.146 E2.63173
G1 X46.620 Y39.965 E2.73175
G1 X46.760 Y40.158 E2.74297
G1 X46.961 Y40.354 E2.75623
G1 X47.193 Y40.513 E2.76948
G1 X47.448 Y40.630 E2.78274
G1 X47.720 Y40.702 E2.79599
G1 X48.000 Y40.726 E2.80924
G1 X48.280 Y40.702 E2.82250
G1 X48.552 Y40.630 E2.83575
G1 X48.807 Y40.513 E2.84901
G1 X49.039 Y40.354 E2.86226
G1 X49.240 Y40.158 E2.87552
G1 X49.380 Y39.965 E2.88673
G1 X50.471 Y38.146 E2.98676
G1 X54.173 Y38.146 E3.16135
G1 X53.929 Y38.845 E3.19626
G1 X53.593 Y39.636 E3.23678
G1 X53.122 Y40.598 E3.28731
G1 X52.494 Y41.752 E3.34923
G1 X51.493 Y43.461 E3.44262
G1 X51.413 Y43.714 E3.45516
G1 X51.374 Y43.977 E3.46768
G1 X51.378 Y44.243 E3.48021
G1 X51.425 Y44.504 E3.49275
G1 X51.514 Y44.755 E3.50530
G1 X51.642 Y44.988 E3.51786
G1 X51.806 Y45.197 E3.53039
G1 X52.002 Y45.377 E3.54291
G1 X52.224 Y45.523 E3.55546
G1 X52.467 Y45.631 E3.56801
G1 X52.725 Y45.698 E3.58054
G1 X53.908 Y45.781 E3.63648
G1 X54.321 Y45.852 E3.65627
G1 X54.645 Y45.942 E3.67213
G1 X54.840 Y46.024 E3.68207
G1 X55.298 Y46.148 F7800.000
G1 X55.186 Y46.322 E3.69186 F2125.476
G1 X54.979 Y46.553 E3.70649
G1 X54.686 Y46.808 E3.72480
G1 X54.310 Y47.075 E3.74654
G1 X53.859 Y47.346 E3.77134
G1 X53.342 Y47.613 E3.79880
G1 X52.767 Y47.871 E3.82851
G1 X52.144 Y48.115 E3.86004
G1 X50.602 Y48.611 E3.93646
G1 X50.424 Y48.712 E3.94611
G1 X50.265 Y48.841 E3.95575
G1 X50.129 Y48.994 E3.96540
G1 X50.021 Y49.168 E3.97507
G1 X49.942 Y49.357 E3.98470
G1 X49.896 Y49.556 E3.99435
G1 X49.883 Y49.760 E4.00401
G1 X49.938 Y50.286 E4.02893
G1 X49.917 Y50.609 E4.04420
G1 X49.842 Y50.924 E4.05947
G1 X49.716 Y51.223 E4.07475
G1 X49.542 Y51.496 E4.09002
G1 X49.325 Y51.736 E4.10530
G1 X49.071 Y51.937 E4.12057
G1 X48.787 Y52.093 E4.13584
G1 X48.481 Y52.200 E4.15111
G1 X48.162 Y52.254 E4.16639
G1 X47.838 Y52.254 E4.18166
G1 X47.519 Y52.200 E4.19694
G1 X47.213 Y52.093 E4.21221
G1 X46.929 Y51.937 E4.22748
G1 X46.675 Y51.736 E4.24276
G1 X46.458 Y51.496 E4.25803
G1 X46.284 Y51.223 E4.27331
G1 X46.158 Y50.924 E4.28858
G1 X46.083 Y50.609 E4.30385
G1 X46.062 Y50.286 E4.31913
G1 X46.117 Y49.760 E4.34405
G1 X46.104 Y49.556 E4.35370
G1 X46.058 Y49.357 E4.36335
G1 X45.979 Y49.168 E4.37300
G1 X45.871 Y48.994 E4.38265
G1 X45.735 Y48.841 E4.39230
G1 X45.576 Y48.712 E4.40195
G1 X45.398 Y48.611 E4.41159
G1 X43.856 Y48.115 E4.48801
G1 X43.233 Y47.871 E4.51955
G1 X42.658 Y47.613 E4.54926
G1 X42.141 Y47.346 E4.57671
G1 X41.690 Y47.075 E4.60151
G1 X41.314 Y46.808 E4.62325
G1 X41.021 Y46.553 E4.64156
G1 X40.814 Y46.322 E4.65619
G1 X40.660 Y46.049 E4.67096
G1 X40.636 Y45.939 E4.67627
G1 X40.777 Y45.786 E4.68612
G1 X40.943 Y45.682 E4.69536
G1 X41.223 Y45.564 E4.70967
G1 X41.591 Y45.462 E4.72766
G1 X42.039 Y45.384 E4.74912
G1 X42.559 Y45.335 E4.77375
G1 X43.206 Y45.303 E4.80430
G1 X43.400 Y45.252 E4.81377
G1 X43.584 Y45.170 E4.82323
G1 X43.752 Y45.060 E4.83270
G1 X43.899 Y44.925 E4.84217
G1 X44.023 Y44.767 E4.85163
G1 X44.120 Y44.591 E4.86110
G1 X44.187 Y44.402 E4.87057
G1 X44.223 Y44.204 E4.88004
G1 X44.226 Y44.003 E4.88950
G1 X44.197 Y43.805 E4.89897
G1 X44.135 Y43.613 E4.90844
G1 X43.159 Y41.950 E4.99942
G1 X42.523 Y40.782 E5.06211
G1 X42.043 Y39.802 E5.11356
G1 X41.698 Y38.990 E5.15519
G1 X41.466 Y38.326 E5.18834
G1 X41.314 Y37.746 E5.21660
G1 X45.755 Y37.746 E5.42606
G1 X46.954 Y39.745 E5.53595
G1 X47.063 Y39.896 E5.54474
G1 X47.215 Y40.044 E5.55475
G1 X47.390 Y40.164 E5.56475
G1 X47.583 Y40.252 E5.57476
G1 X47.789 Y40.306 E5.58477
G1 X48.000 Y40.324 E5.59477
G1 X48.211 Y40.306 E5.60478
G1 X48.417 Y40.252 E5.61479
G1 X48.610 Y40.164 E5.62479
G1 X48.785 Y40.044 E5.63480
G1 X48.937 Y39.896 E5.64481
G1 X49.046 Y39.745 E5.65359
G1 X50.245 Y37.746 E5.76349
G1 X54.686 Y37.746 E5.97294
G1 X54.534 Y38.326 E6.00121
G1 X54.302 Y38.990 E6.03436
G1 X53.957 Y39.802 E6.07599
G1 X53.477 Y40.782 E6.12743
G1 X52.841 Y41.950 E6.19013
G1 X51.864 Y43.613 E6.28111
G1 X51.803 Y43.805 E6.29058
G1 X51.774 Y44.003 E6.30004
G1 X51.777 Y44.204 E6.30950
G1 X51.813 Y44.401 E6.31897
G1 X51.880 Y44.591 E6.32844
G1 X51.977 Y44.767 E6.33792
G1 X52.101 Y44.925 E6.34739
G1 X52.248 Y45.060 E6.35684
G1 X52.416 Y45.171 E6.36631
G1 X52.600 Y45.252 E6.37579
G1 X52.794 Y45.303 E6.38525
G1 X53.441 Y45.335 E6.41579
G1 X53.961 Y45.384 E6.44042
G1 X54.409 Y45.462 E6.46188
G1 X54.777 Y45.564 E6.47988
G1 X55.057 Y45.682 E6.49419
G1 X55.298 Y45.854 E6.50815
G1 X55.364 Y45.939 E6.51327
G1 X55.322 Y46.092 E6.52076
G1 F1800.000 E5.52076
G92 E0
G1 X43.823 Y44.165 F7800.000
G1 E1.00000 F1800.000
G1 X43.806 Y43.895 E1.01275 F1275.286
G1 X43.707 Y43.654 E1.02504
G1 X42.811 Y42.147 E1.10770
G1 X42.167 Y40.966 E1.17116
G1 X41.679 Y39.968 E1.22352
G1 X41.325 Y39.134 E1.26627
G1 X41.083 Y38.443 E1.30079
G1 X40.934 Y37.877 E1.32837
G1 X40.850 Y37.346 E1.35372
G1 X45.982 Y37.346 E1.59570
G1 X47.367 Y39.633 E1.72179
G1 X47.588 Y39.815 E1.73526
G1 X47.719 Y39.874 E1.74202
G1 X48.000 Y39.923 E1.75549
G1 X48.281 Y39.874 E1.76896
G1 X48.530 Y39.733 E1.78243
G1 X48.633 Y39.633 E1.78919
G1 X50.018 Y37.346 E1.91529
G1 X55.150 Y37.346 E2.15726
G1 X55.065 Y37.877 E2.18262
G1 X54.917 Y38.443 E2.21020
G1 X54.675 Y39.134 E2.24472
G1 X54.321 Y39.968 E2.28747
G1 X53.833 Y40.966 E2.33983
G1 X53.189 Y42.147 E2.40329
G1 X52.236 Y43.766 E2.49188
G1 X52.175 Y44.030 E2.50462
G1 X52.177 Y44.165 E2.51102
G1 X52.246 Y44.427 E2.52377
G1 X52.311 Y44.545 E2.53017
G1 X52.495 Y44.744 E2.54291
G1 X52.732 Y44.873 E2.55567
G1 X52.988 Y44.919 E2.56793
G1 X53.467 Y44.936 E2.59049
G1 X54.014 Y44.987 E2.61642
G1 X54.497 Y45.071 E2.63955
G1 X54.909 Y45.185 E2.65969
G1 X55.242 Y45.326 E2.67673
G1 X55.465 Y45.465 E2.68916
G1 X55.592 Y45.581 E2.69726
G1 X55.669 Y45.680 E2.70315
G1 X55.743 Y45.854 E2.71210
G1 X55.750 Y46.046 E2.72115
G1 X55.722 Y46.171 E2.72717
G1 X55.654 Y46.335 E2.73554
G1 X55.505 Y46.565 E2.74849
G1 X55.260 Y46.839 E2.76581
G1 X54.933 Y47.122 E2.78621
G1 X54.529 Y47.410 E2.80959
G1 X54.054 Y47.695 E2.83572
G1 X53.516 Y47.973 E2.86430
G1 X52.922 Y48.240 E2.89499
G1 X52.282 Y48.491 E2.92741
G1 X51.605 Y48.721 E2.96115
G1 X50.770 Y48.976 E3.00230
G1 X50.542 Y49.131 E3.01528
G1 X50.377 Y49.352 E3.02828
G1 X50.293 Y49.614 E3.04127
G1 X50.285 Y49.752 E3.04779
G1 X50.339 Y50.278 E3.07275
G1 X50.314 Y50.669 E3.09119
G1 X50.224 Y51.049 E3.10962
G1 X50.072 Y51.409 E3.12806
G1 X49.862 Y51.739 E3.14650
G1 X49.600 Y52.029 E3.16494
G1 X49.293 Y52.272 E3.18337
G1 X48.950 Y52.460 E3.20181
G1 X48.581 Y52.588 E3.22025
G1 X48.195 Y52.654 E3.23868
G1 X47.805 Y52.654 E3.25712
G1 X47.419 Y52.588 E3.27556
G1 X47.050 Y52.460 E3.29400
G1 X46.707 Y52.272 E3.31243
G1 X46.400 Y52.029 E3.33087
G1 X46.138 Y51.739 E3.34931
G1 X45.928 Y51.409 E3.36775
G1 X45.776 Y51.049 E3.38618
G1 X45.686 Y50.669 E3.40462
G1 X45.661 Y50.278 E3.42306
G1 X45.715 Y49.752 E3.44801
G1 X45.707 Y49.614 E3.45454
G1 X45.623 Y49.352 E3.46753
G1 X45.458 Y49.131 E3.48052
G1 X45.230 Y48.976 E3.49351
G1 X44.395 Y48.721 E3.53466
G1 X43.718 Y48.491 E3.56840
G1 X43.078 Y48.240 E3.60082
G1 X42.484 Y47.973 E3.63151
G1 X41.946 Y47.695 E3.66008
G1 X41.471 Y47.410 E3.68621
G1 X41.067 Y47.122 E3.70959
G1 X40.740 Y46.839 E3.73000
G1 X40.495 Y46.565 E3.74731
G1 X40.346 Y46.335 E3.76026
G1 X40.278 Y46.171 E3.76863
G1 X40.250 Y46.046 E3.77465
G1 X40.245 Y45.944 E3.77946
G1 X40.285 Y45.769 E3.78796
G1 X40.408 Y45.581 E3.79854
G1 X40.535 Y45.465 E3.80664
G1 X40.758 Y45.326 E3.81907
G1 X41.091 Y45.185 E3.83611
G1 X41.503 Y45.071 E3.85625
G1 X41.986 Y44.987 E3.87938
G1 X42.533 Y44.936 E3.90531
G1 X43.012 Y44.919 E3.92788
G1 X43.268 Y44.873 E3.94014
G1 X43.505 Y44.744 E3.95289
G1 X43.605 Y44.652 E3.95928
G1 X43.754 Y44.427 E3.97203
G1 X43.813 Y44.224 E3.98197
G1 X44.063 Y44.040 F7800.000
G1 F1800.000 E2.98197
G92 E0
G1 X43.831 Y41.763 F7800.000
G1 E1.00000 F1800.000
G1 X50.157 Y48.089 E1.44178 F1771.230
G1 X49.809 Y48.343 E1.46306
G1 X44.680 Y43.215 E1.82121
G1 X44.900 Y44.036 E1.86321
G1 X49.535 Y48.672 E2.18696
G1 X49.331 Y49.070 E2.20905
G1 X44.840 Y44.579 E2.52272
G1 X44.663 Y45.004 E2.54546
G1 X49.220 Y49.561 E2.86375
G1 X49.250 Y50.194 E2.89502
G1 X44.416 Y45.359 E3.23265
G1 X44.096 Y45.641 E3.25373
G1 X49.190 Y50.736 E3.60951
G1 X48.973 Y51.121 E3.63134
G1 X43.706 Y45.854 E3.99915
G1 X43.226 Y45.976 E4.02361
G1 X45.038 Y47.788 E4.15016
G1 X44.149 Y47.501 E4.19632
G1 X42.663 Y46.016 E4.30007
G1 X42.102 Y46.057 E4.32784
G1 X43.132 Y47.087 E4.39974
G1 X41.692 Y46.249 F7800.000
G1 X41.589 Y46.146 E4.40688 F1771.230
G1 F1800.000 E3.40688
G92 E0
G1 X43.102 Y40.432 F7800.000
G1 E1.00000 F1800.000
G1 X50.581 Y47.911 E1.52234 F1771.230
G1 X51.037 Y47.764 E1.54597
G1 X42.555 Y39.283 E2.13831
G1 X42.295 Y38.421 E2.18276
G1 X51.492 Y47.617 E2.82503
G1 X51.946 Y47.469 E2.84860
G1 X42.898 Y38.421 E3.48049
G1 X43.500 Y38.421 E3.51023
G1 X52.378 Y47.299 E4.13028
G1 X52.869 Y45.983 F7800.000
G1 X53.601 Y46.714 E4.18137 F1771.230
G1 X53.975 Y46.486 E4.20300
G1 X53.517 Y46.028 E4.23498
G1 X54.201 Y46.110 E4.26899
G1 X54.324 Y46.233 E4.27761
G1 F1800.000 E3.27761
G92 E0
G1 X51.964 Y45.680 F7800.000
G1 E1.00000 F1800.000
G1 X53.208 Y46.924 E1.08682 F1771.230
G1 X52.799 Y47.118 E1.10914
G1 X44.102 Y38.421 E1.71652
G1 X45.474 Y38.587 F7800.000
G1 X45.307 Y38.421 E1.72816 F1771.230
G1 X44.705 Y38.421 E1.75790
G1 X51.398 Y45.114 E2.22538
G1 X51.103 Y44.217 E2.27203
G1 X47.877 Y40.991 E2.49735
G1 X48.433 Y40.945 E2.52494
G1 X51.144 Y43.656 E2.71423
G1 X51.314 Y43.224 E2.73716
G1 X48.875 Y40.784 E2.90754
G1 X49.237 Y40.544 E2.92900
G1 X51.537 Y42.844 E3.08959
G1 X51.759 Y42.464 E3.11133
G1 X49.526 Y40.231 E3.26727
G1 X49.761 Y39.863 E3.28880
G1 X51.981 Y42.084 E3.44388
G1 X52.204 Y41.704 E3.46561
G1 X49.987 Y39.487 E3.62044
G1 X50.213 Y39.110 E3.64212
G1 X52.418 Y41.316 E3.79617
G1 X52.631 Y40.926 E3.81809
G1 X50.438 Y38.734 E3.97120
G1 X50.727 Y38.421 E3.99225
G1 X52.843 Y40.537 E4.14002
G1 X53.043 Y40.135 E4.16220
G1 X51.330 Y38.421 E4.28189
G1 X51.932 Y38.421 E4.31163
G1 X53.241 Y39.730 E4.40307
G1 X53.430 Y39.317 E4.42551
G1 X52.534 Y38.421 E4.48810
G1 X53.136 Y38.421 E4.51784
G1 X53.610 Y38.894 E4.55091
G1 X53.774 Y38.456 E4.57401
G1 X53.739 Y38.421 E4.57650
G1 F1800.000 E3.57650
G92 E0
G1 X46.778 Y49.528 F7800.000
G1 E1.00000 F1800.000
G1 X48.650 Y51.400 E1.13072 F1771.230
G1 X48.209 Y51.562 E1.15389
G1 X46.758 Y50.111 E1.25522
G1 X46.832 Y50.786 E1.28877
G1 X47.538 Y51.492 E1.33809
M106 S255
G1 F1800.000 E0.33809
G92 E0
G1 Z0.600 F7800.000
G1 X41.105 Y46.048 F7800.000
G1 E1.00000 F1800.000
G1 X41.355 Y45.942 E1.01278 F1434.735
G1 X41.679 Y45.852 E1.02863
G1 X42.092 Y45.781 E1.04841
G1 X43.275 Y45.698 E1.10436
G1 X43.533 Y45.631 E1.11690
G1 X43.776 Y45.523 E1.12944
G1 X43.998 Y45.377 E1.14198
G1 X44.194 Y45.197 E1.15452
G1 X44.358 Y44.988 E1.16706
G1 X44.486 Y44.755 E1.17960
G1 X44.575 Y44.504 E1.19214
G1 X44.622 Y44.243 E1.20468
G1 X44.626 Y43.977 E1.21722
G1 X44.587 Y43.714 E1.22976
G1 X44.507 Y43.461 E1.24229
G1 X43.507 Y41.752 E1.33567
G1 X42.878 Y40.598 E1.39759
G1 X42.407 Y39.636 E1.44812
G1 X42.071 Y38.845 E1.48864
G1 X41.827 Y38.146 E1.52355
G1 X45.529 Y38.146 E1.69814
G1 X46.620 Y39.965 E1.79817
G1 X46.760 Y40.158 E1.80939
G1 X46.961 Y40.354 E1.82264
G1 X47.193 Y40.513 E1.83589
G1 X47.363 Y40.591 E1.84473
G1 X47.720 Y40.702 E1.86236
G1 X48.000 Y40.726 E1.87562
G1 X48.280 Y40.702 E1.88885
G1 X48.552 Y40.630 E1.90211
G1 X48.807 Y40.513 E1.91537
