; generated by Slic3r 1.1.7 on 2015-02-15 at 13:17:34

; perimeters extrusion width = 0.40mm
; infill extrusion width = 0.42mm
; solid infill extrusion width = 0.42mm
; top infill extrusion width = 0.42mm
; support material extrusion width = 0.40mm

G21 ; set units to millimeters
M107
M104 S195 ; set temperature
G28 ; home all axes
G1 Z5 F5000 ; lift nozzle
M109 S195 ; wait for temperature to be reached
G90 ; use absolute coordinates
G92 E0
M82 ; use absolute distances for extrusion
G1 F1800.000 E-1.00000
G92 E0
G1 Z0.300 F7800.000
G1 X25.242 Y25.688 F7800.000
G1 E1.00000 F1800.000
G1 X27.001 Y24.169 E1.10958 F2100.000
G1 X29.168 Y23.332 E1.21917
G1 X30.500 Y23.200 E1.28227
G1 X65.500 Y23.200 E2.93277
G1 X67.790 Y23.597 E3.04235
G1 X69.812 Y24.742 E3.15194 F2100.000
G1 X71.331 Y26.501 E3.26152
G1 X72.168 Y28.668 E3.37110
G1 X72.300 Y30.000 E3.43421
G1 X72.300 Y60.000 E4.84892
G1 X71.903 Y62.290 E4.95850
G1 X70.758 Y64.312 E5.06809
G1 X68.999 Y65.831 E5.17767
G1 X66.832 Y66.668 E5.28725
G1 X65.500 Y66.800 E5.35036
G1 X30.500 Y66.800 E7.00086
G1 X28.210 Y66.403 E7.11044
G1 X26.188 Y65.258 E7.22002
G1 X24.669 Y63.499 E7.32961
G1 X23.832 Y61.332 E7.43919
G1 X23.700 Y60.000 E7.50230
G1 X23.700 Y30.000 E8.91701
G1 X24.097 Y27.710 E9.02659
G1 X25.212 Y25.740 E9.13334
G1 X25.602 Y25.900 F7800.000
G1 X25.638 Y25.838 E9.13672 F2100.000
G1 X27.383 Y24.411 E9.24301
G1 X30.500 Y23.600 E9.39490
G1 X65.500 Y23.600 E11.04540
G1 X67.719 Y23.997 E11.15169
G1 X69.662 Y25.138 E11.25797 F2100.000
G1 X71.089 Y26.883 E11.36426
G1 X71.900 Y30.000 E11.51615
G1 X71.900 Y60.000 E12.93086
G1 X71.503 Y62.219 E13.03715
G1 X70.362 Y64.162 E13.14344
G1 X68.617 Y65.589 E13.24972
G1 X65.500 Y66.400 E13.40161
G1 X30.500 Y66.400 E15.05211
G1 X28.281 Y66.003 E15.15840
G1 X26.338 Y64.862 E15.26468
G1 X24.911 Y63.117 E15.37097
G1 X24.100 Y60.000 E15.52286
G1 X24.100 Y30.000 E16.93757
G1 X24.497 Y27.781 E17.04386
G1 X25.572 Y25.951 E17.14394
G1 F1800.000 E16.14394
G92 E0
G1 X48.917 Y48.261 F7800.000
G1 E1.00000 F1800.000
G1 X48.674 Y48.462 E1.01487 F2520.000
G1 X48.389 Y48.596 E1.02974
G1 X48.079 Y48.655 E1.04461
G1 X47.764 Y48.636 E1.05948
G1 X47.464 Y48.538 E1.07435
G1 X47.198 Y48.369 E1.08922
G1 X46.982 Y48.139 E1.10409
G1 X46.830 Y47.863 E1.11896
G1 X46.752 Y47.558 E1.13383
G1 X46.752 Y47.242 E1.14870
G1 X46.830 Y46.937 E1.16357
G1 X46.982 Y46.661 E1.17844
G1 X47.198 Y46.431 E1.19331
G1 X47.464 Y46.262 E1.20818
G1 X47.764 Y46.164 E1.22305
G1 X48.079 Y46.145 E1.23792
G1 X48.389 Y46.204 E1.25279
G1 X48.674 Y46.338 E1.26766 F2520.000
G1 X48.917 Y46.539 E1.28253
G1 X49.102 Y46.794 E1.29740
G1 X49.218 Y47.087 E1.31227
G1 X49.258 Y47.400 E1.32714
G1 X49.218 Y47.713 E1.34201
G1 X49.102 Y48.006 E1.35688
G1 X48.952 Y48.213 E1.36892
G1 X48.623 Y47.985 F7800.000
G1 X48.458 Y48.122 E1.37902 F2520.000
G1 X48.264 Y48.213 E1.38912
G1 X48.054 Y48.253 E1.39923
G1 X47.840 Y48.240 E1.40933
G1 X47.636 Y48.173 E1.41944
G1 X47.455 Y48.059 E1.42954
G1 X47.308 Y47.902 E1.43964
G1 X47.205 Y47.715 E1.44975
G1 X47.152 Y47.507 E1.45985
G1 X47.152 Y47.293 E1.46996
G1 X47.205 Y47.085 E1.48006
G1 X47.308 Y46.898 E1.49016
G1 X47.455 Y46.741 E1.50027
G1 X47.636 Y46.627 E1.51037
G1 X47.840 Y46.560 E1.52048
G1 X48.054 Y46.547 E1.53058 F2520.000
G1 X48.264 Y46.587 E1.54068
G1 X48.458 Y46.678 E1.55079
G1 X48.623 Y46.815 E1.56089
G1 X48.749 Y46.988 E1.57099
G1 X48.828 Y47.187 E1.58110
G1 X48.855 Y47.400 E1.59120
G1 X48.828 Y47.613 E1.60131
G1 X48.749 Y47.812 E1.61141
G1 X48.658 Y47.937 E1.61869
G1 X48.437 Y47.512 F7800.000
G1 X48.396 Y47.618 E1.62402 F1512.000
G1 X48.329 Y47.709 E1.62936
G1 X48.242 Y47.781 E1.63470
G1 X48.140 Y47.829 E1.64004
G1 X48.028 Y47.851 E1.64538
G1 X47.915 Y47.844 E1.65071
G1 X47.808 Y47.809 E1.65605
G1 X47.712 Y47.748 E1.66139
G1 X47.635 Y47.665 E1.66673
G1 X47.580 Y47.566 E1.67207
G1 X47.552 Y47.457 E1.67740
G1 X47.552 Y47.343 E1.68274
G1 X47.580 Y47.234 E1.68808
G1 X47.635 Y47.135 E1.69342
G1 X47.712 Y47.052 E1.69876
G1 X47.808 Y46.991 E1.70410
G1 X47.915 Y46.956 E1.70943
G1 X48.028 Y46.949 E1.71477
G1 X48.140 Y46.971 E1.72011
G1 X48.242 Y47.019 E1.72545
G1 X48.329 Y47.091 E1.73079
G1 X48.396 Y47.182 E1.73612
G1 X48.437 Y47.288 E1.74146
G1 X48.445 Y47.453 E1.74925
G1 X48.518 Y47.592 F7800.000
G1 F1800.000 E0.74925
G92 E0
G1 X64.500 Y59.000 F7800.000
G1 E1.00000 F1800.000
G1 X31.500 Y59.000 E2.55618 F2520.000
G1 X31.500 Y31.000 E3.87658
G1 X64.500 Y31.000 E5.43276
G1 X64.500 Y58.940 E6.75033
G1 X64.900 Y59.400 F7800.000
G1 X31.100 Y59.400 E8.34423 F2520.000
G1 X31.100 Y30.600 E9.70236
G1 X64.900 Y30.600 E11.29626
G1 X64.900 Y59.340 E12.65156
G1 X65.300 Y59.800 F7800.000
G1 X30.700 Y59.800 E14.28319 F1512.000
G1 X30.700 Y30.200 E15.67904
G1 X65.300 Y30.200 E17.31067
G1 X65.300 Y59.740 E18.70369
G1 X64.954 Y59.600 F7800.000
G1 F1800.000 E17.70369
G92 E0
G1 X47.720 Y48.908 F7800.000
G1 E1.00000 F1800.000
G1 X57.538 Y58.726 E1.68567 F2100.000
G1 X58.136 Y58.726 E1.71522
G1 X48.303 Y48.892 E2.40199
G1 X48.742 Y48.733 E2.42506
G1 X58.735 Y58.726 E3.12292
G1 X59.333 Y58.726 E3.15246
G1 X49.085 Y48.478 E3.86814
G1 X49.345 Y48.139 E3.88921
G1 X59.931 Y58.726 E4.62855
G1 X60.529 Y58.726 E4.65810
G1 X49.497 Y47.694 E5.42855
G1 X49.496 Y47.094 E5.45817
G1 X61.128 Y58.726 E6.27051
G1 X61.726 Y58.726 E6.30005
G1 X34.274 Y31.274 E8.21721
G1 X34.872 Y31.274 E8.24675
G1 X62.324 Y58.726 E10.16390
G1 X62.922 Y58.726 E10.19344
G1 X35.471 Y31.274 E12.11060
G1 X36.069 Y31.274 E12.14014
G1 X63.520 Y58.726 E14.05729
G1 X64.119 Y58.726 E14.08683
G1 X36.667 Y31.274 E16.00399
G1 X37.265 Y31.274 E16.03353
G1 X64.226 Y58.235 E17.91638
G1 X64.226 Y57.636 E17.94592
G1 X37.864 Y31.274 E19.78700
G1 X38.462 Y31.274 E19.81654
G1 X64.226 Y57.038 E21.61583
G1 X64.226 Y56.440 E21.64537
G1 X39.060 Y31.274 E23.40289
G1 X39.658 Y31.274 E23.43243
G1 X64.226 Y55.842 E25.14817
G1 X64.226 Y55.243 E25.17771
G1 X40.257 Y31.274 E26.85167
G1 X40.855 Y31.274 E26.88121
G1 X64.226 Y54.645 E28.51339
G1 X64.226 Y54.047 E28.54293
G1 X41.453 Y31.274 E30.13333
G1 X42.051 Y31.274 E30.16287
G1 X64.226 Y53.449 E31.71149
G1 X64.226 Y52.851 E31.74103
G1 X42.649 Y31.274 E33.24787
G1 X43.248 Y31.274 E33.27741
G1 X64.226 Y52.252 E34.74247
G1 X64.226 Y51.654 E34.77202
G1 X43.846 Y31.274 E36.19530
G1 X44.444 Y31.274 E36.22484
G1 X64.226 Y51.056 E37.60634
G1 X64.226 Y50.458 E37.63589
G1 X45.042 Y31.274 E38.97561
G1 X45.641 Y31.274 E39.00515
G1 X64.226 Y49.859 E40.30310
G1 X64.226 Y49.261 E40.33264
G1 X46.239 Y31.274 E41.58881
G1 X46.837 Y31.274 E41.61835
G1 X64.226 Y48.663 E42.83274
G1 X64.226 Y48.065 E42.86228
G1 X47.435 Y31.274 E44.03489
G1 X48.034 Y31.274 E44.06443
G1 X64.226 Y47.466 E45.19526
G1 X64.226 Y46.868 E45.22480
G1 X48.632 Y31.274 E46.31385
G1 X49.230 Y31.274 E46.34339
G1 X64.226 Y46.270 E47.39066
G1 X64.226 Y45.672 E47.42020
G1 X49.828 Y31.274 E48.42569
G1 X50.426 Y31.274 E48.45524
G1 X64.226 Y45.074 E49.41895
G1 X64.226 Y44.475 E49.44849
G1 X51.025 Y31.274 E50.37043
G1 X51.623 Y31.274 E50.39997
G1 X64.226 Y43.877 E51.28012
G1 X64.226 Y43.279 E51.30966
G1 X52.221 Y31.274 E52.14804
G1 X52.819 Y31.274 E52.17758
G1 X64.226 Y42.681 E52.97418
G1 X64.226 Y42.082 E53.00372
G1 X53.418 Y31.274 E53.75854
G1 X54.016 Y31.274 E53.78808
G1 X64.226 Y41.484 E54.50112
G1 X64.226 Y40.886 E54.53066
G1 X54.614 Y31.274 E55.20192
G1 X55.212 Y31.274 E55.23146
G1 X64.226 Y40.288 E55.86094
G1 X64.226 Y39.689 E55.89048
G1 X55.811 Y31.274 E56.47818
G1 X56.409 Y31.274 E56.50773
G1 X64.226 Y39.091 E57.05365
G1 X64.226 Y38.493 E57.08319
G1 X57.007 Y31.274 E57.58733
G1 X57.605 Y31.274 E57.61687
G1 X64.226 Y37.895 E58.07924
G1 X64.226 Y37.297 E58.10878
G1 X58.203 Y31.274 E58.52936
G1 X58.802 Y31.274 E58.55891
G1 X64.226 Y36.698 E58.93771
G1 X64.226 Y36.100 E58.96725
G1 X59.400 Y31.274 E59.30428
G1 X59.998 Y31.274 E59.33382
G1 X64.226 Y35.502 E59.62907
G1 X64.226 Y34.904 E59.65861
G1 X60.596 Y31.274 E59.91208
G1 X61.195 Y31.274 E59.94162
G1 X64.226 Y34.305 E60.15331
G1 X64.226 Y33.707 E60.18285
G1 X61.793 Y31.274 E60.35276
G1 X62.391 Y31.274 E60.38231
G1 X64.226 Y33.109 E60.51044
G1 X64.226 Y32.511 E60.53998
G1 X62.989 Y31.274 E60.62633
G1 X63.588 Y31.274 E60.65587
G1 X64.226 Y31.912 E60.70045
G1 X64.226 Y31.314 E60.72999
G1 X64.186 Y31.274 E60.73278
G1 F1800.000 E59.73278
G92 E0
G1 X46.503 Y47.691 F7800.000
G1 E1.00000 F1800.000
G1 X31.774 Y32.962 E2.02862 F2100.000
G1 X31.774 Y32.364 E2.05816
G1 X46.506 Y47.096 E3.08703
G1 X46.669 Y46.661 E3.10998
G1 X31.774 Y31.765 E4.15023
G1 X31.881 Y31.274 E4.17505
G1 X46.927 Y46.319 E5.22577
G1 X47.267 Y46.062 E5.24687
G1 X32.480 Y31.274 E6.27961
G1 X33.078 Y31.274 E6.30915
G1 X47.700 Y45.897 E7.33036
G1 X48.311 Y45.910 E7.36055
G1 X33.676 Y31.274 E8.38266
G1 F1800.000 E7.38266
G92 E0
G1 X31.774 Y33.560 F7800.000
G1 E1.00000 F1800.000
G1 X56.940 Y58.726 E2.75751 F2100.000
G1 X56.342 Y58.726 E2.78706
G1 X31.774 Y34.158 E4.50279
G1 X31.774 Y34.757 E4.53233
G1 X55.743 Y58.726 E6.20629
G1 X55.145 Y58.726 E6.23583
G1 X31.774 Y35.355 E7.86801
G1 X31.774 Y35.953 E7.89755
G1 X54.547 Y58.726 E9.48795
G1 X53.949 Y58.726 E9.51749
G1 X31.774 Y36.551 E11.06611
G1 X31.774 Y37.149 E11.09565
G1 X53.351 Y58.726 E12.60249
G1 X52.752 Y58.726 E12.63204
G1 X31.774 Y37.748 E14.09710
G1 X31.774 Y38.346 E14.12664
G1 X52.154 Y58.726 E15.54992
G1 X51.556 Y58.726 E15.57946
G1 X31.774 Y38.944 E16.96097
G1 X31.774 Y39.542 E16.99051
G1 X50.958 Y58.726 E18.33023
G1 X50.359 Y58.726 E18.35978
G1 X31.774 Y40.141 E19.65772
G1 X31.774 Y40.739 E19.68726
G1 X49.761 Y58.726 E20.94343
G1 X49.163 Y58.726 E20.97297
G1 X31.774 Y41.337 E22.18736
G1 X31.774 Y41.935 E22.21690
G1 X48.565 Y58.726 E23.38951
G1 X47.966 Y58.726 E23.41905
G1 X31.774 Y42.534 E24.54988
G1 X31.774 Y43.132 E24.57942
G1 X47.368 Y58.726 E25.66847
G1 X46.770 Y58.726 E25.69801
G1 X31.774 Y43.730 E26.74528
G1 X31.774 Y44.328 E26.77482
G1 X46.172 Y58.726 E27.78032
G1 X45.574 Y58.726 E27.80986
G1 X31.774 Y44.926 E28.77357
G1 X31.774 Y45.525 E28.80311
G1 X44.975 Y58.726 E29.72504
G1 X44.377 Y58.726 E29.75459
G1 X31.774 Y46.123 E30.63474
G1 X31.774 Y46.721 E30.66428
G1 X43.779 Y58.726 E31.50266
G1 X43.181 Y58.726 E31.53220
G1 X31.774 Y47.319 E32.32880
G1 X31.774 Y47.918 E32.35834
G1 X42.582 Y58.726 E33.11316
G1 X41.984 Y58.726 E33.14270
G1 X31.774 Y48.516 E33.85574
G1 X31.774 Y49.114 E33.88528
G1 X41.386 Y58.726 E34.55654
G1 X40.788 Y58.726 E34.58608
G1 X31.774 Y49.712 E35.21556
G1 X31.774 Y50.311 E35.24510
G1 X40.189 Y58.726 E35.83280
G1 X39.591 Y58.726 E35.86234
G1 X31.774 Y50.909 E36.40826
G1 X31.774 Y51.507 E36.43781
G1 X38.993 Y58.726 E36.94195
G1 X38.395 Y58.726 E36.97149
G1 X31.774 Y52.105 E37.43385
G1 X31.774 Y52.703 E37.46340
G1 X37.797 Y58.726 E37.88398
G1 X37.198 Y58.726 E37.91352
G1 X31.774 Y53.302 E38.29233
G1 X31.774 Y53.900 E38.32187
G1 X36.600 Y58.726 E38.65890
G1 X36.002 Y58.726 E38.68844
G1 X31.774 Y54.498 E38.98369
G1 X31.774 Y55.096 E39.01323
G1 X35.404 Y58.726 E39.26670
G1 X34.805 Y58.726 E39.29624
G1 X31.774 Y55.695 E39.50793
G1 X31.774 Y56.293 E39.53747
G1 X34.207 Y58.726 E39.70738
G1 X33.609 Y58.726 E39.73692
G1 X31.774 Y56.891 E39.86505
G1 X31.774 Y57.489 E39.89460
G1 X33.011 Y58.726 E39.98095
G1 X32.412 Y58.726 E40.01049
G1 X31.774 Y58.088 E40.05506
G1 X31.774 Y58.686 E40.08460
G1 X31.814 Y58.726 E40.08740
M106 S152
G1 F1800.000 E39.08740
G92 E0
G1 Z0.600 F7800.000
G1 X49.090 Y48.023 F7800.000
G1 E1.00000 F1800.000
G1 X48.917 Y48.261 E1.01388 F3600.000
G1 X48.674 Y48.462 E1.02875
G1 X48.389 Y48.596 E1.04362
G1 X48.079 Y48.655 E1.05849
G1 X47.764 Y48.636 E1.07336
G1 X47.464 Y48.538 E1.08823
G1 X47.198 Y48.369 E1.10310
G1 X46.982 Y48.139 E1.11797
G1 X46.830 Y47.863 E1.13284
G1 X46.752 Y47.558 E1.14771
G1 X46.752 Y47.242 E1.16258
G1 X46.830 Y46.937 E1.17745
G1 X46.982 Y46.661 E1.19232
G1 X47.198 Y46.431 E1.20719
G1 X47.464 Y46.262 E1.22206
G1 X47.764 Y46.164 E1.23693
G1 X48.079 Y46.145 E1.25180
G1 X48.389 Y46.204 E1.26667
G1 X48.674 Y46.338 E1.28154 F3600.000
G1 X48.917 Y46.539 E1.29641
G1 X49.102 Y46.794 E1.31128
G1 X49.218 Y47.087 E1.32615
G1 X49.258 Y47.400 E1.34102
G1 X49.218 Y47.713 E1.35589
G1 X49.117 Y47.970 E1.36892
G1 X48.749 Y47.812 F7800.000
G1 X48.623 Y47.985 E1.37902 F3600.000
G1 X48.458 Y48.122 E1.38912
G1 X48.264 Y48.213 E1.39923
G1 X48.054 Y48.253 E1.40933
G1 X47.840 Y48.240 E1.41943
G1 X47.636 Y48.173 E1.42954
G1 X47.455 Y48.059 E1.43964
G1 X47.308 Y47.902 E1.44975
G1 X47.205 Y47.715 E1.45985
G1 X47.152 Y47.507 E1.46995
G1 X47.152 Y47.293 E1.48006
G1 X47.205 Y47.085 E1.49016
G1 X47.308 Y46.898 E1.50027
G1 X47.455 Y46.741 E1.51037
G1 X47.636 Y46.627 E1.52047
G1 X47.840 Y46.560 E1.53058
G1 X48.054 Y46.547 E1.54068 F3600.000
G1 X48.264 Y46.587 E1.55079
G1 X48.458 Y46.678 E1.56089
G1 X48.623 Y46.815 E1.57099
G1 X48.749 Y46.988 E1.58110
G1 X48.828 Y47.187 E1.59120
G1 X48.855 Y47.400 E1.60131
G1 X48.828 Y47.613 E1.61141
G1 X48.771 Y47.756 E1.61869
G1 X48.437 Y47.512 F7800.000
G1 X48.396 Y47.618 E1.62402 F2160.000
G1 X48.329 Y47.709 E1.62936
G1 X48.242 Y47.781 E1.63470
G1 X48.140 Y47.829 E1.64004
G1 X48.028 Y47.851 E1.64538
G1 X47.915 Y47.844 E1.65071
G1 X47.808 Y47.809 E1.65605
G1 X47.712 Y47.748 E1.66139
G1 X47.635 Y47.665 E1.66673
G1 X47.580 Y47.566 E1.67207
G1 X47.552 Y47.457 E1.67740
G1 X47.552 Y47.343 E1.68274
G1 X47.580 Y47.234 E1.68808
G1 X47.635 Y47.135 E1.69342
G1 X47.712 Y47.052 E1.69876
G1 X47.808 Y46.991 E1.70409
G1 X47.915 Y46.956 E1.70943
G1 X48.028 Y46.949 E1.71477
G1 X48.140 Y46.971 E1.72011
G1 X48.242 Y47.019 E1.72545
G1 X48.329 Y47.091 E1.73079
G1 X48.396 Y47.182 E1.73612
G1 X48.437 Y47.288 E1.74146
G1 X48.445 Y47.453 E1.74925
G1 X48.518 Y47.592 F7800.000
G1 F1800.000 E0.74925
G92 E0
G1 X64.500 Y59.000 F7800.000
G1 E1.00000 F1800.000
G1 X31.500 Y59.000 E2.55618 F3600.000
G1 X31.500 Y31.000 E3.87658
G1 X64.500 Y31.000 E5.43276
G1 X64.500 Y58.940 E6.75033
G1 X64.900 Y59.400 F7800.000
G1 X31.100 Y59.400 E8.34423 F3600.000
G1 X31.100 Y30.600 E9.70236
G1 X64.900 Y30.600 E11.29626
G1 X64.900 Y59.340 E12.65156
G1 X65.300 Y59.800 F7800.000
G1 X30.700 Y59.800 E14.28319 F2160.000
G1 X30.700 Y30.200 E15.67904
G1 X65.300 Y30.200 E17.31067
G1 X65.300 Y59.740 E18.70369
G1 X64.954 Y59.600 F7800.000
G1 X64.226 Y58.686 F7800.000
G1 X64.186 Y58.726 E18.70648 F3000.000
G1 X63.588 Y58.726 E18.73603
G1 X64.226 Y58.088 E18.78060
G1 X64.226 Y57.489 E18.81014
G1 X62.989 Y58.726 E18.89649
G1 X62.391 Y58.726 E18.92603
G1 X64.226 Y56.891 E19.05416
G1 X64.226 Y56.293 E19.08371
G1 X61.793 Y58.726 E19.25362
G1 X61.195 Y58.726 E19.28316
G1 X64.226 Y55.695 E19.49485
G1 X64.226 Y55.096 E19.52439
G1 X60.596 Y58.726 E19.77786
G1 X59.998 Y58.726 E19.80740
G1 X64.226 Y54.498 E20.10265
G1 X64.226 Y53.900 E20.13219
G1 X59.400 Y58.726 E20.46922
G1 X58.802 Y58.726 E20.49876
G1 X64.226 Y53.302 E20.87756
G1 X64.226 Y52.703 E20.90711
G1 X58.203 Y58.726 E21.32769
G1 X57.605 Y58.726 E21.35723
G1 X64.226 Y52.105 E21.81960
G1 X64.226 Y51.507 E21.84914
G1 X57.007 Y58.726 E22.35328
G1 X56.409 Y58.726 E22.38282
G1 X64.226 Y50.909 E22.92874
G1 X64.226 Y50.311 E22.95829
G1 X55.811 Y58.726 E23.54599
G1 X55.212 Y58.726 E23.57553
G1 X64.226 Y49.712 E24.20501
G1 X64.226 Y49.114 E24.23455
G1 X54.614 Y58.726 E24.90581
G1 X54.016 Y58.726 E24.93535
G1 X64.226 Y48.516 E25.64839
G1 X64.226 Y47.918 E25.67793
G1 X53.418 Y58.726 E26.43275
G1 X52.819 Y58.726 E26.46229
G1 X64.226 Y47.319 E27.25889
G1 X64.226 Y46.721 E27.28843
G1 X52.221 Y58.726 E28.12681
G1 X51.623 Y58.726 E28.15635
G1 X64.226 Y46.123 E29.03650
G1 X64.226 Y45.525 E29.06604
G1 X51.025 Y58.726 E29.98798
G1 X50.426 Y58.726 E30.01752
G1 X64.226 Y44.926 E30.98123
G1 X64.226 Y44.328 E31.01077
G1 X49.828 Y58.726 E32.01627
G1 X49.230 Y58.726 E32.04581
G1 X64.226 Y43.730 E33.09308
G1 X64.226 Y43.132 E33.12262
G1 X48.632 Y58.726 E34.21167
G1 X48.034 Y58.726 E34.24121
G1 X64.226 Y42.534 E35.37204
G1 X64.226 Y41.935 E35.40158
G1 X47.435 Y58.726 E36.57419
G1 X46.837 Y58.726 E36.60373
G1 X64.226 Y41.337 E37.81812
G1 X64.226 Y40.739 E37.84766
G1 X46.239 Y58.726 E39.10383
G1 X45.641 Y58.726 E39.13337
G1 X64.226 Y40.141 E40.43132
G1 X64.226 Y39.542 E40.46086
G1 X45.042 Y58.726 E41.80058
G1 X44.444 Y58.726 E41.83012
