; generated by Slic3r 1.1.7 on 2015-02-15 at 13:59:14

; perimeters extrusion width = 0.40mm
; infill extrusion width = 0.42mm
; solid infill extrusion width = 0.42mm
; top infill extrusion width = 0.42mm
; support material extrusion width = 0.40mm

G21 ; set units to millimeters
M107
M104 S205 ; set temperature
G28 ; home all axes
G1 Z5 F5000 ; lift nozzle
M109 S205 ; wait for temperature to be reached
G90 ; use absolute coordinates
G92 E0
M82 ; use absolute distances for extrusion
G1 F1800.000 E-1.00000
G92 E0
G1 Z0.300 F7800.000
G1 X25.242 Y25.688 F7800.000
G1 E1.00000 F1800.000
G1 X27.001 Y24.169 E1.10958 F2100.000
G1 X29.168 Y23.332 E1.21917
G1 X30.500 Y23.200 E1.28227
G1 X65.500 Y23.200 E2.93277
G1 X67.790 Y23.597 E3.04235
G1 X69.812 Y24.742 E3.15194 F2100.000
G1 X71.331 Y26.501 E3.26152
G1 X72.168 Y28.668 E3.37110
G1 X72.300 Y30.000 E3.43421
G1 X72.300 Y60.000 E4.84892
G1 X71.903 Y62.290 E4.95850
G1 X70.758 Y64.312 E5.06809
G1 X68.999 Y65.831 E5.17767
G1 X66.832 Y66.668 E5.28725
G1 X65.500 Y66.800 E5.35036
G1 X30.500 Y66.800 E7.00086
G1 X28.210 Y66.403 E7.11044
G1 X26.188 Y65.258 E7.22002
G1 X24.669 Y63.499 E7.32961
G1 X23.832 Y61.332 E7.43919
G1 X23.700 Y60.000 E7.50230
G1 X23.700 Y30.000 E8.91701
G1 X24.097 Y27.710 E9.02659
G1 X25.212 Y25.740 E9.13334
G1 X25.602 Y25.900 F7800.000
G1 X25.638 Y25.838 E9.13672 F2100.000
G1 X27.383 Y24.411 E9.24301
G1 X30.500 Y23.600 E9.39490
G1 X65.500 Y23.600 E11.04540
G1 X67.719 Y23.997 E11.15169
G1 X69.662 Y25.138 E11.25797 F2100.000
G1 X71.089 Y26.883 E11.36426
G1 X71.900 Y30.000 E11.51615
G1 X71.900 Y60.000 E12.93086
G1 X71.503 Y62.219 E13.03715
G1 X70.362 Y64.162 E13.14344
G1 X68.617 Y65.589 E13.24972
G1 X65.500 Y66.400 E13.40161
G1 X30.500 Y66.400 E15.05211
G1 X28.281 Y66.003 E15.15840
G1 X26.338 Y64.862 E15.26468
G1 X24.911 Y63.117 E15.37097
G1 X24.100 Y60.000 E15.52286
G1 X24.100 Y30.000 E16.93757
G1 X24.497 Y27.781 E17.04386
G1 X25.572 Y25.951 E17.14394
G1 F1800.000 E16.14394
G92 E0
G1 X49.099 Y48.432 F7800.000
G1 E1.00000 F1800.000
G1 X48.808 Y48.673 E1.01783 F2520.000
G1 X48.466 Y48.834 E1.03565
G1 X48.095 Y48.905 E1.05347
G1 X47.717 Y48.881 E1.07130
G1 X47.358 Y48.764 E1.08913
G1 X47.039 Y48.562 E1.10695
G1 X46.780 Y48.286 E1.12478
G1 X46.598 Y47.955 E1.14260
G1 X46.504 Y47.589 E1.16043
G1 X46.504 Y47.211 E1.17825
G1 X46.598 Y46.845 E1.19608
G1 X46.780 Y46.514 E1.21390
G1 X47.039 Y46.238 E1.23173
G1 X47.358 Y46.036 E1.24955
G1 X47.717 Y45.919 E1.26738
G1 X48.095 Y45.895 E1.28520
G1 X48.466 Y45.966 E1.30302
G1 X48.808 Y46.127 E1.32085 F2520.000
G1 X49.099 Y46.368 E1.33868
G1 X49.321 Y46.674 E1.35650
G1 X49.461 Y47.025 E1.37432
G1 X49.508 Y47.400 E1.39215
G1 X49.461 Y47.775 E1.40998
G1 X49.321 Y48.126 E1.42780
G1 X49.135 Y48.384 E1.44280
G1 X48.805 Y48.156 F7800.000
G1 X48.592 Y48.333 E1.45585 F2520.000
G1 X48.341 Y48.451 E1.46891
G1 X48.069 Y48.503 E1.48197
G1 X47.793 Y48.485 E1.49503
G1 X47.530 Y48.400 E1.50809
G1 X47.296 Y48.251 E1.52115
G1 X47.106 Y48.049 E1.53421
G1 X46.973 Y47.807 E1.54727
G1 X46.904 Y47.538 E1.56033
G1 X46.904 Y47.262 E1.57339
G1 X46.973 Y46.993 E1.58645
G1 X47.106 Y46.751 E1.59951
G1 X47.296 Y46.549 E1.61256
G1 X47.530 Y46.400 E1.62562
G1 X47.793 Y46.315 E1.63868
G1 X48.069 Y46.297 E1.65174 F2520.000
G1 X48.341 Y46.349 E1.66480
G1 X48.592 Y46.467 E1.67786
G1 X48.805 Y46.644 E1.69092
G1 X48.968 Y46.868 E1.70398
G1 X49.070 Y47.125 E1.71704
G1 X49.105 Y47.400 E1.73010
G1 X49.070 Y47.675 E1.74316
G1 X48.968 Y47.932 E1.75621
G1 X48.841 Y48.108 E1.76644
G1 X48.680 Y47.574 F7800.000
G1 X48.615 Y47.738 E1.77474 F1512.000
G1 X48.511 Y47.880 E1.78303
G1 X48.376 Y47.992 E1.79132
G1 X48.217 Y48.067 E1.79962
G1 X48.044 Y48.100 E1.80791
G1 X47.869 Y48.089 E1.81620
G1 X47.701 Y48.035 E1.82450
G1 X47.553 Y47.941 E1.83279
G1 X47.432 Y47.812 E1.84108
G1 X47.348 Y47.658 E1.84938
G1 X47.304 Y47.488 E1.85767
G1 X47.304 Y47.312 E1.86596
G1 X47.348 Y47.142 E1.87426
G1 X47.432 Y46.988 E1.88255
G1 X47.553 Y46.859 E1.89084
G1 X47.701 Y46.765 E1.89914
G1 X47.869 Y46.711 E1.90743
G1 X48.044 Y46.700 E1.91572
G1 X48.217 Y46.733 E1.92402
G1 X48.376 Y46.808 E1.93231
G1 X48.511 Y46.920 E1.94060
G1 X48.615 Y47.062 E1.94890
G1 X48.680 Y47.226 E1.95719
G1 X48.702 Y47.400 E1.96548
G1 X48.687 Y47.515 E1.97095
G1 X48.800 Y47.703 F7800.000
G1 F1800.000 E0.97095
G92 E0
G1 X64.500 Y59.000 F7800.000
G1 E1.00000 F1800.000
G1 X31.500 Y59.000 E2.55618 F2520.000
G1 X31.500 Y31.000 E3.87658
G1 X64.500 Y31.000 E5.43276
G1 X64.500 Y58.940 E6.75033
G1 X64.900 Y59.400 F7800.000
G1 X31.100 Y59.400 E8.34423 F2520.000
G1 X31.100 Y30.600 E9.70236
G1 X64.900 Y30.600 E11.29626
G1 X64.900 Y59.340 E12.65156
G1 X65.300 Y59.800 F7800.000
G1 X30.700 Y59.800 E14.28319 F1512.000
G1 X30.700 Y30.200 E15.67904
G1 X65.300 Y30.200 E17.31067
G1 X65.300 Y59.740 E18.70369
G1 X64.954 Y59.600 F7800.000
G1 F1800.000 E17.70369
G92 E0
G1 X47.985 Y49.173 F7800.000
G1 E1.00000 F1800.000
G1 X57.538 Y58.726 E1.66715 F2100.000
G1 X58.136 Y58.726 E1.69670
G1 X48.515 Y49.104 E2.36866
G1 X48.928 Y48.920 E2.39103
G1 X58.735 Y58.726 E3.07587
G1 X59.333 Y58.726 E3.10541
G1 X49.261 Y48.654 E3.80879
G1 X49.522 Y48.317 E3.82985
G1 X59.931 Y58.726 E4.55679
G1 X60.529 Y58.726 E4.58633
G1 X49.705 Y47.902 E5.34225
G1 X49.782 Y47.380 E5.36829
G1 X61.128 Y58.726 E6.16065
G1 X61.726 Y58.726 E6.19019
G1 X49.579 Y46.579 E7.03850
G1 F1800.000 E6.03850
G92 E0
G1 X47.209 Y48.994 F7800.000
G1 E1.00000 F1800.000
G1 X56.940 Y58.726 E1.67961 F2100.000
G1 X56.342 Y58.726 E1.70916
G1 X31.774 Y34.158 E3.42489
G1 X31.774 Y34.757 E3.45443
G1 X55.743 Y58.726 E5.12839
G1 X55.145 Y58.726 E5.15793
G1 X31.774 Y35.355 E6.79011
G1 X31.774 Y35.953 E6.81965
G1 X54.547 Y58.726 E8.41005
G1 X53.949 Y58.726 E8.43959
G1 X31.774 Y36.551 E9.98821
G1 X31.774 Y37.149 E10.01775
G1 X53.351 Y58.726 E11.52459
G1 X52.752 Y58.726 E11.55414
G1 X31.774 Y37.748 E13.01920
G1 X31.774 Y38.346 E13.04874
G1 X52.154 Y58.726 E14.47202
G1 X51.556 Y58.726 E14.50156
G1 X31.774 Y38.944 E15.88307
G1 X31.774 Y39.542 E15.91261
G1 X50.958 Y58.726 E17.25233
G1 X50.359 Y58.726 E17.28188
G1 X31.774 Y40.141 E18.57982
G1 X31.774 Y40.739 E18.60936
G1 X49.761 Y58.726 E19.86553
G1 X49.163 Y58.726 E19.89507
G1 X31.774 Y41.337 E21.10946
G1 X31.774 Y41.935 E21.13900
G1 X48.565 Y58.726 E22.31161
G1 X47.966 Y58.726 E22.34115
G1 X31.774 Y42.534 E23.47198
G1 X31.774 Y43.132 E23.50152
G1 X47.368 Y58.726 E24.59057
G1 X46.770 Y58.726 E24.62011
G1 X31.774 Y43.730 E25.66738
G1 X31.774 Y44.328 E25.69692
G1 X46.172 Y58.726 E26.70242
G1 X45.574 Y58.726 E26.73196
G1 X31.774 Y44.926 E27.69567
G1 X31.774 Y45.525 E27.72521
G1 X44.975 Y58.726 E28.64715
G1 X44.377 Y58.726 E28.67669
G1 X31.774 Y46.123 E29.55684
G1 X31.774 Y46.721 E29.58638
G1 X43.779 Y58.726 E30.42476
G1 X43.181 Y58.726 E30.45430
G1 X31.774 Y47.319 E31.25090
G1 X31.774 Y47.918 E31.28044
G1 X42.582 Y58.726 E32.03526
G1 X41.984 Y58.726 E32.06480
G1 X31.774 Y48.516 E32.77784
G1 X31.774 Y49.114 E32.80738
G1 X41.386 Y58.726 E33.47864
G1 X40.788 Y58.726 E33.50818
G1 X31.774 Y49.712 E34.13766
G1 X31.774 Y50.311 E34.16720
G1 X40.189 Y58.726 E34.75490
G1 X39.591 Y58.726 E34.78444
G1 X31.774 Y50.909 E35.33036
G1 X31.774 Y51.507 E35.35991
G1 X38.993 Y58.726 E35.86405
G1 X38.395 Y58.726 E35.89359
G1 X31.774 Y52.105 E36.35595
G1 X31.774 Y52.703 E36.38550
G1 X37.797 Y58.726 E36.80608
G1 X37.198 Y58.726 E36.83562
G1 X31.774 Y53.302 E37.21443
G1 X31.774 Y53.900 E37.24397
G1 X36.600 Y58.726 E37.58100
G1 X36.002 Y58.726 E37.61054
G1 X31.774 Y54.498 E37.90579
G1 X31.774 Y55.096 E37.93533
G1 X35.404 Y58.726 E38.18880
G1 X34.805 Y58.726 E38.21834
G1 X31.774 Y55.695 E38.43003
G1 X31.774 Y56.293 E38.45957
G1 X34.207 Y58.726 E38.62948
G1 X33.609 Y58.726 E38.65902
G1 X31.774 Y56.891 E38.78715
G1 X31.774 Y57.489 E38.81670
G1 X33.011 Y58.726 E38.90305
G1 X32.412 Y58.726 E38.93259
G1 X31.774 Y58.088 E38.97716
G1 X31.774 Y58.686 E39.00670
G1 X31.814 Y58.726 E39.00950
G1 F1800.000 E38.00950
G92 E0
G1 X46.426 Y48.212 F7800.000
G1 E1.00000 F1800.000
G1 X31.774 Y33.560 E2.02327 F2100.000
G1 X31.774 Y32.962 E2.05281
G1 X46.230 Y47.417 E3.06235
G1 X46.303 Y46.892 E3.08854
G1 X31.774 Y32.364 E4.10317
G1 X31.774 Y31.765 E4.13272
G1 X46.487 Y46.478 E5.16020
G1 X46.751 Y46.144 E5.18124
G1 X31.881 Y31.274 E6.21970
G1 X32.480 Y31.274 E6.24925
G1 X47.088 Y45.882 E7.26944
G1 X47.503 Y45.700 E7.29187
G1 X33.078 Y31.274 E8.29933
G1 X33.676 Y31.274 E8.32887
G1 X48.026 Y45.625 E9.33106
G1 X48.838 Y45.838 E9.37249
G1 X34.274 Y31.274 E10.38957
G1 X34.872 Y31.274 E10.41911
G1 X62.324 Y58.726 E12.33626
G1 X62.922 Y58.726 E12.36581
G1 X35.471 Y31.274 E14.28296
G1 X36.069 Y31.274 E14.31250
G1 X63.520 Y58.726 E16.22965
G1 X64.119 Y58.726 E16.25920
G1 X36.667 Y31.274 E18.17635
G1 X37.265 Y31.274 E18.20589
G1 X64.226 Y58.235 E20.08874
G1 X64.226 Y57.636 E20.11829
G1 X37.864 Y31.274 E21.95936
G1 X38.462 Y31.274 E21.98890
G1 X64.226 Y57.038 E23.78820
G1 X64.226 Y56.440 E23.81774
G1 X39.060 Y31.274 E25.57525
G1 X39.658 Y31.274 E25.60480
G1 X64.226 Y55.842 E27.32053
G1 X64.226 Y55.243 E27.35007
G1 X40.257 Y31.274 E29.02403
G1 X40.855 Y31.274 E29.05357
G1 X64.226 Y54.645 E30.68575
G1 X64.226 Y54.047 E30.71529
G1 X41.453 Y31.274 E32.30569
G1 X42.051 Y31.274 E32.33523
G1 X64.226 Y53.449 E33.88385
G1 X64.226 Y52.851 E33.91339
G1 X42.649 Y31.274 E35.42023
G1 X43.248 Y31.274 E35.44978
G1 X64.226 Y52.252 E36.91484
G1 X64.226 Y51.654 E36.94438
G1 X43.846 Y31.274 E38.36766
G1 X44.444 Y31.274 E38.39721
G1 X64.226 Y51.056 E39.77871
G1 X64.226 Y50.458 E39.80825
G1 X45.042 Y31.274 E41.14797
G1 X45.641 Y31.274 E41.17752
G1 X64.226 Y49.859 E42.47546
G1 X64.226 Y49.261 E42.50500
G1 X46.239 Y31.274 E43.76117
G1 X46.837 Y31.274 E43.79071
G1 X64.226 Y48.663 E45.00510
G1 X64.226 Y48.065 E45.03464
G1 X47.435 Y31.274 E46.20725
G1 X48.034 Y31.274 E46.23679
G1 X64.226 Y47.466 E47.36762
G1 X64.226 Y46.868 E47.39716
G1 X48.632 Y31.274 E48.48621
G1 X49.230 Y31.274 E48.51575
G1 X64.226 Y46.270 E49.56302
G1 X64.226 Y45.672 E49.59257
G1 X49.828 Y31.274 E50.59806
G1 X50.426 Y31.274 E50.62760
G1 X64.226 Y45.074 E51.59131
G1 X64.226 Y44.475 E51.62086
G1 X51.025 Y31.274 E52.54279
G1 X51.623 Y31.274 E52.57233
G1 X64.226 Y43.877 E53.45249
G1 X64.226 Y43.279 E53.48203
G1 X52.221 Y31.274 E54.32040
G1 X52.819 Y31.274 E54.34995
G1 X64.226 Y42.681 E55.14654
G1 X64.226 Y42.082 E55.17608
G1 X53.418 Y31.274 E55.93090
G1 X54.016 Y31.274 E55.96044
G1 X64.226 Y41.484 E56.67348
G1 X64.226 Y40.886 E56.70302
G1 X54.614 Y31.274 E57.37428
G1 X55.212 Y31.274 E57.40382
G1 X64.226 Y40.288 E58.03330
G1 X64.226 Y39.689 E58.06285
G1 X55.811 Y31.274 E58.65055
G1 X56.409 Y31.274 E58.68009
G1 X64.226 Y39.091 E59.22601
G1 X64.226 Y38.493 E59.25555
G1 X57.007 Y31.274 E59.75970
G1 X57.605 Y31.274 E59.78924
G1 X64.226 Y37.895 E60.25160
G1 X64.226 Y37.297 E60.28114
G1 X58.203 Y31.274 E60.70173
G1 X58.802 Y31.274 E60.73127
G1 X64.226 Y36.698 E61.11007
G1 X64.226 Y36.100 E61.13962
G1 X59.400 Y31.274 E61.47664
G1 X59.998 Y31.274 E61.50619
G1 X64.226 Y35.502 E61.80143
G1 X64.226 Y34.904 E61.83098
G1 X60.596 Y31.274 E62.08444
G1 X61.195 Y31.274 E62.11399
G1 X64.226 Y34.305 E62.32567
G1 X64.226 Y33.707 E62.35522
G1 X61.793 Y31.274 E62.52513
G1 X62.391 Y31.274 E62.55467
G1 X64.226 Y33.109 E62.68280
G1 X64.226 Y32.511 E62.71234
G1 X62.989 Y31.274 E62.79869
G1 X63.588 Y31.274 E62.82824
G1 X64.226 Y31.912 E62.87281
G1 X64.226 Y31.314 E62.90235
G1 X64.186 Y31.274 E62.90514
M106 S152
G1 F1800.000 E61.90514
G92 E0
G1 Z0.600 F7800.000
G1 X49.292 Y48.166 F7800.000
G1 E1.00000 F1800.000
G1 X49.099 Y48.432 E1.01549 F3600.000
G1 X48.808 Y48.673 E1.03332
G1 X48.466 Y48.834 E1.05114
G1 X48.095 Y48.905 E1.06897
G1 X47.718 Y48.881 E1.08679
G1 X47.358 Y48.764 E1.10462
G1 X47.039 Y48.562 E1.12244
G1 X46.780 Y48.286 E1.14027
G1 X46.598 Y47.955 E1.15809
G1 X46.504 Y47.589 E1.17592
G1 X46.504 Y47.211 E1.19374
G1 X46.598 Y46.845 E1.21157
G1 X46.780 Y46.514 E1.22939
G1 X47.039 Y46.238 E1.24722
G1 X47.358 Y46.036 E1.26504
G1 X47.717 Y45.919 E1.28287
G1 X48.095 Y45.895 E1.30069
G1 X48.332 Y45.940 E1.31208
G1 X48.466 Y45.966 E1.31852 F3600.000
G1 X48.808 Y46.127 E1.33634
G1 X49.099 Y46.368 E1.35417
G1 X49.321 Y46.674 E1.37199
G1 X49.461 Y47.025 E1.38982
G1 X49.508 Y47.400 E1.40764
G1 X49.461 Y47.775 E1.42547
G1 X49.325 Y48.117 E1.44280
G1 X48.968 Y47.932 F7800.000
G1 X48.805 Y48.156 E1.45585 F3600.000
G1 X48.592 Y48.333 E1.46891
G1 X48.341 Y48.451 E1.48197
G1 X48.069 Y48.503 E1.49503
G1 X47.793 Y48.485 E1.50809
G1 X47.530 Y48.400 E1.52115
G1 X47.296 Y48.251 E1.53421
G1 X47.106 Y48.049 E1.54727
G1 X46.973 Y47.807 E1.56032
G1 X46.904 Y47.538 E1.57338
G1 X46.904 Y47.262 E1.58644
G1 X46.973 Y46.993 E1.59950
G1 X47.106 Y46.751 E1.61256
G1 X47.296 Y46.549 E1.62562
G1 X47.530 Y46.400 E1.63868
G1 X47.793 Y46.315 E1.65174
G1 X47.983 Y46.303 E1.66074
G1 X48.069 Y46.297 E1.66480 F3600.000
G1 X48.341 Y46.349 E1.67786
G1 X48.592 Y46.467 E1.69092
G1 X48.805 Y46.644 E1.70397
G1 X48.968 Y46.868 E1.71703
G1 X49.070 Y47.125 E1.73009
G1 X49.105 Y47.400 E1.74315
G1 X49.070 Y47.675 E1.75621
G1 X48.990 Y47.876 E1.76644
G1 X48.680 Y47.574 F7800.000
G1 X48.615 Y47.738 E1.77474 F2160.000
G1 X48.511 Y47.880 E1.78303
G1 X48.376 Y47.992 E1.79132
G1 X48.182 Y48.074 E1.80125
G1 X48.044 Y48.100 E1.80787
G1 X47.869 Y48.089 E1.81616
G1 X47.671 Y48.016 E1.82608
G1 X47.553 Y47.941 E1.83270
G1 X47.432 Y47.812 E1.84100
G1 X47.348 Y47.658 E1.84929
G1 X47.304 Y47.488 E1.85758
G1 X47.304 Y47.312 E1.86588
G1 X47.348 Y47.142 E1.87417
G1 X47.432 Y46.988 E1.88246
G1 X47.553 Y46.859 E1.89076
G1 X47.701 Y46.765 E1.89905
G1 X47.835 Y46.722 E1.90567
G1 X48.044 Y46.700 E1.91559
G1 X48.217 Y46.733 E1.92388
G1 X48.376 Y46.808 E1.93218
G1 X48.511 Y46.920 E1.94047
G1 X48.615 Y47.062 E1.94876
G1 X48.680 Y47.226 E1.95706
G1 X48.702 Y47.400 E1.96535
G1 X48.687 Y47.515 E1.97082
G1 X48.800 Y47.703 F7800.000
G1 F1800.000 E0.97082
G92 E0
G1 X64.500 Y59.000 F7800.000
G1 E1.00000 F1800.000
G1 X31.500 Y59.000 E2.55618 F3600.000
G1 X31.500 Y31.000 E3.87658
G1 X64.500 Y31.000 E5.43276
G1 X64.500 Y58.940 E6.75033
G1 X64.900 Y59.400 F7800.000
G1 X31.100 Y59.400 E8.34423 F3600.000
G1 X31.100 Y30.600 E9.70236
G1 X64.900 Y30.600 E11.29626
G1 X64.900 Y59.340 E12.65156
G1 X65.300 Y59.800 F7800.000
G1 X30.700 Y59.800 E14.28319 F2160.000
G1 X30.700 Y30.200 E15.67904
G1 X65.300 Y30.200 E17.31067
G1 X65.300 Y59.740 E18.70369
G1 X64.954 Y59.600 F7800.000
G1 X64.226 Y58.686 F7800.000
G1 X64.186 Y58.726 E18.70648 F3000.000
G1 X63.588 Y58.726 E18.73603
G1 X64.226 Y58.088 E18.78060
G1 X64.226 Y57.489 E18.81014
G1 X62.989 Y58.726 E18.89649
G1 X62.391 Y58.726 E18.92603
G1 X64.226 Y56.891 E19.05416
G1 X64.226 Y56.293 E19.08371
G1 X61.793 Y58.726 E19.25362
G1 X61.195 Y58.726 E19.28316
G1 X64.226 Y55.695 E19.49485
G1 X64.226 Y55.096 E19.52439
G1 X60.596 Y58.726 E19.77786
G1 X59.998 Y58.726 E19.80740
G1 X64.226 Y54.498 E20.10265
G1 X64.226 Y53.900 E20.13219
G1 X59.400 Y58.726 E20.46922
G1 X58.802 Y58.726 E20.49876
G1 X64.226 Y53.302 E20.87756
G1 X64.226 Y52.703 E20.90711
G1 X58.203 Y58.726 E21.32769
G1 X57.605 Y58.726 E21.35723
G1 X64.226 Y52.105 E21.81960
G1 X64.226 Y51.507 E21.84914
G1 X57.007 Y58.726 E22.35328
G1 X56.409 Y58.726 E22.38282
G1 X64.226 Y50.909 E22.92874
G1 X64.226 Y50.311 E22.95829
G1 X55.811 Y58.726 E23.54599
G1 X55.212 Y58.726 E23.57553
G1 X64.226 Y49.712 E24.20501
G1 X64.226 Y49.114 E24.23455
G1 X54.614 Y58.726 E24.90581
G1 X54.016 Y58.726 E24.93535
G1 X64.226 Y48.516 E25.64839
G1 X64.226 Y47.918 E25.67793
G1 X53.418 Y58.726 E26.43275
G1 X52.819 Y58.726 E26.46229
G1 X64.226 Y47.319 E27.25889
G1 X64.226 Y46.721 E27.28843
G1 X52.221 Y58.726 E28.12681
G1 X51.623 Y58.726 E28.15635
G1 X64.226 Y46.123 E29.03650
G1 X64.226 Y45.525 E29.06604
G1 X51.025 Y58.726 E29.98798
G1 X50.426 Y58.726 E30.01752
G1 X64.226 Y44.926 E30.98123
G1 X64.226 Y44.328 E31.01077
G1 X49.828 Y58.726 E32.01627
G1 X49.230 Y58.726 E32.04581
G1 X64.226 Y43.730 E33.09308
G1 X64.226 Y43.132 E33.12262
G1 X48.632 Y58.726 E34.21167
G1 X48.034 Y58.726 E34.24121
G1 X64.226 Y42.534 E35.37204
G1 X64.226 Y41.935 E35.40158
G1 X47.435 Y58.726 E36.57419
G1 X46.837 Y58.726 E36.60373
