; generated by Slic3r 1.1.7 on 2014-10-25 at 14:28:55

; perimeters extrusion width = 0.40mm
; infill extrusion width = 0.42mm
; solid infill extrusion width = 0.42mm
; top infill extrusion width = 0.42mm
; support material extrusion width = 0.40mm

G21 ; set units to millimeters
M107
M104 S195 ; set temperature
G28 ; home all axes
G1 Z5 F5000 ; lift nozzle
M109 S195 ; wait for temperature to be reached
G90 ; use absolute coordinates
G92 E0
M82 ; use absolute distances for extrusion
G1 F1800.000 E-1.00000
G92 E0
G1 Z0.350 F7800.000
G1 X30.642 Y30.320 F7800.000
G1 E1.00000 F1800.000
G1 X34.049 Y27.092 E1.41032 F1080.000
G1 X36.073 Y25.779 E1.62124
G1 X43.466 Y22.752 E2.31962
G1 X44.521 Y22.433 E2.41597
G1 X46.560 Y22.149 E2.59593
G1 X50.108 Y22.211 E2.90617
G1 X52.531 Y22.716 E3.12250 F1080.000
G1 X60.695 Y26.101 E3.89519
G1 X63.078 Y27.793 E4.15070
G1 X65.950 Y30.991 E4.52645
G1 X67.143 Y32.885 E4.72214
G1 X70.382 Y40.705 E5.46217
G1 X70.883 Y43.488 E5.70940
G1 X70.741 Y47.342 E6.04656
G1 X70.042 Y50.071 E6.29285
G1 X65.874 Y58.388 E7.10610
G1 X64.851 Y59.878 E7.26413
G1 X62.857 Y62.072 E7.52328
G1 X61.399 Y63.275 E7.68860
G1 X59.199 Y64.523 E7.90969
G1 X52.423 Y67.329 E8.55085
G1 X50.002 Y67.833 E8.76702
G1 X46.390 Y67.898 E9.08282
G1 X43.732 Y67.393 E9.31934
G1 X35.680 Y64.016 E10.08274
G1 X34.977 Y63.632 E10.15272
G1 X33.424 Y62.458 E10.32291
G1 X30.438 Y59.320 E10.70166
G1 X29.375 Y57.870 E10.85883
G1 X28.596 Y56.485 E10.99772
G1 X25.762 Y49.642 E11.64525
G1 X25.257 Y47.097 E11.87214
G1 X25.260 Y43.519 E12.18493
G1 X25.688 Y41.181 E12.39274
G1 X28.701 Y33.305 E13.12987
G1 X29.273 Y32.164 E13.24151
G1 X30.606 Y30.368 E13.43706
G1 F1800.000 E12.43706
G92 E0
G1 X50.787 Y47.617 F7800.000
G1 E1.00000 F1800.000
G1 X50.437 Y47.946 E1.04198 F1080.000
G1 X50.048 Y48.228 E1.08392
G1 X49.628 Y48.459 E1.12589
G1 X49.181 Y48.636 E1.16788
G1 X48.716 Y48.755 E1.20982
G1 X48.240 Y48.815 E1.25180
G1 X47.760 Y48.815 E1.29376
G1 X47.284 Y48.755 E1.33572
G1 X46.819 Y48.635 E1.37766
G1 X46.374 Y48.459 E1.41956
G1 X45.952 Y48.227 E1.46160
G1 X45.564 Y47.946 E1.50351
G1 X45.214 Y47.617 E1.54554
G1 X44.909 Y47.247 E1.58744
G1 X44.651 Y46.842 E1.62944
G1 X44.446 Y46.407 E1.67146
G1 X44.299 Y45.952 E1.71326
G1 X44.209 Y45.479 E1.75532
G1 X44.178 Y45.001 E1.79727
G1 X44.209 Y44.522 E1.83921
G1 X44.299 Y44.049 E1.88127
G1 X44.446 Y43.594 E1.92307
G1 X44.651 Y43.159 E1.96509
G1 X44.909 Y42.754 E2.00709
G1 X45.214 Y42.384 E2.04899
G1 X45.564 Y42.055 E2.09102
G1 X45.952 Y41.774 E2.13293
G1 X46.374 Y41.542 E2.17498
G1 X46.819 Y41.366 E2.21684
G1 X47.284 Y41.246 E2.25881
G1 X47.760 Y41.186 E2.30074
G1 X48.188 Y41.184 E2.33818
G1 X48.717 Y41.246 E2.38469 F1080.000
G1 X49.181 Y41.365 E2.42661
G1 X49.408 Y41.447 E2.44767
G1 X49.842 Y41.651 E2.48961
G1 X50.247 Y41.909 E2.53161
G1 X50.617 Y42.215 E2.57358
G1 X50.945 Y42.564 E2.61548
G1 X51.227 Y42.952 E2.65744
G1 X51.572 Y43.595 E2.72118
G1 X51.572 Y46.406 E2.96695
G1 X51.227 Y47.049 E3.03068
G1 X51.093 Y47.247 E3.05162
G1 X50.826 Y47.572 E3.08837
G1 X50.323 Y47.182 F7800.000
G1 X50.031 Y47.456 E3.12336 F1080.000
G1 X49.708 Y47.691 E3.15832
G1 X49.357 Y47.883 E3.19331
G1 X48.985 Y48.031 E3.22831
G1 X48.597 Y48.130 E3.26327
G1 X48.200 Y48.180 E3.29826
G1 X47.800 Y48.180 E3.33324
G1 X47.569 Y48.156 E3.35355
G1 X47.208 Y48.087 E3.38570
G1 X46.828 Y47.963 E3.42066
G1 X46.465 Y47.792 E3.45569
G1 X46.128 Y47.578 E3.49065
G1 X45.820 Y47.323 E3.52558
G1 X45.545 Y47.031 E3.56061
G1 X45.310 Y46.708 E3.59556
G1 X45.118 Y46.358 E3.63051
G1 X44.971 Y45.986 E3.66548
G1 X44.871 Y45.597 E3.70052
G1 X44.821 Y45.200 E3.73554
G1 X44.821 Y44.801 E3.77042
G1 X44.871 Y44.403 E3.80547
G1 X44.970 Y44.016 E3.84046
G1 X45.118 Y43.643 E3.87546
G1 X45.310 Y43.293 E3.91039
G1 X45.545 Y42.970 E3.94536
G1 X45.820 Y42.678 E3.98039
G1 X46.128 Y42.423 E4.01531
G1 X46.465 Y42.209 E4.05028
G1 X46.827 Y42.038 E4.08528
G1 X47.208 Y41.914 E4.12029
G1 X47.601 Y41.840 E4.15526
G1 X47.968 Y41.815 E4.18738
G1 X48.400 Y41.840 E4.22522 F1080.000
G1 X48.793 Y41.915 E4.26020
G1 X49.143 Y42.027 E4.29231
G1 X49.357 Y42.118 E4.31263
G1 X49.708 Y42.310 E4.34764
G1 X50.031 Y42.545 E4.38260
G1 X50.182 Y42.678 E4.40013
G1 X50.455 Y42.969 E4.43507
G1 X50.691 Y43.293 E4.47005
G1 X50.936 Y43.747 E4.51520
G1 X50.936 Y46.254 E4.73429
G1 X50.691 Y46.708 E4.77944
G1 X50.363 Y47.137 E4.82662
G1 X49.859 Y46.746 F7800.000
G1 X49.626 Y46.965 E4.85462 F756.000
G1 X49.367 Y47.154 E4.88261
G1 X49.086 Y47.308 E4.91061
G1 X48.788 Y47.426 E4.93862
G1 X48.478 Y47.506 E4.96661
G1 X48.161 Y47.546 E4.99461
G1 X47.840 Y47.546 E5.02261
G1 X47.523 Y47.505 E5.05061
G1 X47.212 Y47.426 E5.07860
G1 X46.915 Y47.308 E5.10659
G1 X46.634 Y47.154 E5.13460
G1 X46.375 Y46.965 E5.16259
G1 X46.141 Y46.746 E5.19060
G1 X45.937 Y46.499 E5.21858
G1 X45.766 Y46.229 E5.24659
G1 X45.629 Y45.939 E5.27460
G1 X45.531 Y45.635 E5.30256
G1 X45.470 Y45.320 E5.33058
G1 X45.450 Y45.001 E5.35858
G1 X45.470 Y44.681 E5.38657
G1 X45.531 Y44.366 E5.41459
G1 X45.629 Y44.062 E5.44255
G1 X45.766 Y43.772 E5.47057
G1 X45.937 Y43.502 E5.49857
G1 X46.141 Y43.255 E5.52656
G1 X46.375 Y43.036 E5.55457
G1 X46.634 Y42.847 E5.58255
G1 X46.915 Y42.693 E5.61057
G1 X47.212 Y42.575 E5.63855
G1 X47.523 Y42.496 E5.66655
G1 X47.840 Y42.455 E5.69454
G1 X48.148 Y42.455 E5.72145
G1 X48.478 Y42.495 E5.75054 F756.000
G1 X48.788 Y42.575 E5.77853
G1 X49.086 Y42.693 E5.80653
G1 X49.367 Y42.847 E5.83454
G1 X49.626 Y43.036 E5.86253
G1 X49.859 Y43.255 E5.89053
G1 X50.064 Y43.502 E5.91854
G1 X50.301 Y43.900 E5.95906
G1 X50.301 Y46.101 E6.15147
G1 X50.154 Y46.367 E6.17804
G1 X49.899 Y46.701 E6.21476
G1 F1800.000 E5.21476
G92 E0
G1 X48.123 Y42.123 F7800.000
G1 X53.184 Y49.296 F7800.000
G1 E1.00000 F1800.000
G1 X52.799 Y49.799 E1.05535 F1080.000
G1 X51.394 Y50.876 E1.21012
G1 X49.755 Y51.556 E1.36525
G1 X48.015 Y51.784 E1.51862
G1 X46.235 Y51.550 E1.67562
G1 X44.609 Y50.876 E1.82950
G1 X43.207 Y49.801 E1.98395
G1 X42.136 Y48.405 E2.13772
G1 X41.447 Y46.741 E2.29523
G1 X41.220 Y45.015 E2.44744
G1 X41.452 Y43.246 E2.60343
G1 X42.131 Y41.610 E2.75825
G1 X43.225 Y40.184 E2.91541
G1 X44.606 Y39.124 E3.06762
G1 X46.245 Y38.444 E3.22275
G1 X47.986 Y38.216 E3.37619
G1 X49.765 Y38.450 E3.53311
G1 X51.391 Y39.124 E3.68700 F1080.000
G1 X52.793 Y40.199 E3.84145
G1 X53.869 Y41.602 E3.99605
G1 X54.552 Y43.249 E4.15195
G1 X54.782 Y45.000 E4.30634
G1 X54.550 Y46.765 E4.46194
G1 X53.874 Y48.397 E4.61634
G1 X53.220 Y49.249 E4.71022
G1 X53.688 Y49.683 F7800.000
G1 X53.252 Y50.252 E4.77289 F1080.000
G1 X51.706 Y51.435 E4.94305
G1 X49.910 Y52.176 E5.11292
G1 X48.023 Y52.424 E5.27934
G1 X46.077 Y52.171 E5.45088
G1 X44.297 Y51.435 E5.61925
G1 X42.760 Y50.259 E5.78843
G1 X41.581 Y48.726 E5.95752
G1 X40.830 Y46.927 E6.12798
G1 X40.579 Y45.010 E6.29701
G1 X40.830 Y43.086 E6.46663
G1 X41.574 Y41.291 E6.63651
G1 X42.752 Y39.745 E6.80636
G1 X44.294 Y38.565 E6.97611
G1 X46.090 Y37.824 E7.14598
G1 X47.978 Y37.576 E7.31248 F1080.000
G1 X49.923 Y37.829 E7.48393
G1 X51.703 Y38.565 E7.65231
G1 X53.240 Y39.741 E7.82149
G1 X54.422 Y41.278 E7.99103
G1 X55.171 Y43.084 E8.16194
G1 X55.422 Y45.000 E8.33094
G1 X55.171 Y46.923 E8.50045
G1 X54.432 Y48.710 E8.66947
G1 X53.725 Y49.636 E8.77132
G1 X54.193 Y50.070 F7800.000
G1 X53.748 Y50.650 E8.83526 F756.000
G1 X53.650 Y50.747 E8.84728
G1 X52.113 Y51.927 E9.01664
G1 X51.982 Y52.008 E9.03015
G1 X50.083 Y52.790 E9.20968
G1 X48.008 Y53.062 E9.39267
G1 X45.923 Y52.791 E9.57644
G1 X43.987 Y51.995 E9.75945
G1 X42.313 Y50.717 E9.94355
G1 X41.026 Y49.047 E10.12793
G1 X40.209 Y47.084 E10.31377
G1 X39.939 Y45.004 E10.49716
G1 X40.209 Y42.925 E10.68039
G1 X41.019 Y40.970 E10.86543
G1 X42.298 Y39.298 E11.04945
G1 X43.973 Y38.015 E11.23390
G1 X45.917 Y37.210 E11.41788
G1 X47.907 Y36.944 E11.59335
G1 X48.160 Y36.957 E11.61548
G1 X50.077 Y37.209 E11.78454 F756.000
G1 X52.013 Y38.005 E11.96755
G1 X53.687 Y39.283 E12.15164
G1 X54.975 Y40.954 E12.33613
G1 X55.791 Y42.918 E12.52201
G1 X56.061 Y45.000 E12.70563
G1 X55.791 Y47.077 E12.88870
G1 X54.986 Y49.026 E13.07304
G1 X54.229 Y50.022 E13.18245
G1 X48.522 Y37.127 F7800.000
G1 X52.356 Y40.419 F7800.000
G1 X52.573 Y40.636 E13.20920 F1080.000
G1 X53.954 Y42.958 F7800.000
G1 X50.035 Y39.039 E13.69382 F1080.000
G1 X48.826 Y38.771 E13.80201
G1 X54.229 Y44.174 E14.46997
G1 X54.312 Y45.197 E14.55974
G1 X47.800 Y38.685 E15.36487
G1 X46.968 Y38.794 E15.43819
G1 X49.051 Y40.877 E15.69568
G1 X47.972 Y40.738 E15.79080
G1 X46.181 Y38.948 E16.01213
G1 X45.516 Y39.224 E16.07507
G1 X47.127 Y40.835 E16.27427
G1 X46.407 Y41.055 E16.34016
G1 X44.851 Y39.499 E16.53246
G1 X44.314 Y39.903 E16.59120
G1 X45.781 Y41.369 E16.77247
G1 X45.236 Y41.765 E16.83135
G1 X43.782 Y40.312 E17.01107
G1 X43.318 Y40.789 E17.06922
G1 X44.765 Y42.236 E17.24809
G1 X44.365 Y42.777 E17.30690
G1 X42.912 Y41.323 E17.48656
G1 X42.506 Y41.858 E17.54525
G1 X44.050 Y43.402 E17.73612
G1 X43.835 Y44.128 E17.80230
G1 X42.229 Y42.522 E18.00083
G1 X41.954 Y43.187 E18.06376
G1 X43.745 Y44.978 E18.28525
G1 X43.867 Y46.041 E18.37876
G1 X41.801 Y43.975 E18.63420
G1 X41.692 Y44.806 E18.70752
G1 X48.201 Y51.315 E19.51224
G1 X49.032 Y51.206 E19.58556
G1 X46.950 Y49.124 E19.84293
G1 X48.023 Y49.256 E19.93739
G1 X49.819 Y51.052 E20.15944
G1 X50.484 Y50.776 E20.22238
G1 X48.876 Y49.169 E20.42110
G1 X49.599 Y48.951 E20.48710
G1 X51.149 Y50.501 E20.67867
G1 X51.686 Y50.097 E20.73741
G1 X50.220 Y48.632 E20.91856
G1 X50.765 Y48.236 E20.97744
G1 X52.218 Y49.688 E21.15704
G1 X52.688 Y49.218 E21.21519
G1 X51.239 Y47.768 E21.39442
G1 X51.634 Y47.223 E21.45331
G1 X53.097 Y48.686 E21.63415
G1 X53.500 Y48.148 E21.69289
G1 X51.962 Y46.611 E21.88299
G1 X52.013 Y45.720 E21.96096
G1 X53.776 Y47.483 E22.17893
G1 X54.051 Y46.818 E22.24187
G1 X52.013 Y44.779 E22.49392
G1 X52.013 Y43.839 E22.57616
G1 X54.202 Y46.029 E22.84691
G1 X47.174 Y51.229 F7800.000
G1 X41.771 Y45.826 E23.51487 F1080.000
G1 X42.050 Y47.046 E23.62429
G1 X45.965 Y50.961 E24.10833
G1 X43.644 Y49.581 F7800.000
G1 X43.427 Y49.364 E24.13509 F1080.000
G1 F1800.000 E23.13509
G92 E0
G1 X39.222 Y46.762 F7800.000
G1 E1.00000 F1800.000
G1 X38.950 Y47.304 E1.03336 F1080.000
G1 X37.947 Y47.520 E1.08981
G1 X39.041 Y45.338 E1.22408
G1 X37.947 Y45.735 E1.28808
G1 X39.238 Y43.159 E1.44660
G1 X38.630 Y42.587 E1.49253
G1 X37.947 Y43.949 E1.57634
G1 X37.375 Y43.305 F7800.000
G1 X36.850 Y44.353 E1.64083 F1080.000
G1 X35.955 Y44.353 E1.69006
G1 X37.375 Y41.520 E1.86442
G1 X37.375 Y39.734 E1.96265
G1 X35.060 Y44.353 E2.24689
G1 X34.166 Y44.353 E2.29612
G1 X37.375 Y37.949 E2.69023
G1 X37.375 Y36.163 E2.78846
G1 X33.271 Y44.353 E3.29244
G1 X32.441 Y44.224 E3.33866
G1 X36.995 Y35.137 E3.89786
G1 X36.100 Y35.137 E3.94710
G1 X31.896 Y43.525 E4.46331
G1 F1800.000 E3.46331
G92 E0
G1 X31.892 Y47.103 F7800.000
G1 E1.00000 F1800.000
G1 X32.710 Y45.472 E1.10036 F1080.000
G1 X33.773 Y45.137 E1.16168
G1 X32.297 Y48.081 E1.34283
G1 X32.702 Y49.058 E1.40104
G1 X34.667 Y45.137 E1.64235
G1 X35.562 Y45.137 E1.69159
G1 X33.107 Y50.036 E1.99306
G1 X33.512 Y51.013 E2.05127
G1 X36.457 Y45.137 E2.41290
G1 X37.345 Y45.152 E2.46174
G1 X33.917 Y51.991 E2.88263
G1 X34.322 Y52.969 E2.94084
G1 X37.375 Y46.876 E3.31578
G1 X37.375 Y48.661 E3.41400
G1 X34.727 Y53.946 E3.73923
G1 X35.418 Y54.353 E3.78334
G1 X37.375 Y50.447 E4.02373
G1 X37.375 Y52.232 E4.12196
G1 X36.312 Y54.353 E4.25247
G1 X37.207 Y54.353 E4.30170
G1 X37.375 Y54.018 E4.32234
G1 X37.587 Y55.380 F7800.000
G1 X37.568 Y55.420 E4.32478 F1080.000
G1 X36.921 Y54.925 E4.36958
G1 X36.654 Y55.456 E4.40227
G1 X36.026 Y54.925 E4.44755
G1 X35.790 Y55.396 E4.47654
G1 F1800.000 E3.47654
G92 E0
G1 X38.159 Y56.024 F7800.000
G1 E1.00000 F1800.000
G1 X38.604 Y55.137 E1.05459 F1080.000
G1 X39.499 Y55.137 E1.10383
G1 X38.159 Y57.810 E1.26830
G1 X38.862 Y58.193 E1.31234
G1 X40.394 Y55.137 E1.50043
G1 X41.289 Y55.137 E1.54966
G1 X39.603 Y58.500 E1.75664
G1 X40.344 Y58.807 E1.80077
G1 X42.183 Y55.137 E2.02665
G1 X43.078 Y55.137 E2.07588
G1 X41.085 Y59.114 E2.32064
G1 X41.826 Y59.421 E2.36477
G1 X43.973 Y55.137 E2.62842
G1 X44.868 Y55.137 E2.67765
G1 X42.567 Y59.728 E2.96020
G1 X43.308 Y60.035 E3.00432
G1 X45.763 Y55.137 E3.30576
G1 X46.658 Y55.137 E3.35499
G1 X44.049 Y60.342 E3.67532
G1 X44.790 Y60.649 E3.71944
G1 X47.375 Y55.491 E4.03689
G1 X47.375 Y57.276 E4.13512
G1 X45.531 Y60.956 E4.36159
G1 X46.272 Y61.263 E4.40571
G1 X47.375 Y59.062 E4.54120
G1 F1800.000 E3.54120
G92 E0
G1 X48.447 Y55.137 F7800.000
G1 E1.00000 F1800.000
G1 X48.159 Y55.712 E1.03537 F1080.000
G1 X48.159 Y57.497 E1.13360
G1 X49.342 Y55.137 E1.27884
G1 X50.237 Y55.137 E1.32808
G1 X48.159 Y59.283 E1.58320
G1 X48.529 Y60.330 E1.64431
G1 X51.132 Y55.137 E1.96388
G1 X52.027 Y55.137 E2.01312
G1 X49.153 Y60.870 E2.36593
G1 X49.884 Y61.199 E2.40998
G1 X52.922 Y55.137 E2.78301
G1 X53.817 Y55.137 E2.83224
G1 X51.013 Y60.731 E3.17648
G1 X52.142 Y60.263 E3.24373
G1 X54.711 Y55.137 E3.55918
G1 X55.606 Y55.137 E3.60842
G1 X53.272 Y59.795 E3.89509
G1 X54.401 Y59.328 E3.96234
G1 X56.501 Y55.137 E4.22022
G1 X57.375 Y55.178 E4.26837
G1 X55.530 Y58.860 E4.49494
G1 X56.659 Y58.392 E4.56218
G1 X57.375 Y56.964 E4.65009
G1 X57.947 Y57.608 F7800.000
G1 X58.446 Y56.613 E4.71133 F1080.000
G1 X57.947 Y55.822 E4.76274
G1 X58.397 Y54.925 E4.81797
G1 X59.014 Y55.480 E4.86362
G1 X59.292 Y54.925 E4.89780
G1 X59.942 Y55.415 E4.94255
G1 X60.187 Y54.925 E4.97268
G1 F1800.000 E3.97268
G92 E0
G1 X57.587 Y52.970 F7800.000
G1 E1.00000 F1800.000
G1 X56.788 Y54.565 E1.09816 F1080.000
G1 X55.893 Y54.565 E1.14740
G1 X57.587 Y51.184 E1.35544
G1 X57.587 Y49.399 E1.45366
G1 X54.998 Y54.565 E1.77158
G1 X54.103 Y54.565 E1.82081
G1 X57.587 Y47.614 E2.24860
G1 X57.329 Y46.344 E2.31989
G1 X53.208 Y54.565 E2.82583
G1 X52.314 Y54.565 E2.87506
G1 X53.618 Y51.962 E3.03525
G1 X52.243 Y52.920 E3.12747
G1 X51.419 Y54.565 E3.22868
G1 X50.524 Y54.565 E3.27791
G1 X51.113 Y53.390 E3.35023
G1 X50.039 Y53.748 E3.41252
G1 X49.629 Y54.565 E3.46281
G1 X49.047 Y53.942 E3.50975
G1 X49.078 Y53.879 E3.51361
G1 X48.130 Y53.986 F7800.000
G1 X47.946 Y54.353 E3.53621 F1080.000
G1 X47.271 Y53.913 E3.58050
G1 X47.051 Y54.353 E3.60755
G1 X46.431 Y53.803 E3.65311
G1 X46.156 Y54.353 E3.68695
G1 X45.605 Y53.666 E3.73539
G1 X45.261 Y54.353 E3.77769
G1 X44.366 Y54.353 E3.82692
G1 X44.857 Y53.375 E3.88714
G1 X44.116 Y53.067 E3.93126
G1 X43.471 Y54.353 E4.01038
G1 X42.576 Y54.353 E4.05961
G1 X43.397 Y52.716 E4.16034
G1 X42.744 Y52.234 E4.20501
G1 X41.682 Y54.353 E4.33541
G1 X40.787 Y54.353 E4.38464
G1 X42.097 Y51.738 E4.54555
G1 X41.486 Y51.173 E4.59136
G1 X39.892 Y54.353 E4.78706
G1 X38.997 Y54.353 E4.83629
G1 X40.940 Y50.476 E5.07485
G1 X40.399 Y49.771 E5.12378
G1 X38.159 Y54.239 E5.39873
G1 X38.159 Y52.453 E5.49696
G1 X39.950 Y48.880 E5.71686
G1 X39.537 Y47.919 E5.77441
G1 X38.159 Y50.668 E5.94358
G1 X38.159 Y48.882 E6.04181
G1 X38.586 Y48.032 E6.09415
G1 F1800.000 E5.09415
G92 E0
G1 X38.889 Y42.071 F7800.000
G1 E1.00000 F1800.000
G1 X42.364 Y35.137 E1.42671 F1080.000
G1 X41.469 Y35.137 E1.47595
G1 X38.159 Y41.741 E1.88234
G1 X38.159 Y39.955 E1.98057
G1 X40.574 Y35.137 E2.27709
G1 F1800.000 E1.27709
G92 E0
G1 X38.159 Y36.385 F7800.000
G1 E1.00000 F1800.000
G1 X38.785 Y35.137 E1.07677 F1080.000
G1 X39.679 Y35.137 E1.12600
G1 X38.159 Y38.170 E1.31265
G1 F1800.000 E0.31265
G92 E0
G1 X41.295 Y39.055 F7800.000
G1 E1.00000 F1800.000
G1 X43.259 Y35.137 E1.24114 F1080.000
G1 X44.154 Y35.137 E1.29037
G1 X42.898 Y37.642 E1.44452
G1 X44.159 Y36.912 E1.52466
G1 X44.932 Y35.370 E1.61953
G1 X45.293 Y36.435 E1.68138
G1 X46.050 Y34.925 F7800.000
G1 X45.653 Y35.716 E1.73007 F1080.000
G1 X46.304 Y36.202 E1.77478
G1 X46.945 Y34.925 E1.85339
G1 X47.839 Y34.925 E1.90262
G1 X47.262 Y36.077 E1.97348
G1 X48.184 Y36.023 E2.02426
G1 X48.734 Y34.925 E2.09186
G1 X49.629 Y34.925 E2.14109
G1 X49.027 Y36.126 E2.21498
G1 X49.867 Y36.236 E2.26157
G1 X50.524 Y34.925 E2.34225
G1 X50.801 Y36.158 F7800.000
G1 X51.313 Y35.137 E2.40508 F1080.000
G1 X52.208 Y35.137 E2.45431
G1 X51.407 Y36.735 E2.55263
G1 X52.148 Y37.042 E2.59676
G1 X53.102 Y35.137 E2.71397
G1 X53.997 Y35.137 E2.76320
G1 X52.838 Y37.451 E2.90560
G1 X53.486 Y37.942 E2.95036
