; generated by Slic3r 1.1.7 on 2014-10-19 at 18:48:53

; perimeters extrusion width = 0.40mm
; infill extrusion width = 0.42mm
; solid infill extrusion width = 0.42mm
; top infill extrusion width = 0.42mm
; support material extrusion width = 0.40mm

G21 ; set units to millimeters
M107
M104 S195 ; set temperature
G28 ; home all axes
G1 Z5 F5000 ; lift nozzle
M109 S195 ; wait for temperature to be reached
G90 ; use absolute coordinates
G92 E0
M82 ; use absolute distances for extrusion
G1 F1800.000 E-1.00000
G92 E0
G1 Z0.350 F7800.000
G1 X1.699 Y2.925 F7800.000
G1 E1.00000 F1800.000
G1 X9.321 Y0.242 E1.70638 F1080.000
G1 X10.761 Y-0.090 E1.83566
G1 X12.473 Y-0.244 E1.98590
G1 X84.220 Y-0.244 E8.25827
G1 X86.436 Y0.138 E8.45488
G1 X94.315 Y2.929 E9.18564
G1 X96.313 Y4.059 E9.38630
G1 X97.807 Y5.801 E9.58697
G1 X98.618 Y7.949 E9.78763
G1 X98.734 Y9.184 E9.89611
G1 X98.734 Y80.843 E16.16082
G1 X98.337 Y83.104 E16.36149
G1 X97.194 Y85.094 E16.56215
G1 X95.621 Y86.466 E16.74464
G1 X91.255 Y89.201 E17.19505
G1 X89.128 Y90.065 E17.39572
G1 X87.747 Y90.214 E17.51712
G1 X74.294 Y90.244 E18.69328
G1 X10.525 Y90.244 E24.26823
G1 X7.856 Y90.213 E24.50160
G1 X5.600 Y89.790 E24.70226
G1 X4.206 Y89.069 E24.83945
G1 X0.176 Y86.334 E25.26527
G1 X-1.472 Y84.736 E25.46594
G1 X-2.477 Y82.672 E25.66661
G1 X-2.734 Y80.843 E25.82810
G1 X-2.734 Y9.184 E32.09281
G1 X-2.337 Y6.923 E32.29348
G1 X-1.194 Y4.933 E32.49414
G1 X0.559 Y3.451 E32.69481
G1 X1.644 Y2.950 E32.79930
G1 F1800.000 E31.79930
G92 E0
G1 X59.078 Y58.299 F7800.000
G1 E1.00000 F1800.000
G1 X36.922 Y58.299 E2.93701 F1080.000
G1 X36.922 Y52.651 E3.43074
G1 X59.078 Y52.651 E5.36775
G1 X59.078 Y58.239 E5.85623
G1 X59.714 Y58.934 F7800.000
G1 X36.286 Y58.934 E7.90438 F1080.000
G1 X36.286 Y52.016 E8.50924
G1 X59.714 Y52.016 E10.55739
G1 X59.714 Y58.874 E11.15701
G1 X60.349 Y59.570 F7800.000
G1 X35.650 Y59.570 E13.31629 F756.000
G1 X35.650 Y51.380 E14.03230
G1 X60.349 Y51.380 E16.19158
G1 X60.349 Y59.510 E16.90234
G1 X60.003 Y59.370 F7800.000
G1 X58.474 Y57.695 F7800.000
G1 X37.526 Y57.695 E18.73377 F1080.000
G1 X37.526 Y53.255 E19.12192
G1 X58.474 Y53.255 E20.95336
G1 X58.474 Y57.635 E21.33626
G1 X57.831 Y57.051 F7800.000
G1 X38.169 Y57.051 E23.05518 F1080.000
G1 X38.169 Y53.899 E23.33083
G1 X57.831 Y53.899 E25.04975
G1 X57.831 Y56.991 E25.32014
G1 X57.187 Y56.408 F7800.000
G1 X38.813 Y56.408 E26.92655 F1080.000
G1 X38.813 Y54.542 E27.08968
G1 X57.187 Y54.542 E28.69609
G1 X57.187 Y56.348 E28.85398
G1 F1800.000 E27.85398
G92 E0
G1 X59.078 Y79.222 F7800.000
G1 E1.00000 F1800.000
G1 X36.922 Y79.222 E2.93701 F1080.000
G1 X36.922 Y73.574 E3.43074
G1 X59.078 Y73.574 E5.36775
G1 X59.078 Y79.162 E5.85623
G1 X59.714 Y79.857 F7800.000
G1 X36.286 Y79.857 E7.90438 F1080.000
G1 X36.286 Y72.939 E8.50924
G1 X59.714 Y72.939 E10.55739
G1 X59.714 Y79.797 E11.15701
G1 X60.349 Y80.493 F7800.000
G1 X35.650 Y80.493 E13.31629 F756.000
G1 X35.650 Y72.303 E14.03230
G1 X60.349 Y72.303 E16.19158
G1 X60.349 Y80.433 E16.90234
G1 X60.003 Y80.293 F7800.000
G1 X58.474 Y78.618 F7800.000
G1 X37.526 Y78.618 E18.73377 F1080.000
G1 X37.526 Y74.178 E19.12192
G1 X58.474 Y74.178 E20.95336
G1 X58.474 Y78.558 E21.33626
G1 X57.831 Y77.974 F7800.000
G1 X38.169 Y77.974 E23.05518 F1080.000
G1 X38.169 Y74.822 E23.33083
G1 X57.831 Y74.822 E25.04975
G1 X57.831 Y77.914 E25.32014
G1 X57.187 Y77.331 F7800.000
G1 X38.813 Y77.331 E26.92655 F1080.000
G1 X38.813 Y75.465 E27.08968
G1 X57.187 Y75.465 E28.69609
G1 X57.187 Y77.271 E28.85398
G1 F1800.000 E27.85398
G92 E0
G1 X27.679 Y79.222 F7800.000
G1 E1.00000 F1800.000
G1 X5.523 Y79.222 E2.93701 F1080.000
G1 X5.523 Y73.574 E3.43074
G1 X27.679 Y73.574 E5.36775
G1 X27.679 Y79.162 E5.85623
G1 X28.315 Y79.857 F7800.000
G1 X4.887 Y79.857 E7.90438 F1080.000
G1 X4.887 Y72.939 E8.50924
G1 X28.315 Y72.939 E10.55739
G1 X28.315 Y79.797 E11.15701
G1 X28.950 Y80.493 F7800.000
G1 X4.251 Y80.493 E13.31629 F756.000
G1 X4.251 Y72.303 E14.03230
G1 X28.950 Y72.303 E16.19158
G1 X28.950 Y80.433 E16.90234
G1 X28.604 Y80.293 F7800.000
G1 X27.075 Y78.618 F7800.000
G1 X6.127 Y78.618 E18.73377 F1080.000
G1 X6.127 Y74.178 E19.12192
G1 X27.075 Y74.178 E20.95336
G1 X27.075 Y78.558 E21.33626
G1 X26.432 Y77.974 F7800.000
G1 X6.770 Y77.974 E23.05518 F1080.000
G1 X6.770 Y74.822 E23.33083
G1 X26.432 Y74.822 E25.04975
G1 X26.432 Y77.914 E25.32014
G1 X25.788 Y77.331 F7800.000
G1 X7.414 Y77.331 E26.92655 F1080.000
G1 X7.414 Y75.465 E27.08968
G1 X25.788 Y75.465 E28.69609
G1 X25.788 Y77.271 E28.85398
G1 F1800.000 E27.85398
G92 E0
G1 X27.679 Y58.299 F7800.000
G1 E1.00000 F1800.000
G1 X5.523 Y58.299 E2.93701 F1080.000
G1 X5.523 Y52.651 E3.43074
G1 X27.679 Y52.651 E5.36775
G1 X27.679 Y58.239 E5.85623
G1 X28.315 Y58.934 F7800.000
G1 X4.887 Y58.934 E7.90438 F1080.000
G1 X4.887 Y52.016 E8.50924
G1 X28.315 Y52.016 E10.55739
G1 X28.315 Y58.874 E11.15701
G1 X28.950 Y59.570 F7800.000
G1 X4.251 Y59.570 E13.31629 F756.000
G1 X4.251 Y51.380 E14.03230
G1 X28.950 Y51.380 E16.19158
G1 X28.950 Y59.510 E16.90234
G1 X28.604 Y59.370 F7800.000
G1 X27.075 Y57.695 F7800.000
G1 X6.127 Y57.695 E18.73377 F1080.000
G1 X6.127 Y53.255 E19.12192
G1 X27.075 Y53.255 E20.95336
G1 X27.075 Y57.635 E21.33626
G1 X26.432 Y57.051 F7800.000
G1 X6.770 Y57.051 E23.05518 F1080.000
G1 X6.770 Y53.899 E23.33083
G1 X26.432 Y53.899 E25.04975
G1 X26.432 Y56.991 E25.32014
G1 X25.788 Y56.408 F7800.000
G1 X7.414 Y56.408 E26.92655 F1080.000
G1 X7.414 Y54.542 E27.08968
G1 X25.788 Y54.542 E28.69609
G1 X25.788 Y56.348 E28.85398
G1 F1800.000 E27.85398
G92 E0
G1 X27.679 Y37.376 F7800.000
G1 E1.00000 F1800.000
G1 X5.523 Y37.376 E2.93701 F1080.000
G1 X5.523 Y31.728 E3.43074
G1 X27.679 Y31.728 E5.36775
G1 X27.679 Y37.316 E5.85623
G1 X28.315 Y38.011 F7800.000
G1 X4.887 Y38.011 E7.90438 F1080.000
G1 X4.887 Y31.093 E8.50924
G1 X28.315 Y31.093 E10.55739
G1 X28.315 Y37.951 E11.15701
G1 X28.950 Y38.647 F7800.000
G1 X4.251 Y38.647 E13.31629 F756.000
G1 X4.251 Y30.457 E14.03230
G1 X28.950 Y30.457 E16.19158
G1 X28.950 Y38.587 E16.90234
G1 X28.604 Y38.447 F7800.000
G1 X27.075 Y36.772 F7800.000
G1 X6.127 Y36.772 E18.73377 F1080.000
G1 X6.127 Y32.332 E19.12192
G1 X27.075 Y32.332 E20.95336
G1 X27.075 Y36.712 E21.33626
G1 X26.432 Y36.128 F7800.000
G1 X6.770 Y36.128 E23.05518 F1080.000
G1 X6.770 Y32.976 E23.33083
G1 X26.432 Y32.976 E25.04975
G1 X26.432 Y36.068 E25.32014
G1 X25.788 Y35.485 F7800.000
G1 X7.414 Y35.485 E26.92655 F1080.000
G1 X7.414 Y33.619 E27.08968
G1 X25.788 Y33.619 E28.69609
G1 X25.788 Y35.425 E28.85398
G1 F1800.000 E27.85398
G92 E0
G1 X27.679 Y16.453 F7800.000
G1 E1.00000 F1800.000
G1 X5.523 Y16.453 E2.93701 F1080.000
G1 X5.523 Y10.805 E3.43074
G1 X27.679 Y10.805 E5.36775
G1 X27.679 Y16.393 E5.85623
G1 X28.315 Y17.088 F7800.000
G1 X4.887 Y17.088 E7.90438 F1080.000
G1 X4.887 Y10.170 E8.50924
G1 X28.315 Y10.170 E10.55739
G1 X28.315 Y17.028 E11.15701
G1 X28.950 Y17.724 F7800.000
G1 X4.251 Y17.724 E13.31629 F756.000
G1 X4.251 Y9.534 E14.03230
G1 X28.950 Y9.534 E16.19158
G1 X28.950 Y17.664 E16.90234
G1 X28.604 Y17.524 F7800.000
G1 X27.075 Y15.849 F7800.000
G1 X6.127 Y15.849 E18.73377 F1080.000
G1 X6.127 Y11.409 E19.12192
G1 X27.075 Y11.409 E20.95336
G1 X27.075 Y15.789 E21.33626
G1 X26.432 Y15.205 F7800.000
G1 X6.770 Y15.205 E23.05518 F1080.000
G1 X6.770 Y12.053 E23.33083
G1 X26.432 Y12.053 E25.04975
G1 X26.432 Y15.145 E25.32014
G1 X25.788 Y14.562 F7800.000
G1 X7.414 Y14.562 E26.92655 F1080.000
G1 X7.414 Y12.696 E27.08968
G1 X25.788 Y12.696 E28.69609
G1 X25.788 Y14.502 E28.85398
G1 F1800.000 E27.85398
G92 E0
G1 X59.078 Y16.453 F7800.000
G1 E1.00000 F1800.000
G1 X36.922 Y16.453 E2.93701 F1080.000
G1 X36.922 Y10.805 E3.43074
G1 X59.078 Y10.805 E5.36775
G1 X59.078 Y16.393 E5.85623
G1 X59.714 Y17.088 F7800.000
G1 X36.286 Y17.088 E7.90438 F1080.000
G1 X36.286 Y10.170 E8.50924
G1 X59.714 Y10.170 E10.55739
G1 X59.714 Y17.028 E11.15701
G1 X60.349 Y17.724 F7800.000
G1 X35.650 Y17.724 E13.31629 F756.000
G1 X35.650 Y9.534 E14.03230
G1 X60.349 Y9.534 E16.19158
G1 X60.349 Y17.664 E16.90234
G1 X60.003 Y17.524 F7800.000
G1 X58.474 Y15.849 F7800.000
G1 X37.526 Y15.849 E18.73377 F1080.000
G1 X37.526 Y11.409 E19.12192
G1 X58.474 Y11.409 E20.95336
G1 X58.474 Y15.789 E21.33626
G1 X57.831 Y15.205 F7800.000
G1 X38.169 Y15.205 E23.05518 F1080.000
G1 X38.169 Y12.053 E23.33083
G1 X57.831 Y12.053 E25.04975
G1 X57.831 Y15.145 E25.32014
G1 X57.187 Y14.562 F7800.000
G1 X38.813 Y14.562 E26.92655 F1080.000
G1 X38.813 Y12.696 E27.08968
G1 X57.187 Y12.696 E28.69609
G1 X57.187 Y14.502 E28.85398
G1 F1800.000 E27.85398
G92 E0
G1 X59.078 Y37.376 F7800.000
G1 E1.00000 F1800.000
G1 X36.922 Y37.376 E2.93701 F1080.000
G1 X36.922 Y31.728 E3.43074
G1 X59.078 Y31.728 E5.36775
G1 X59.078 Y37.316 E5.85623
G1 X59.714 Y38.011 F7800.000
G1 X36.286 Y38.011 E7.90438 F1080.000
G1 X36.286 Y31.093 E8.50924
G1 X59.714 Y31.093 E10.55739
G1 X59.714 Y37.951 E11.15701
G1 X60.349 Y38.647 F7800.000
G1 X35.650 Y38.647 E13.31629 F756.000
G1 X35.650 Y30.457 E14.03230
G1 X60.349 Y30.457 E16.19158
G1 X60.349 Y38.587 E16.90234
G1 X60.003 Y38.447 F7800.000
G1 X58.474 Y36.772 F7800.000
G1 X37.526 Y36.772 E18.73377 F1080.000
G1 X37.526 Y32.332 E19.12192
G1 X58.474 Y32.332 E20.95336
G1 X58.474 Y36.712 E21.33626
G1 X57.831 Y36.128 F7800.000
G1 X38.169 Y36.128 E23.05518 F1080.000
G1 X38.169 Y32.976 E23.33083
G1 X57.831 Y32.976 E25.04975
G1 X57.831 Y36.068 E25.32014
G1 X57.187 Y35.485 F7800.000
G1 X38.813 Y35.485 E26.92655 F1080.000
G1 X38.813 Y33.619 E27.08968
G1 X57.187 Y33.619 E28.69609
G1 X57.187 Y35.425 E28.85398
G1 F1800.000 E27.85398
G92 E0
G1 X90.477 Y37.376 F7800.000
G1 E1.00000 F1800.000
G1 X68.321 Y37.376 E2.93701 F1080.000
G1 X68.321 Y31.728 E3.43074
G1 X90.477 Y31.728 E5.36775
G1 X90.477 Y37.316 E5.85623
G1 X91.113 Y38.011 F7800.000
G1 X67.685 Y38.011 E7.90438 F1080.000
G1 X67.685 Y31.093 E8.50924
G1 X91.113 Y31.093 E10.55739
G1 X91.113 Y37.951 E11.15701
G1 X91.749 Y38.647 F7800.000
G1 X67.050 Y38.647 E13.31629 F756.000
G1 X67.050 Y30.457 E14.03230
G1 X91.749 Y30.457 E16.19158
G1 X91.749 Y38.587 E16.90234
G1 X91.402 Y38.447 F7800.000
G1 X89.873 Y36.772 F7800.000
G1 X68.925 Y36.772 E18.73377 F1080.000
G1 X68.925 Y32.332 E19.12192
G1 X89.873 Y32.332 E20.95336
G1 X89.873 Y36.712 E21.33626
G1 X89.230 Y36.128 F7800.000
G1 X69.568 Y36.128 E23.05518 F1080.000
G1 X69.568 Y32.976 E23.33083
G1 X89.230 Y32.976 E25.04975
G1 X89.230 Y36.068 E25.32014
G1 X88.586 Y35.485 F7800.000
G1 X70.212 Y35.485 E26.92655 F1080.000
G1 X70.212 Y33.619 E27.08968
G1 X88.586 Y33.619 E28.69609
G1 X88.586 Y35.425 E28.85398
G1 F1800.000 E27.85398
G92 E0
G1 X90.477 Y16.453 F7800.000
G1 E1.00000 F1800.000
G1 X68.321 Y16.453 E2.93701 F1080.000
G1 X68.321 Y10.805 E3.43074
G1 X90.477 Y10.805 E5.36775
G1 X90.477 Y16.393 E5.85623
G1 X91.113 Y17.088 F7800.000
G1 X67.685 Y17.088 E7.90438 F1080.000
G1 X67.685 Y10.170 E8.50924
G1 X91.113 Y10.170 E10.55739
G1 X91.113 Y17.028 E11.15701
G1 X91.749 Y17.724 F7800.000
G1 X67.050 Y17.724 E13.31629 F756.000
G1 X67.050 Y9.534 E14.03230
G1 X91.749 Y9.534 E16.19158
G1 X91.749 Y17.664 E16.90234
G1 X91.402 Y17.524 F7800.000
G1 X89.873 Y15.849 F7800.000
G1 X68.925 Y15.849 E18.73377 F1080.000
G1 X68.925 Y11.409 E19.12192
G1 X89.873 Y11.409 E20.95336
G1 X89.873 Y15.789 E21.33626
G1 X89.230 Y15.205 F7800.000
G1 X69.568 Y15.205 E23.05518 F1080.000
G1 X69.568 Y12.053 E23.33083
G1 X89.230 Y12.053 E25.04975
G1 X89.230 Y15.145 E25.32014
G1 X88.586 Y14.562 F7800.000
G1 X70.212 Y14.562 E26.92655 F1080.000
G1 X70.212 Y12.696 E27.08968
G1 X88.586 Y12.696 E28.69609
G1 X88.586 Y14.502 E28.85398
G1 F1800.000 E27.85398
G92 E0
G1 X90.477 Y58.299 F7800.000
G1 E1.00000 F1800.000
G1 X68.321 Y58.299 E2.93701 F1080.000
G1 X68.321 Y52.651 E3.43074
G1 X90.477 Y52.651 E5.36775
G1 X90.477 Y58.239 E5.85623
G1 X91.113 Y58.934 F7800.000
G1 X67.685 Y58.934 E7.90438 F1080.000
G1 X67.685 Y52.016 E8.50924
G1 X91.113 Y52.016 E10.55739
G1 X91.113 Y58.874 E11.15701
G1 X91.749 Y59.570 F7800.000
G1 X67.050 Y59.570 E13.31629 F756.000
G1 X67.050 Y51.380 E14.03230
G1 X91.749 Y51.380 E16.19158
G1 X91.749 Y59.510 E16.90234
G1 X91.402 Y59.370 F7800.000
G1 X89.873 Y57.695 F7800.000
G1 X68.925 Y57.695 E18.73377 F1080.000
G1 X68.925 Y53.255 E19.12192
G1 X89.873 Y53.255 E20.95336
G1 X89.873 Y57.635 E21.33626
G1 X89.230 Y57.051 F7800.000
G1 X69.568 Y57.051 E23.05518 F1080.000
G1 X69.568 Y53.899 E23.33083
G1 X89.230 Y53.899 E25.04975
G1 X89.230 Y56.991 E25.32014
G1 X88.586 Y56.408 F7800.000
G1 X70.212 Y56.408 E26.92655 F1080.000
G1 X70.212 Y54.542 E27.08968
G1 X88.586 Y54.542 E28.69609
G1 X88.586 Y56.348 E28.85398
G1 F1800.000 E27.85398
G92 E0
G1 X90.477 Y79.222 F7800.000
G1 E1.00000 F1800.000
G1 X68.321 Y79.222 E2.93701 F1080.000
G1 X68.321 Y73.574 E3.43074
G1 X90.477 Y73.574 E5.36775
G1 X90.477 Y79.162 E5.85623
G1 X91.113 Y79.857 F7800.000
G1 X67.685 Y79.857 E7.90438 F1080.000
G1 X67.685 Y72.939 E8.50924
G1 X91.113 Y72.939 E10.55739
G1 X91.113 Y79.797 E11.15701
G1 X91.749 Y80.493 F7800.000
G1 X67.050 Y80.493 E13.31629 F756.000
G1 X67.050 Y72.303 E14.03230
G1 X91.749 Y72.303 E16.19158
G1 X91.749 Y80.433 E16.90234
G1 X91.402 Y80.293 F7800.000
G1 X89.873 Y78.618 F7800.000
G1 X68.925 Y78.618 E18.73377 F1080.000
G1 X68.925 Y74.178 E19.12192
G1 X89.873 Y74.178 E20.95336
G1 X89.873 Y78.558 E21.33626
G1 X89.230 Y77.974 F7800.000
G1 X69.568 Y77.974 E23.05518 F1080.000
G1 X69.568 Y74.822 E23.33083
G1 X89.230 Y74.822 E25.04975
G1 X89.230 Y77.914 E25.32014
G1 X88.586 Y77.331 F7800.000
G1 X70.212 Y77.331 E26.92655 F1080.000
G1 X70.212 Y75.465 E27.08968
G1 X88.586 Y75.465 E28.69609
G1 X88.586 Y77.271 E28.85398
G1 F1800.000 E27.85398
G92 E0
G1 X57.026 Y61.274 F7800.000
G1 E1.00000 F1800.000
G1 X56.333 Y62.655 E1.08499 F1080.000
G1 X55.438 Y62.655 E1.13422
G1 X56.519 Y60.500 E1.26684
G1 X55.624 Y60.500 E1.31607
G1 X55.224 Y61.296 E1.36508
G1 X54.652 Y62.438 F7800.000
G1 X54.544 Y62.655 E1.37845 F1080.000
G1 X53.647 Y62.659 E1.42780
G1 X54.652 Y60.652 E1.55130
G1 X53.834 Y60.500 E1.59711
G1 X52.780 Y62.603 E1.72654
G1 X52.106 Y62.162 E1.77085
G1 X52.939 Y60.500 E1.87312
G1 X52.044 Y60.500 E1.92235
G1 X51.634 Y61.318 E1.97269
G1 F1800.000 E0.97269
G92 E0
G1 X43.991 Y60.500 F7800.000
G1 E1.00000 F1800.000
G1 X42.895 Y62.686 E1.13451 F1080.000
G1 X42.000 Y62.686 E1.18374
G1 X43.096 Y60.500 E1.31825
G1 X42.201 Y60.500 E1.36748
G1 X41.116 Y62.665 E1.50069
G1 X40.226 Y62.655 E1.54966
G1 X41.306 Y60.500 E1.68227
G1 X40.411 Y60.500 E1.73150
G1 X39.331 Y62.655 E1.86412
G1 X38.974 Y61.581 E1.92639
G1 X39.516 Y60.500 E1.99290
G1 F1800.000 E0.99290
G92 E0
G1 X44.865 Y49.829 F7800.000
G1 E1.00000 F1800.000
G1 X44.553 Y50.450 E1.03821 F1080.000
G1 X43.658 Y50.450 E1.08744
G1 X44.763 Y48.246 E1.22305
G1 X43.872 Y48.238 E1.27205
G1 X42.764 Y50.450 E1.40817
G1 X41.869 Y50.450 E1.45741
G1 X42.922 Y48.348 E1.58677
G1 F1800.000 E0.58677
G92 E0
G1 X45.437 Y48.688 F7800.000
G1 E1.00000 F1800.000
G1 X45.649 Y48.263 E1.02615 F1080.000
G1 X46.536 Y48.279 E1.07494
G1 X45.448 Y50.450 E1.20851
G1 X46.343 Y50.450 E1.25775
G1 X47.235 Y48.671 E1.36721
G1 X48.766 Y49.188 F7800.000
G1 X49.226 Y48.268 E1.42379 F1080.000
G1 X50.121 Y48.268 E1.47302
G1 X49.028 Y50.450 E1.60730
G1 X49.922 Y50.450 E1.65653
G1 X51.016 Y48.268 E1.79081
G1 X51.911 Y48.268 E1.84004
G1 X50.817 Y50.450 E1.97432
G1 X51.712 Y50.450 E2.02355
G1 X52.821 Y48.238 E2.15968
G1 X53.530 Y48.609 E2.20370
G1 X52.607 Y50.450 E2.31698
G1 X53.502 Y50.450 E2.36621
G1 X54.073 Y49.311 E2.43632
G1 F1800.000 E1.43632
G92 E0
G1 X54.073 Y70.234 F7800.000
G1 E1.00000 F1800.000
G1 X53.502 Y71.373 E1.07011 F1080.000
G1 X52.607 Y71.373 E1.11934
G1 X53.530 Y69.532 E1.23262
G1 X52.821 Y69.161 E1.27664
G1 X51.712 Y71.373 E1.41276
G1 X50.817 Y71.373 E1.46200
G1 X51.911 Y69.191 E1.59627
G1 X51.016 Y69.191 E1.64551
G1 X49.922 Y71.373 E1.77978
G1 X49.028 Y71.373 E1.82902
G1 X50.121 Y69.191 E1.96329
G1 X49.226 Y69.191 E2.01253
G1 X48.766 Y70.111 E2.06911
G1 X47.235 Y69.594 F7800.000
G1 X46.343 Y71.373 E2.17857 F1080.000
G1 X45.448 Y71.373 E2.22780
G1 X46.536 Y69.202 E2.36138
G1 X45.649 Y69.186 E2.41017
G1 X45.437 Y69.611 E2.43632
G1 X44.865 Y70.752 F7800.000
G1 X44.553 Y71.373 E2.47453 F1080.000
