; generated by Slic3r 1.1.7 on 2014-10-19 at 19:40:32

; perimeters extrusion width = 0.40mm
; infill extrusion width = 0.42mm
; solid infill extrusion width = 0.42mm
; top infill extrusion width = 0.42mm

G21 ; set units to millimeters
M107
M104 S195 ; set temperature
G28 ; home all axes
G1 Z5 F5000 ; lift nozzle
M109 S195 ; wait for temperature to be reached
G90 ; use absolute coordinates
G92 E0
M82 ; use absolute distances for extrusion
G1 F1800.000 E-1.00000
G92 E0
G1 Z0.350 F7800.000
G1 X0.559 Y3.451 F7800.000
G1 E1.00000 F1800.000
G1 X2.712 Y2.656 E1.20067 F1080.000
G1 X3.901 Y2.548 E1.30504
G1 X92.099 Y2.548 E9.01557
G1 X94.359 Y2.945 E9.21624
G1 X96.349 Y4.089 E9.41690
G1 X97.831 Y5.842 E9.61757
G1 X98.627 Y7.995 E9.81823
G1 X98.734 Y9.184 E9.92261
G1 X98.734 Y80.843 E16.18732
G1 X98.337 Y83.104 E16.38799
G1 X97.194 Y85.094 E16.58865
G1 X95.441 Y86.576 E16.78932
G1 X93.288 Y87.371 E16.98999
G1 X92.099 Y87.479 E17.09436
G1 X3.901 Y87.479 E24.80489
G1 X1.641 Y87.082 E25.00556
G1 X-0.349 Y85.938 E25.20622
G1 X-1.831 Y84.185 E25.40689
G1 X-2.627 Y82.032 E25.60755
G1 X-2.734 Y80.843 E25.71193
G1 X-2.734 Y9.184 E31.97664
G1 X-2.337 Y6.923 E32.17731
G1 X-1.194 Y4.933 E32.37798
G1 X0.514 Y3.490 E32.57340
G1 F1800.000 E31.57340
G92 E0
G1 X59.078 Y58.299 F7800.000
G1 E1.00000 F1800.000
G1 X36.922 Y58.299 E2.93701 F1080.000
G1 X36.922 Y52.651 E3.43074
G1 X59.078 Y52.651 E5.36775
G1 X59.078 Y58.239 E5.85623
G1 X59.714 Y58.934 F7800.000
G1 X36.286 Y58.934 E7.90438 F1080.000
G1 X36.286 Y52.016 E8.50924
G1 X59.714 Y52.016 E10.55739
G1 X59.714 Y58.874 E11.15701
G1 X60.349 Y59.570 F7800.000
G1 X35.650 Y59.570 E13.31629 F756.000
G1 X35.650 Y51.380 E14.03230
G1 X60.349 Y51.380 E16.19158
G1 X60.349 Y59.510 E16.90234
G1 X60.003 Y59.370 F7800.000
G1 X58.474 Y57.695 F7800.000
G1 X37.526 Y57.695 E18.73377 F1080.000
G1 X37.526 Y53.255 E19.12192
G1 X58.474 Y53.255 E20.95336
G1 X58.474 Y57.635 E21.33626
G1 X57.831 Y57.051 F7800.000
G1 X38.169 Y57.051 E23.05518 F1080.000
G1 X38.169 Y53.899 E23.33083
G1 X57.831 Y53.899 E25.04975
G1 X57.831 Y56.991 E25.32014
G1 X57.187 Y56.408 F7800.000
G1 X38.813 Y56.408 E26.92655 F1080.000
G1 X38.813 Y54.542 E27.08968
G1 X57.187 Y54.542 E28.69609
G1 X57.187 Y56.348 E28.85398
G1 F1800.000 E27.85398
G92 E0
G1 X59.078 Y79.222 F7800.000
G1 E1.00000 F1800.000
G1 X36.922 Y79.222 E2.93701 F1080.000
G1 X36.922 Y73.574 E3.43074
G1 X59.078 Y73.574 E5.36775
G1 X59.078 Y79.162 E5.85623
G1 X59.714 Y79.857 F7800.000
G1 X36.286 Y79.857 E7.90438 F1080.000
G1 X36.286 Y72.939 E8.50924
G1 X59.714 Y72.939 E10.55739
G1 X59.714 Y79.797 E11.15701
G1 X60.349 Y80.493 F7800.000
G1 X35.650 Y80.493 E13.31629 F756.000
G1 X35.650 Y72.303 E14.03230
G1 X60.349 Y72.303 E16.19158
G1 X60.349 Y80.433 E16.90234
G1 X60.003 Y80.293 F7800.000
G1 X58.474 Y78.618 F7800.000
G1 X37.526 Y78.618 E18.73377 F1080.000
G1 X37.526 Y74.178 E19.12192
G1 X58.474 Y74.178 E20.95336
G1 X58.474 Y78.558 E21.33626
G1 X57.831 Y77.974 F7800.000
G1 X38.169 Y77.974 E23.05518 F1080.000
G1 X38.169 Y74.822 E23.33083
G1 X57.831 Y74.822 E25.04975
G1 X57.831 Y77.914 E25.32014
G1 X57.187 Y77.331 F7800.000
G1 X38.813 Y77.331 E26.92655 F1080.000
G1 X38.813 Y75.465 E27.08968
G1 X57.187 Y75.465 E28.69609
G1 X57.187 Y77.271 E28.85398
G1 F1800.000 E27.85398
G92 E0
G1 X90.477 Y79.222 F7800.000
G1 E1.00000 F1800.000
G1 X68.321 Y79.222 E2.93701 F1080.000
G1 X68.321 Y73.574 E3.43074
G1 X90.477 Y73.574 E5.36775
G1 X90.477 Y79.162 E5.85623
G1 X91.113 Y79.857 F7800.000
G1 X67.685 Y79.857 E7.90438 F1080.000
G1 X67.685 Y72.939 E8.50924
G1 X91.113 Y72.939 E10.55739
G1 X91.113 Y79.797 E11.15701
G1 X91.749 Y80.493 F7800.000
G1 X67.050 Y80.493 E13.31629 F756.000
G1 X67.050 Y72.303 E14.03230
G1 X91.749 Y72.303 E16.19158
G1 X91.749 Y80.433 E16.90234
G1 X91.402 Y80.293 F7800.000
G1 X89.873 Y78.618 F7800.000
G1 X68.925 Y78.618 E18.73377 F1080.000
G1 X68.925 Y74.178 E19.12192
G1 X89.873 Y74.178 E20.95336
G1 X89.873 Y78.558 E21.33626
G1 X89.230 Y77.974 F7800.000
G1 X69.568 Y77.974 E23.05518 F1080.000
G1 X69.568 Y74.822 E23.33083
G1 X89.230 Y74.822 E25.04975
G1 X89.230 Y77.914 E25.32014
G1 X88.586 Y77.331 F7800.000
G1 X70.212 Y77.331 E26.92655 F1080.000
G1 X70.212 Y75.465 E27.08968
G1 X88.586 Y75.465 E28.69609
G1 X88.586 Y77.271 E28.85398
G1 F1800.000 E27.85398
G92 E0
G1 X90.477 Y58.299 F7800.000
G1 E1.00000 F1800.000
G1 X68.321 Y58.299 E2.93701 F1080.000
G1 X68.321 Y52.651 E3.43074
G1 X90.477 Y52.651 E5.36775
G1 X90.477 Y58.239 E5.85623
G1 X91.113 Y58.934 F7800.000
G1 X67.685 Y58.934 E7.90438 F1080.000
G1 X67.685 Y52.016 E8.50924
G1 X91.113 Y52.016 E10.55739
G1 X91.113 Y58.874 E11.15701
G1 X91.749 Y59.570 F7800.000
G1 X67.050 Y59.570 E13.31629 F756.000
G1 X67.050 Y51.380 E14.03230
G1 X91.749 Y51.380 E16.19158
G1 X91.749 Y59.510 E16.90234
G1 X91.402 Y59.370 F7800.000
G1 X89.873 Y57.695 F7800.000
G1 X68.925 Y57.695 E18.73377 F1080.000
G1 X68.925 Y53.255 E19.12192
G1 X89.873 Y53.255 E20.95336
G1 X89.873 Y57.635 E21.33626
G1 X89.230 Y57.051 F7800.000
G1 X69.568 Y57.051 E23.05518 F1080.000
G1 X69.568 Y53.899 E23.33083
G1 X89.230 Y53.899 E25.04975
G1 X89.230 Y56.991 E25.32014
G1 X88.586 Y56.408 F7800.000
G1 X70.212 Y56.408 E26.92655 F1080.000
G1 X70.212 Y54.542 E27.08968
G1 X88.586 Y54.542 E28.69609
G1 X88.586 Y56.348 E28.85398
G1 F1800.000 E27.85398
G92 E0
G1 X90.477 Y37.376 F7800.000
G1 E1.00000 F1800.000
G1 X68.321 Y37.376 E2.93701 F1080.000
G1 X68.321 Y31.728 E3.43074
G1 X90.477 Y31.728 E5.36775
G1 X90.477 Y37.316 E5.85623
G1 X91.113 Y38.011 F7800.000
G1 X67.685 Y38.011 E7.90438 F1080.000
G1 X67.685 Y31.093 E8.50924
G1 X91.113 Y31.093 E10.55739
G1 X91.113 Y37.951 E11.15701
G1 X91.749 Y38.647 F7800.000
G1 X67.050 Y38.647 E13.31629 F756.000
G1 X67.050 Y30.457 E14.03230
G1 X91.749 Y30.457 E16.19158
G1 X91.749 Y38.587 E16.90234
G1 X91.402 Y38.447 F7800.000
G1 X89.873 Y36.772 F7800.000
G1 X68.925 Y36.772 E18.73377 F1080.000
G1 X68.925 Y32.332 E19.12192
G1 X89.873 Y32.332 E20.95336
G1 X89.873 Y36.712 E21.33626
G1 X89.230 Y36.128 F7800.000
G1 X69.568 Y36.128 E23.05518 F1080.000
G1 X69.568 Y32.976 E23.33083
G1 X89.230 Y32.976 E25.04975
G1 X89.230 Y36.068 E25.32014
G1 X88.586 Y35.485 F7800.000
G1 X70.212 Y35.485 E26.92655 F1080.000
G1 X70.212 Y33.619 E27.08968
G1 X88.586 Y33.619 E28.69609
G1 X88.586 Y35.425 E28.85398
G1 F1800.000 E27.85398
G92 E0
G1 X90.477 Y16.453 F7800.000
G1 E1.00000 F1800.000
G1 X68.321 Y16.453 E2.93701 F1080.000
G1 X68.321 Y10.805 E3.43074
G1 X90.477 Y10.805 E5.36775
G1 X90.477 Y16.393 E5.85623
G1 X91.113 Y17.088 F7800.000
G1 X67.685 Y17.088 E7.90438 F1080.000
G1 X67.685 Y10.170 E8.50924
G1 X91.113 Y10.170 E10.55739
G1 X91.113 Y17.028 E11.15701
G1 X91.749 Y17.724 F7800.000
G1 X67.050 Y17.724 E13.31629 F756.000
G1 X67.050 Y9.534 E14.03230
G1 X91.749 Y9.534 E16.19158
G1 X91.749 Y17.664 E16.90234
G1 X91.402 Y17.524 F7800.000
G1 X89.873 Y15.849 F7800.000
G1 X68.925 Y15.849 E18.73377 F1080.000
G1 X68.925 Y11.409 E19.12192
G1 X89.873 Y11.409 E20.95336
G1 X89.873 Y15.789 E21.33626
G1 X89.230 Y15.205 F7800.000
G1 X69.568 Y15.205 E23.05518 F1080.000
G1 X69.568 Y12.053 E23.33083
G1 X89.230 Y12.053 E25.04975
G1 X89.230 Y15.145 E25.32014
G1 X88.586 Y14.562 F7800.000
G1 X70.212 Y14.562 E26.92655 F1080.000
G1 X70.212 Y12.696 E27.08968
G1 X88.586 Y12.696 E28.69609
G1 X88.586 Y14.502 E28.85398
G1 F1800.000 E27.85398
G92 E0
G1 X59.078 Y16.453 F7800.000
G1 E1.00000 F1800.000
G1 X36.922 Y16.453 E2.93701 F1080.000
G1 X36.922 Y10.805 E3.43074
G1 X59.078 Y10.805 E5.36775
G1 X59.078 Y16.393 E5.85623
G1 X59.714 Y17.088 F7800.000
G1 X36.286 Y17.088 E7.90438 F1080.000
G1 X36.286 Y10.170 E8.50924
G1 X59.714 Y10.170 E10.55739
G1 X59.714 Y17.028 E11.15701
G1 X60.349 Y17.724 F7800.000
G1 X35.650 Y17.724 E13.31629 F756.000
G1 X35.650 Y9.534 E14.03230
G1 X60.349 Y9.534 E16.19158
G1 X60.349 Y17.664 E16.90234
G1 X60.003 Y17.524 F7800.000
G1 X58.474 Y15.849 F7800.000
G1 X37.526 Y15.849 E18.73377 F1080.000
G1 X37.526 Y11.409 E19.12192
G1 X58.474 Y11.409 E20.95336
G1 X58.474 Y15.789 E21.33626
G1 X57.831 Y15.205 F7800.000
G1 X38.169 Y15.205 E23.05518 F1080.000
G1 X38.169 Y12.053 E23.33083
G1 X57.831 Y12.053 E25.04975
G1 X57.831 Y15.145 E25.32014
G1 X57.187 Y14.562 F7800.000
G1 X38.813 Y14.562 E26.92655 F1080.000
G1 X38.813 Y12.696 E27.08968
G1 X57.187 Y12.696 E28.69609
G1 X57.187 Y14.502 E28.85398
G1 F1800.000 E27.85398
G92 E0
G1 X59.078 Y37.376 F7800.000
G1 E1.00000 F1800.000
G1 X36.922 Y37.376 E2.93701 F1080.000
G1 X36.922 Y31.728 E3.43074
G1 X59.078 Y31.728 E5.36775
G1 X59.078 Y37.316 E5.85623
G1 X59.714 Y38.011 F7800.000
G1 X36.286 Y38.011 E7.90438 F1080.000
G1 X36.286 Y31.093 E8.50924
G1 X59.714 Y31.093 E10.55739
G1 X59.714 Y37.951 E11.15701
G1 X60.349 Y38.647 F7800.000
G1 X35.650 Y38.647 E13.31629 F756.000
G1 X35.650 Y30.457 E14.03230
G1 X60.349 Y30.457 E16.19158
G1 X60.349 Y38.587 E16.90234
G1 X60.003 Y38.447 F7800.000
G1 X58.474 Y36.772 F7800.000
G1 X37.526 Y36.772 E18.73377 F1080.000
G1 X37.526 Y32.332 E19.12192
G1 X58.474 Y32.332 E20.95336
G1 X58.474 Y36.712 E21.33626
G1 X57.831 Y36.128 F7800.000
G1 X38.169 Y36.128 E23.05518 F1080.000
G1 X38.169 Y32.976 E23.33083
G1 X57.831 Y32.976 E25.04975
G1 X57.831 Y36.068 E25.32014
G1 X57.187 Y35.485 F7800.000
G1 X38.813 Y35.485 E26.92655 F1080.000
G1 X38.813 Y33.619 E27.08968
G1 X57.187 Y33.619 E28.69609
G1 X57.187 Y35.425 E28.85398
G1 F1800.000 E27.85398
G92 E0
G1 X27.679 Y37.376 F7800.000
G1 E1.00000 F1800.000
G1 X5.523 Y37.376 E2.93701 F1080.000
G1 X5.523 Y31.728 E3.43074
G1 X27.679 Y31.728 E5.36775
G1 X27.679 Y37.316 E5.85623
G1 X28.315 Y38.011 F7800.000
G1 X4.887 Y38.011 E7.90438 F1080.000
G1 X4.887 Y31.093 E8.50924
G1 X28.315 Y31.093 E10.55739
G1 X28.315 Y37.951 E11.15701
G1 X28.950 Y38.647 F7800.000
G1 X4.251 Y38.647 E13.31629 F756.000
G1 X4.251 Y30.457 E14.03230
G1 X28.950 Y30.457 E16.19158
G1 X28.950 Y38.587 E16.90234
G1 X28.604 Y38.447 F7800.000
G1 X27.075 Y36.772 F7800.000
G1 X6.127 Y36.772 E18.73377 F1080.000
G1 X6.127 Y32.332 E19.12192
G1 X27.075 Y32.332 E20.95336
G1 X27.075 Y36.712 E21.33626
G1 X26.432 Y36.128 F7800.000
G1 X6.770 Y36.128 E23.05518 F1080.000
G1 X6.770 Y32.976 E23.33083
G1 X26.432 Y32.976 E25.04975
G1 X26.432 Y36.068 E25.32014
G1 X25.788 Y35.485 F7800.000
G1 X7.414 Y35.485 E26.92655 F1080.000
G1 X7.414 Y33.619 E27.08968
G1 X25.788 Y33.619 E28.69609
G1 X25.788 Y35.425 E28.85398
G1 F1800.000 E27.85398
G92 E0
G1 X27.679 Y16.453 F7800.000
G1 E1.00000 F1800.000
G1 X5.523 Y16.453 E2.93701 F1080.000
G1 X5.523 Y10.805 E3.43074
G1 X27.679 Y10.805 E5.36775
G1 X27.679 Y16.393 E5.85623
G1 X28.315 Y17.088 F7800.000
G1 X4.887 Y17.088 E7.90438 F1080.000
G1 X4.887 Y10.170 E8.50924
G1 X28.315 Y10.170 E10.55739
G1 X28.315 Y17.028 E11.15701
G1 X28.950 Y17.724 F7800.000
G1 X4.251 Y17.724 E13.31629 F756.000
G1 X4.251 Y9.534 E14.03230
G1 X28.950 Y9.534 E16.19158
G1 X28.950 Y17.664 E16.90234
G1 X28.604 Y17.524 F7800.000
G1 X27.075 Y15.849 F7800.000
G1 X6.127 Y15.849 E18.73377 F1080.000
G1 X6.127 Y11.409 E19.12192
G1 X27.075 Y11.409 E20.95336
G1 X27.075 Y15.789 E21.33626
G1 X26.432 Y15.205 F7800.000
G1 X6.770 Y15.205 E23.05518 F1080.000
G1 X6.770 Y12.053 E23.33083
G1 X26.432 Y12.053 E25.04975
G1 X26.432 Y15.145 E25.32014
G1 X25.788 Y14.562 F7800.000
G1 X7.414 Y14.562 E26.92655 F1080.000
G1 X7.414 Y12.696 E27.08968
G1 X25.788 Y12.696 E28.69609
G1 X25.788 Y14.502 E28.85398
G1 F1800.000 E27.85398
G92 E0
G1 X27.679 Y58.299 F7800.000
G1 E1.00000 F1800.000
G1 X5.523 Y58.299 E2.93701 F1080.000
G1 X5.523 Y52.651 E3.43074
G1 X27.679 Y52.651 E5.36775
G1 X27.679 Y58.239 E5.85623
G1 X28.315 Y58.934 F7800.000
G1 X4.887 Y58.934 E7.90438 F1080.000
G1 X4.887 Y52.016 E8.50924
G1 X28.315 Y52.016 E10.55739
G1 X28.315 Y58.874 E11.15701
G1 X28.950 Y59.570 F7800.000
G1 X4.251 Y59.570 E13.31629 F756.000
G1 X4.251 Y51.380 E14.03230
G1 X28.950 Y51.380 E16.19158
G1 X28.950 Y59.510 E16.90234
G1 X28.604 Y59.370 F7800.000
G1 X27.075 Y57.695 F7800.000
G1 X6.127 Y57.695 E18.73377 F1080.000
G1 X6.127 Y53.255 E19.12192
G1 X27.075 Y53.255 E20.95336
G1 X27.075 Y57.635 E21.33626
G1 X26.432 Y57.051 F7800.000
G1 X6.770 Y57.051 E23.05518 F1080.000
G1 X6.770 Y53.899 E23.33083
G1 X26.432 Y53.899 E25.04975
G1 X26.432 Y56.991 E25.32014
G1 X25.788 Y56.408 F7800.000
G1 X7.414 Y56.408 E26.92655 F1080.000
G1 X7.414 Y54.542 E27.08968
G1 X25.788 Y54.542 E28.69609
G1 X25.788 Y56.348 E28.85398
G1 F1800.000 E27.85398
G92 E0
G1 X27.679 Y79.222 F7800.000
G1 E1.00000 F1800.000
G1 X5.523 Y79.222 E2.93701 F1080.000
G1 X5.523 Y73.574 E3.43074
G1 X27.679 Y73.574 E5.36775
G1 X27.679 Y79.162 E5.85623
G1 X28.315 Y79.857 F7800.000
G1 X4.887 Y79.857 E7.90438 F1080.000
G1 X4.887 Y72.939 E8.50924
G1 X28.315 Y72.939 E10.55739
G1 X28.315 Y79.797 E11.15701
G1 X28.950 Y80.493 F7800.000
G1 X4.251 Y80.493 E13.31629 F756.000
G1 X4.251 Y72.303 E14.03230
G1 X28.950 Y72.303 E16.19158
G1 X28.950 Y80.433 E16.90234
G1 X28.604 Y80.293 F7800.000
G1 X27.075 Y78.618 F7800.000
G1 X6.127 Y78.618 E18.73377 F1080.000
G1 X6.127 Y74.178 E19.12192
G1 X27.075 Y74.178 E20.95336
G1 X27.075 Y78.558 E21.33626
G1 X26.432 Y77.974 F7800.000
G1 X6.770 Y77.974 E23.05518 F1080.000
G1 X6.770 Y74.822 E23.33083
G1 X26.432 Y74.822 E25.04975
G1 X26.432 Y77.914 E25.32014
G1 X25.788 Y77.331 F7800.000
G1 X7.414 Y77.331 E26.92655 F1080.000
G1 X7.414 Y75.465 E27.08968
G1 X25.788 Y75.465 E28.69609
G1 X25.788 Y77.271 E28.85398
G1 F1800.000 E27.85398
G92 E0
G1 Z0.650 F7800.000
G1 X59.699 Y58.920 F7800.000
G1 E1.00000 F1800.000
G1 X36.300 Y58.920 E2.10343 F3600.000
G1 X36.300 Y52.030 E2.42834
G1 X59.699 Y52.030 E3.53177
G1 X59.699 Y58.860 E3.85385
G1 X60.099 Y59.320 F7800.000
G1 X35.900 Y59.320 E4.99500 F3600.000
G1 X35.900 Y51.630 E5.35764
G1 X60.099 Y51.630 E6.49879
G1 X60.099 Y59.260 E6.85860
G1 X60.499 Y59.720 F7800.000
G1 X35.500 Y59.720 E8.03748 F2520.000
G1 X35.500 Y51.230 E8.43784
G1 X60.499 Y51.230 E9.61672
G1 X60.499 Y59.660 E10.01425
G1 X60.153 Y59.520 F7800.000
G1 X59.425 Y58.606 F7800.000
G1 X59.385 Y58.646 E10.01705 F3600.000
G1 X58.791 Y58.646 E10.04639
G1 X59.425 Y58.012 E10.09067
G1 X59.425 Y57.418 E10.12001
G1 X58.197 Y58.646 E10.20579
G1 X57.603 Y58.646 E10.23513
G1 X59.425 Y56.823 E10.36240
G1 X59.425 Y56.229 E10.39174
G1 X57.009 Y58.646 E10.56050
G1 X56.415 Y58.646 E10.58984
G1 X59.425 Y55.635 E10.80010
G1 X59.425 Y55.041 E10.82944
G1 X55.821 Y58.646 E11.08118
G1 X55.226 Y58.646 E11.11052
G1 X59.425 Y54.447 E11.40376
G1 X59.425 Y53.853 E11.43310
G1 X54.632 Y58.646 E11.76783
G1 X54.038 Y58.646 E11.79717
G1 X59.425 Y53.259 E12.17340
G1 X59.425 Y52.665 E12.20274
G1 X53.444 Y58.646 E12.62045
G1 X52.850 Y58.646 E12.64979
G1 X59.191 Y52.304 E13.09267
G1 X58.597 Y52.304 E13.12201
G1 X52.256 Y58.646 E13.56489
G1 X51.662 Y58.646 E13.59423
G1 X58.003 Y52.304 E14.03711
G1 X57.409 Y52.304 E14.06645
G1 X51.068 Y58.646 E14.50933
G1 X50.473 Y58.646 E14.53866
G1 X56.815 Y52.304 E14.98154
G1 X56.221 Y52.304 E15.01088
G1 X49.879 Y58.646 E15.45376
G1 X49.285 Y58.646 E15.48310
G1 X55.627 Y52.304 E15.92598
G1 X55.033 Y52.304 E15.95532
G1 X48.691 Y58.646 E16.39820
G1 X48.097 Y58.646 E16.42754
G1 X54.438 Y52.304 E16.87042
G1 X53.844 Y52.304 E16.89976
G1 X47.503 Y58.646 E17.34264
G1 X46.909 Y58.646 E17.37197
G1 X53.250 Y52.304 E17.81485
G1 X52.656 Y52.304 E17.84419
G1 X46.315 Y58.646 E18.28707
G1 X45.720 Y58.646 E18.31641
G1 X52.062 Y52.304 E18.75929
G1 X51.468 Y52.304 E18.78863
G1 X45.126 Y58.646 E19.23151
G1 X44.532 Y58.646 E19.26085
G1 X50.874 Y52.304 E19.70373
G1 X50.280 Y52.304 E19.73307
G1 X43.938 Y58.646 E20.17595
G1 X43.344 Y58.646 E20.20528
G1 X49.685 Y52.304 E20.64816
G1 X49.091 Y52.304 E20.67750
G1 X42.750 Y58.646 E21.12038
G1 X42.156 Y58.646 E21.14972
G1 X48.497 Y52.304 E21.59260
G1 X47.903 Y52.304 E21.62194
G1 X41.562 Y58.646 E22.06482
G1 X40.967 Y58.646 E22.09416
G1 X47.309 Y52.304 E22.53704
G1 X46.715 Y52.304 E22.56638
G1 X40.373 Y58.646 E23.00926
G1 X39.779 Y58.646 E23.03859
G1 X46.121 Y52.304 E23.48147
G1 X45.527 Y52.304 E23.51081
G1 X39.185 Y58.646 E23.95369
G1 X38.591 Y58.646 E23.98303
G1 X44.932 Y52.304 E24.42591
G1 X44.338 Y52.304 E24.45525
G1 X37.997 Y58.646 E24.89813
G1 X37.403 Y58.646 E24.92747
G1 X43.744 Y52.304 E25.37035
