; generated by Slic3r 1.1.7 on 2014-10-19 at 15:49:35

; perimeters extrusion width = 0.40mm
; infill extrusion width = 0.42mm
; solid infill extrusion width = 0.42mm
; top infill extrusion width = 0.42mm
; support material extrusion width = 0.40mm

G21 ; set units to millimeters
M107
M104 S195 ; set temperature
G28 ; home all axes
G1 Z5 F5000 ; lift nozzle
M109 S195 ; wait for temperature to be reached
G90 ; use absolute coordinates
G92 E0
M82 ; use absolute distances for extrusion
G1 F1800.000 E-1.00000
G92 E0
G1 Z0.350 F7800.000
G1 X6.362 Y3.385 F7800.000
G1 E1.00000 F1800.000
G1 X7.506 Y1.395 E1.20067 F1080.000
G1 X9.259 Y-0.087 E1.40133
G1 X10.398 Y-0.614 E1.51107
G1 X18.020 Y-3.296 E2.21746
G1 X19.461 Y-3.628 E2.34673
G1 X21.173 Y-3.782 E2.49697
G1 X75.520 Y-3.782 E7.24826
G1 X77.737 Y-3.401 E7.44487
G1 X85.615 Y-0.609 E8.17562
G1 X87.614 Y0.520 E8.37629
G1 X89.108 Y2.263 E8.57695
G1 X89.919 Y4.410 E8.77762
G1 X90.035 Y5.645 E8.88610
G1 X90.035 Y84.382 E15.76951
G1 X89.638 Y86.642 E15.97017
G1 X88.494 Y88.632 E16.17084
G1 X86.922 Y90.005 E16.35332
G1 X82.555 Y92.740 E16.80374
G1 X80.429 Y93.604 E17.00440
G1 X79.048 Y93.752 E17.12581
G1 X65.595 Y93.783 E18.30196
G1 X19.224 Y93.782 E22.35583
G1 X16.555 Y93.752 E22.58919
G1 X14.299 Y93.329 E22.78986
G1 X12.906 Y92.607 E22.92704
G1 X8.875 Y89.872 E23.35287
G1 X7.227 Y88.274 E23.55353
G1 X6.222 Y86.211 E23.75420
G1 X5.965 Y84.382 E23.91569
G1 X5.965 Y5.645 E30.79910
G1 X6.352 Y3.444 E30.99452
G1 F1800.000 E29.99452
G92 E0
G1 X81.778 Y47.837 F7800.000
G1 E1.00000 F1800.000
G1 X59.621 Y47.837 E2.93701 F1080.000
G1 X59.621 Y42.190 E3.43074
G1 X81.778 Y42.190 E5.36775
G1 X81.778 Y47.777 E5.85623
G1 X82.413 Y48.473 F7800.000
G1 X58.986 Y48.473 E7.90438 F1080.000
G1 X58.986 Y41.554 E8.50924
G1 X82.413 Y41.554 E10.55739
G1 X82.413 Y48.413 E11.15701
G1 X83.049 Y49.108 F7800.000
G1 X58.350 Y49.108 E13.31629 F756.000
G1 X58.350 Y40.918 E14.03230
G1 X83.049 Y40.918 E16.19158
G1 X83.049 Y49.048 E16.90234
G1 X82.703 Y48.908 F7800.000
G1 X81.174 Y47.233 F7800.000
G1 X60.225 Y47.233 E18.73377 F1080.000
G1 X60.225 Y42.794 E19.12192
G1 X81.174 Y42.794 E20.95336
G1 X81.174 Y47.173 E21.33626
G1 X80.530 Y46.590 F7800.000
G1 X60.869 Y46.590 E23.05518 F1080.000
G1 X60.869 Y43.437 E23.33083
G1 X80.530 Y43.437 E25.04975
G1 X80.530 Y46.530 E25.32014
G1 X79.887 Y45.946 F7800.000
G1 X61.512 Y45.946 E26.92655 F1080.000
G1 X61.512 Y44.081 E27.08968
G1 X79.887 Y44.081 E28.69609
G1 X79.887 Y45.886 E28.85398
G1 F1800.000 E27.85398
G92 E0
G1 X79.725 Y50.812 F7800.000
G1 E1.00000 F1800.000
G1 X79.033 Y52.193 E1.08499 F1080.000
G1 X78.138 Y52.193 E1.13422
G1 X79.218 Y50.038 E1.26684
G1 X78.323 Y50.038 E1.31607
G1 X77.924 Y50.835 E1.36508
G1 X77.352 Y51.976 F7800.000
G1 X77.243 Y52.193 E1.37845 F1080.000
G1 X76.346 Y52.198 E1.42780
G1 X77.352 Y50.191 E1.55130
G1 X76.533 Y50.038 E1.59711
G1 X75.479 Y52.142 E1.72654
G1 X74.806 Y51.700 E1.77085
G1 X75.639 Y50.038 E1.87312
G1 X74.744 Y50.038 E1.92235
G1 X74.334 Y50.856 E1.97269
G1 F1800.000 E0.97269
G92 E0
G1 X66.690 Y50.038 F7800.000
G1 E1.00000 F1800.000
G1 X65.595 Y52.224 E1.13451 F1080.000
G1 X64.700 Y52.224 E1.18374
G1 X65.795 Y50.038 E1.31825
G1 X64.900 Y50.038 E1.36748
G1 X63.815 Y52.203 E1.50069
G1 X62.925 Y52.193 E1.54966
G1 X64.005 Y50.038 E1.68227
G1 X63.111 Y50.038 E1.73150
G1 X62.031 Y52.193 E1.86412
G1 X61.674 Y51.119 E1.92639
G1 X62.216 Y50.038 E1.99290
G1 F1800.000 E0.99290
G92 E0
G1 X67.564 Y39.368 F7800.000
G1 E1.00000 F1800.000
G1 X67.253 Y39.988 E1.03821 F1080.000
G1 X66.358 Y39.988 E1.08744
G1 X67.462 Y37.785 E1.22305
G1 X66.572 Y37.777 E1.27205
G1 X65.463 Y39.988 E1.40817
G1 X64.568 Y39.988 E1.45741
G1 X65.622 Y37.886 E1.58677
G1 F1800.000 E0.58677
G92 E0
G1 X68.136 Y38.226 F7800.000
G1 E1.00000 F1800.000
G1 X68.349 Y37.801 E1.02615 F1080.000
G1 X69.236 Y37.818 E1.07494
G1 X68.148 Y39.988 E1.20851
G1 X69.043 Y39.988 E1.25775
G1 X69.934 Y38.210 E1.36721
G1 X71.465 Y38.726 F7800.000
G1 X71.926 Y37.807 E1.42379 F1080.000
G1 X72.821 Y37.807 E1.47302
G1 X71.727 Y39.988 E1.60730
G1 X72.622 Y39.988 E1.65653
G1 X73.716 Y37.807 E1.79081
G1 X74.610 Y37.807 E1.84004
G1 X73.517 Y39.988 E1.97432
G1 X74.412 Y39.988 E2.02355
G1 X75.520 Y37.777 E2.15968
G1 X76.229 Y38.148 E2.20370
G1 X75.307 Y39.988 E2.31698
G1 X76.201 Y39.988 E2.36621
G1 X76.772 Y38.849 E2.43632
M106 S255
G1 F1800.000 E1.43632
G92 E0
G1 Z0.550 F7800.000
G1 X76.981 Y39.927 F7800.000
G1 E1.00000 F1800.000
G1 X76.956 Y39.977 E1.00197 F600.000
G1 X76.454 Y39.977 E1.01967
G1 X76.852 Y39.183 E1.05097
G1 X76.644 Y38.596 E1.07293
G1 X75.952 Y39.977 E1.12739
G1 X75.450 Y39.977 E1.14509
G1 X76.317 Y38.248 E1.21324
G1 X75.948 Y37.983 E1.22926
G1 X74.949 Y39.977 E1.30788
G1 X74.447 Y39.977 E1.32557
G1 X75.539 Y37.797 E1.41152
G1 X75.037 Y37.797 E1.42920
G1 X73.945 Y39.977 E1.51517
G1 X73.443 Y39.977 E1.53286
G1 X74.525 Y37.818 E1.61798
G1 X74.023 Y37.818 E1.63567
G1 X72.941 Y39.977 E1.72079
G1 X72.440 Y39.977 E1.73848
G1 X73.521 Y37.818 E1.82360
G1 X73.019 Y37.818 E1.84130
G1 X71.938 Y39.977 E1.92641
G1 X71.477 Y39.895 E1.94291
G1 X72.518 Y37.818 E2.02480
G1 X72.016 Y37.818 E2.04250
G1 X71.477 Y38.893 E2.08489
G1 X71.477 Y37.892 E2.12020
G1 X71.514 Y37.818 E2.12311
G1 F1800.000 E1.12311
G92 E0
G1 X69.922 Y39.917 F7800.000
G1 E1.00000 F1800.000
G1 X69.892 Y39.977 E1.00244 F600.000
G1 X69.375 Y39.977 E1.02123
G1 X69.922 Y38.885 E1.06561
G1 X69.914 Y37.868 E1.10255
G1 X68.858 Y39.977 E1.18825
G1 X68.360 Y39.938 E1.20639
G1 X69.415 Y37.833 E1.29194
G1 X68.902 Y37.824 E1.31057
G1 X68.360 Y38.906 E1.35455
G1 X68.360 Y37.874 E1.39205
G1 X68.390 Y37.814 E1.39448
G1 F1800.000 E0.39448
G92 E0
G1 X67.552 Y39.917 F7800.000
G1 E1.00000 F1800.000
G1 X67.522 Y39.977 E1.00233 F600.000
G1 X67.028 Y39.977 E1.01951
G1 X67.552 Y38.930 E1.06018
G1 X67.552 Y37.943 E1.09446
G1 X66.533 Y39.977 E1.17348
G1 X66.039 Y39.977 E1.19066
G1 X67.134 Y37.791 E1.27562
G1 X66.641 Y37.789 E1.29276
G1 X65.544 Y39.977 E1.37780
G1 X65.050 Y39.977 E1.39498
G1 X66.146 Y37.789 E1.48002
G1 X65.589 Y37.913 E1.49985
G1 X64.555 Y39.977 E1.58004
G1 X64.662 Y38.776 F7800.000
G1 X64.751 Y38.599 E1.58691 F600.000
G1 F1800.000 E0.58691
G92 E0
G1 X61.686 Y50.110 F7800.000
G1 E1.00000 F1800.000
G1 X61.716 Y50.050 E1.00228 F600.000
G1 X62.201 Y50.050 E1.01879
G1 X61.686 Y51.077 E1.05792
G1 X61.686 Y52.045 E1.09087
G1 X62.685 Y50.050 E1.16684
G1 X63.170 Y50.050 E1.18336
G1 X62.102 Y52.182 E1.26455
G1 X62.587 Y52.182 E1.28106
G1 X63.655 Y50.050 E1.36225
G1 X64.140 Y50.050 E1.37876
G1 X63.072 Y52.182 E1.45996
G1 X63.556 Y52.183 E1.47645
G1 X64.624 Y50.050 E1.55769
G1 X65.109 Y50.050 E1.57420
G1 X64.033 Y52.198 E1.65603
G1 X64.510 Y52.212 E1.67230
G1 X65.594 Y50.050 E1.75466
G1 X66.079 Y50.050 E1.77117
G1 X64.995 Y52.212 E1.85354
G1 X65.480 Y52.212 E1.87005
G1 X66.563 Y50.050 E1.95241
G1 X67.048 Y50.050 E1.96892
G1 X66.030 Y52.082 E2.04632
G1 X66.856 Y51.401 F7800.000
G1 X66.945 Y51.224 E2.05305 F600.000
G1 F1800.000 E1.05305
G92 E0
G1 X74.215 Y50.100 F7800.000
G1 E1.00000 F1800.000
G1 X74.240 Y50.050 E1.00193 F600.000
G1 X74.731 Y50.050 E1.01885
G1 X74.341 Y50.828 E1.04884
G1 X74.544 Y51.402 E1.06983
G1 X75.221 Y50.050 E1.12196
G1 X75.712 Y50.050 E1.13888
G1 X74.864 Y51.742 E1.20413
G1 X75.223 Y52.006 E1.21948
G1 X76.203 Y50.050 E1.29492
G1 X76.694 Y50.050 E1.31185
G1 X75.622 Y52.190 E1.39436
G1 X76.103 Y52.208 E1.41099
G1 X77.128 Y50.163 E1.48984
G1 X77.128 Y51.142 E1.52361
G1 X76.607 Y52.182 E1.56369
G1 X77.098 Y52.182 E1.58062
G1 X77.128 Y52.122 E1.58293
G1 F1800.000 E0.58293
G92 E0
G1 X77.966 Y50.050 F7800.000
G1 E1.00000 F1800.000
G1 X77.936 Y50.110 E1.00262 F600.000
G1 X77.936 Y51.222 E1.04612
G1 X78.523 Y50.050 E1.09741
G1 X79.080 Y50.050 E1.11921
G1 X78.012 Y52.182 E1.21251
G1 X78.569 Y52.182 E1.23432
G1 X79.637 Y50.050 E1.32762
G1 X79.713 Y51.010 E1.36530
G1 X79.126 Y52.182 E1.41659
G1 X79.683 Y52.182 E1.43839
G1 X79.713 Y52.122 E1.44101
G1 F1800.000 E0.44101
G92 E0
G1 Z0.650 F7800.000
G1 X85.399 Y51.459 F7800.000
G1 X85.399 Y46.880 F7800.000
G1 X82.399 Y47.880 F7800.000
G1 X82.399 Y48.458 F7800.000
G1 E1.00000 F1800.000
G1 X59.000 Y48.458 E2.10343 F1187.123
G1 X59.000 Y41.568 E2.42834
G1 X82.399 Y41.568 E3.53177
G1 X82.399 Y48.398 E3.85385
G1 X82.799 Y48.858 F7800.000
G1 X58.600 Y48.858 E4.99500 F1187.123
G1 X58.600 Y41.168 E5.35764
G1 X82.799 Y41.168 E6.49879
G1 X82.799 Y48.798 E6.85860
G1 X83.199 Y49.258 F7800.000
G1 X58.200 Y49.258 E8.03748 F830.986
G1 X58.200 Y40.768 E8.43784
G1 X83.199 Y40.768 E9.61672
G1 X83.199 Y49.198 E10.01425
G1 X82.853 Y49.058 F7800.000
G1 X82.125 Y48.144 F7800.000
G1 X82.085 Y48.184 E10.01705 F1187.123
G1 X81.491 Y48.184 E10.04639
G1 X82.125 Y47.550 E10.09067
G1 X82.125 Y46.956 E10.12001
G1 X80.897 Y48.184 E10.20579
G1 X80.302 Y48.184 E10.23513
G1 X82.125 Y46.362 E10.36240
G1 X82.125 Y45.768 E10.39174
G1 X79.708 Y48.184 E10.56050
G1 X79.114 Y48.184 E10.58984
G1 X82.125 Y45.174 E10.80010
G1 X82.125 Y44.580 E10.82944
G1 X78.520 Y48.184 E11.08118
G1 X77.926 Y48.184 E11.11052
G1 X82.125 Y43.985 E11.40376
G1 X82.125 Y43.391 E11.43310
G1 X77.332 Y48.184 E11.76783
G1 X76.738 Y48.184 E11.79717
G1 X82.125 Y42.797 E12.17340
G1 X82.125 Y42.203 E12.20274
G1 X76.144 Y48.184 E12.62045
G1 X75.549 Y48.184 E12.64979
G1 X81.891 Y41.843 E13.09267
G1 X81.297 Y41.843 E13.12201
G1 X74.955 Y48.184 E13.56489
G1 X74.361 Y48.184 E13.59423
G1 X80.703 Y41.843 E14.03711
G1 X80.109 Y41.843 E14.06645
G1 X73.767 Y48.184 E14.50933
G1 X73.173 Y48.184 E14.53866
G1 X79.514 Y41.843 E14.98154
G1 X78.920 Y41.843 E15.01088
G1 X72.579 Y48.184 E15.45376
G1 X71.985 Y48.184 E15.48310
G1 X78.326 Y41.843 E15.92598
G1 X77.732 Y41.843 E15.95532
G1 X71.391 Y48.184 E16.39820
G1 X70.796 Y48.184 E16.42754
G1 X77.138 Y41.843 E16.87042
G1 X76.544 Y41.843 E16.89976
G1 X70.202 Y48.184 E17.34264
G1 X69.608 Y48.184 E17.37197
G1 X75.950 Y41.843 E17.81485
G1 X75.356 Y41.843 E17.84419
G1 X69.014 Y48.184 E18.28707
G1 X68.420 Y48.184 E18.31641
G1 X74.761 Y41.843 E18.75929
G1 X74.167 Y41.843 E18.78863
G1 X67.826 Y48.184 E19.23151
G1 X67.232 Y48.184 E19.26085
G1 X73.573 Y41.843 E19.70373
G1 X72.979 Y41.843 E19.73307
G1 X66.638 Y48.184 E20.17595
G1 X66.043 Y48.184 E20.20528
G1 X72.385 Y41.843 E20.64816
G1 X71.791 Y41.843 E20.67750
G1 X65.449 Y48.184 E21.12038
G1 X64.855 Y48.184 E21.14972
G1 X71.197 Y41.843 E21.59260
G1 X70.603 Y41.843 E21.62194
G1 X64.261 Y48.184 E22.06482
G1 X63.667 Y48.184 E22.09416
G1 X70.008 Y41.843 E22.53704
G1 X69.414 Y41.843 E22.56638
G1 X63.073 Y48.184 E23.00926
G1 X62.479 Y48.184 E23.03859
G1 X68.820 Y41.843 E23.48147
G1 X68.226 Y41.843 E23.51081
G1 X61.885 Y48.184 E23.95369
G1 X61.290 Y48.184 E23.98303
G1 X67.632 Y41.843 E24.42591
G1 X67.038 Y41.843 E24.45525
G1 X60.696 Y48.184 E24.89813
G1 X60.102 Y48.184 E24.92747
G1 X66.444 Y41.843 E25.37035
G1 X65.850 Y41.843 E25.39969
G1 X59.508 Y48.184 E25.84256
G1 X59.274 Y47.824 E25.86378
G1 X65.255 Y41.843 E26.28149
G1 X64.661 Y41.843 E26.31083
G1 X59.274 Y47.230 E26.68706
G1 X59.274 Y46.636 E26.71640
G1 X64.067 Y41.843 E27.05113
G1 X63.473 Y41.843 E27.08047
G1 X59.274 Y46.042 E27.37371
G1 X59.274 Y45.447 E27.40305
G1 X62.879 Y41.843 E27.65479
G1 X62.285 Y41.843 E27.68413
G1 X59.274 Y44.853 E27.89439
G1 X59.274 Y44.259 E27.92373
G1 X61.691 Y41.843 E28.09249
G1 X61.097 Y41.843 E28.12183
G1 X59.274 Y43.665 E28.24910
G1 X59.274 Y43.071 E28.27844
G1 X60.502 Y41.843 E28.36422
G1 X59.908 Y41.843 E28.39356
G1 X59.274 Y42.477 E28.43784
G1 X59.274 Y41.883 E28.46718
G1 X59.314 Y41.843 E28.46997
G1 F1800.000 E27.46997
G92 E0
G1 Z0.900 F7800.000
G1 X64.555 Y39.977 F7800.000
G1 E1.00000 F1800.000
G1 X65.589 Y37.913 E1.14034 F600.000
G1 X66.146 Y37.789 E1.17504
G1 X65.050 Y39.977 E1.32386
G1 X65.544 Y39.977 E1.35393
G1 X66.641 Y37.789 E1.50275
G1 X67.134 Y37.791 E1.53275
G1 X66.039 Y39.977 E1.68142
G1 X66.533 Y39.977 E1.71148
G1 X67.552 Y37.943 E1.84977
G1 X67.552 Y38.930 E1.90976
G1 X67.028 Y39.977 E1.98093
G1 X67.522 Y39.977 E2.01100
G1 X67.552 Y39.917 E2.01508
G1 X68.178 Y37.810 F7800.000
G1 X68.148 Y37.870 E2.01968 F600.000
G1 X68.148 Y38.987 E2.09661
G1 X68.733 Y37.820 E2.18648
G1 X69.288 Y37.831 E2.22469
G1 X68.212 Y39.977 E2.38997
G1 X68.772 Y39.977 E2.42853
G1 X69.842 Y37.841 E2.59301
G1 X69.922 Y38.799 E2.65922
G1 X69.332 Y39.977 E2.74990
G1 X69.892 Y39.977 E2.78846
G1 X69.922 Y39.917 E2.79307
G1 F1800.000 E1.79307
G92 E0
G1 X71.514 Y37.818 F7800.000
G1 E1.00000 F1800.000
G1 X71.477 Y37.892 E1.00509 F600.000
G1 X71.477 Y38.893 E1.06687
G1 X72.016 Y37.818 E1.14107
G1 X72.518 Y37.818 E1.17203
G1 X71.477 Y39.895 E1.31533
G1 X71.938 Y39.977 E1.34421
G1 X73.019 Y37.818 E1.49317
G1 X73.521 Y37.818 E1.52413
G1 X72.440 Y39.977 E1.67309
G1 X72.941 Y39.977 E1.70405
G1 X74.023 Y37.818 E1.85301
G1 X74.525 Y37.818 E1.88397
G1 X73.443 Y39.977 E2.03293
G1 X73.945 Y39.977 E2.06390
G1 X75.037 Y37.797 E2.21433
G1 X75.539 Y37.797 E2.24528
G1 X74.447 Y39.977 E2.39569
G1 X74.949 Y39.977 E2.42665
G1 X75.948 Y37.983 E2.56422
G1 X76.317 Y38.248 E2.59226
G1 X75.450 Y39.977 E2.71153
G1 X75.952 Y39.977 E2.74250
G1 X76.644 Y38.596 E2.83781
G1 X76.852 Y39.183 E2.87624
G1 X76.454 Y39.977 E2.93102
G1 X76.956 Y39.977 E2.96198
G1 X76.981 Y39.927 E2.96543
G1 F1800.000 E1.96543
G92 E0
G1 X77.966 Y50.050 F7800.000
G1 E1.00000 F1800.000
G1 X77.936 Y50.110 E1.00459 F600.000
G1 X77.936 Y51.222 E1.08072
G1 X78.523 Y50.050 E1.17046
G1 X79.080 Y50.050 E1.20862
G1 X78.012 Y52.182 E1.37190
G1 X78.569 Y52.182 E1.41005
G1 X79.637 Y50.050 E1.57333
G1 X79.713 Y51.010 E1.63928
G1 X79.126 Y52.182 E1.72903
G1 X79.683 Y52.182 E1.76718
G1 X79.713 Y52.122 E1.77177
G1 X77.340 Y52.122 F7800.000
G1 X77.310 Y52.182 E1.77603 F600.000
G1 X76.793 Y52.182 E1.80894
G1 X77.340 Y51.090 E1.88663
G1 X77.331 Y50.076 E1.95111
G1 X76.270 Y52.193 E2.10171
G1 X75.731 Y52.236 E2.13612
G1 X76.826 Y50.050 E2.29163
G1 X76.309 Y50.050 E2.32453
G1 X75.307 Y52.049 E2.46671
G1 X74.918 Y51.794 E2.49632
G1 X75.792 Y50.050 E2.62034
G1 X75.274 Y50.050 E2.65324
G1 X74.579 Y51.439 E2.75202
G1 X74.348 Y50.867 E2.79122
G1 X74.757 Y50.050 E2.84934
G1 X74.240 Y50.050 E2.88224
G1 X74.215 Y50.100 E2.88580
G1 F1800.000 E1.88580
G92 E0
G1 X66.945 Y51.224 F7800.000
G1 E1.00000 F1800.000
G1 X66.856 Y51.401 E1.01177 F600.000
G1 X66.030 Y52.082 F7800.000
G1 X67.048 Y50.050 E1.14721 F600.000
G1 X66.563 Y50.050 E1.17611
G1 X65.480 Y52.212 E1.32024
G1 X64.995 Y52.212 E1.34914
G1 X66.079 Y50.050 E1.49327
G1 X65.594 Y50.050 E1.52217
G1 X64.510 Y52.212 E1.66631
G1 X64.033 Y52.198 E1.69479
G1 X65.109 Y50.050 E1.83797
G1 X64.624 Y50.050 E1.86687
G1 X63.556 Y52.183 E2.00905
G1 X63.072 Y52.182 E2.03790
G1 X64.140 Y50.050 E2.17999
G1 X63.655 Y50.050 E2.20889
G1 X62.587 Y52.182 E2.35098
G1 X62.102 Y52.182 E2.37987
G1 X63.170 Y50.050 E2.52196
G1 X62.685 Y50.050 E2.55085
G1 X61.686 Y52.045 E2.68382
G1 X61.686 Y51.077 E2.74146
G1 X62.201 Y50.050 E2.80994
G1 X61.716 Y50.050 E2.83884
G1 X61.686 Y50.110 E2.84283
G1 F1800.000 E1.84283
G92 E0
G1 X64.662 Y38.776 F7800.000
G1 E1.00000 F1800.000
G1 X64.751 Y38.599 E1.01202 F600.000
G1 F1800.000 E0.01202
G92 E0
G1 Z0.950 F7800.000
G1 X83.711 Y38.568 F7800.000
G1 X85.399 Y46.880 F7800.000
G1 X82.399 Y47.880 F7800.000
G1 X82.399 Y48.458 F7800.000
G1 E1.00000 F1800.000
G1 X59.000 Y48.458 E2.10343 F1187.123
G1 X59.000 Y41.568 E2.42834
G1 X82.399 Y41.568 E3.53177
G1 X82.399 Y48.398 E3.85385
G1 X82.799 Y48.858 F7800.000
G1 X58.600 Y48.858 E4.99500 F1187.123
G1 X58.600 Y41.168 E5.35764
G1 X82.799 Y41.168 E6.49879
G1 X82.799 Y48.798 E6.85860
G1 X83.199 Y49.258 F7800.000
G1 X58.200 Y49.258 E8.03748 F830.986
G1 X58.200 Y40.768 E8.43784
G1 X83.199 Y40.768 E9.61672
G1 X83.199 Y49.198 E10.01425
G1 X82.853 Y49.058 F7800.000
G1 X82.085 Y41.843 F7800.000
G1 X82.125 Y41.883 E10.01705 F1187.123
G1 X82.125 Y42.477 E10.04639
G1 X81.491 Y41.843 E10.09067
G1 X80.897 Y41.843 E10.12001
G1 X82.125 Y43.071 E10.20579
G1 X82.125 Y43.665 E10.23513
G1 X80.302 Y41.843 E10.36240
G1 X79.708 Y41.843 E10.39174
G1 X82.125 Y44.259 E10.56050
G1 X82.125 Y44.853 E10.58984
G1 X79.114 Y41.843 E10.80010
G1 X78.520 Y41.843 E10.82944
G1 X82.125 Y45.447 E11.08118
G1 X82.125 Y46.042 E11.11052
