; generated by Slic3r 1.1.7 on 2014-09-30 at 17:59:35

; perimeters extrusion width = 0.40mm
; infill extrusion width = 0.42mm
; solid infill extrusion width = 0.42mm
; top infill extrusion width = 0.42mm
; support material extrusion width = 0.40mm

G21 ; set units to millimeters
M107
M104 S195 ; set temperature
G28 ; home all axes
G1 Z5 F5000 ; lift nozzle
M109 S195 ; wait for temperature to be reached
G90 ; use absolute coordinates
G92 E0
M82 ; use absolute distances for extrusion
G1 F1800.000 E-1.00000
G92 E0
G1 Z0.300 F7800.000
G1 X24.933 Y22.879 F7800.000
G1 E1.00000 F1800.000
G1 X26.692 Y21.361 E1.10958 F2100.000
G1 X28.860 Y20.523 E1.21917
G1 X30.191 Y20.391 E1.28227
G1 X65.809 Y20.391 E2.96188
G1 X68.098 Y20.788 E3.07147
G1 X70.121 Y21.933 E3.18105 F2100.000
G1 X71.639 Y23.692 E3.29063
G1 X72.477 Y25.860 E3.40022
G1 X72.609 Y27.191 E3.46332
G1 X72.609 Y62.809 E5.14293
G1 X72.212 Y65.098 E5.25252
G1 X71.067 Y67.121 E5.36210
G1 X69.308 Y68.639 E5.47168
G1 X67.140 Y69.477 E5.58127
G1 X65.809 Y69.609 E5.64437
G1 X30.191 Y69.609 E7.32398
G1 X27.902 Y69.212 E7.43357
G1 X25.879 Y68.067 E7.54315
G1 X24.361 Y66.308 E7.65273
G1 X23.523 Y64.140 E7.76232
G1 X23.391 Y62.809 E7.82542
G1 X23.391 Y27.191 E9.50503
G1 X23.788 Y24.902 E9.61462
G1 X24.904 Y22.932 E9.72137
G1 X25.293 Y23.091 F7800.000
G1 X25.330 Y23.029 E9.72475 F2100.000
G1 X27.074 Y21.602 E9.83104
G1 X30.191 Y20.791 E9.98293
G1 X65.809 Y20.791 E11.66254
G1 X68.027 Y21.188 E11.76883
G1 X69.971 Y22.330 E11.87511 F2100.000
G1 X71.398 Y24.074 E11.98140
G1 X72.209 Y27.191 E12.13329
G1 X72.209 Y62.809 E13.81290
G1 X71.812 Y65.027 E13.91919
G1 X70.670 Y66.971 E14.02548
G1 X68.926 Y68.398 E14.13176
G1 X65.809 Y69.209 E14.28366
G1 X30.191 Y69.209 E15.96327
G1 X27.973 Y68.812 E16.06955
G1 X26.029 Y67.670 E16.17584
G1 X24.602 Y65.926 E16.28213
G1 X23.791 Y62.809 E16.43402
G1 X23.791 Y27.191 E18.11363
G1 X24.188 Y24.973 E18.21992
G1 X25.263 Y23.143 E18.31999
G1 F1800.000 E17.31999
G92 E0
G1 X64.809 Y61.809 F7800.000
G1 E1.00000 F1800.000
G1 X31.191 Y61.809 E2.58530 F2520.000
G1 X31.191 Y28.191 E4.17059
G1 X64.809 Y28.191 E5.75589
G1 X64.809 Y61.749 E7.33836
G1 X65.209 Y62.209 F7800.000
G1 X30.791 Y62.209 E8.96138 F2520.000
G1 X30.791 Y27.791 E10.58440
G1 X65.209 Y27.791 E12.20742
G1 X65.209 Y62.149 E13.82761
G1 X65.609 Y62.609 F7800.000
G1 X30.391 Y62.609 E15.48836 F1512.000
G1 X30.391 Y27.391 E17.14911
G1 X65.609 Y27.391 E18.80986
G1 X65.609 Y62.549 E20.46777
G1 X65.262 Y62.409 F7800.000
G1 F1800.000 E19.46777
G92 E0
G1 X31.466 Y61.494 F7800.000
G1 E1.00000 F1800.000
G1 X31.506 Y61.534 E1.00279 F2100.000
G1 X32.101 Y61.534 E1.03218
G1 X31.466 Y60.899 E1.07654
G1 X31.466 Y60.304 E1.10593
G1 X32.696 Y61.534 E1.19184
G1 X33.291 Y61.534 E1.22123
G1 X31.466 Y59.709 E1.34871
G1 X31.466 Y59.114 E1.37810
G1 X33.886 Y61.534 E1.54714
G1 X34.481 Y61.534 E1.57652
G1 X31.466 Y58.519 E1.78713
G1 X31.466 Y57.924 E1.81651
G1 X35.076 Y61.534 E2.06868
G1 X35.671 Y61.534 E2.09807
G1 X31.466 Y57.329 E2.39179
G1 X31.466 Y56.734 E2.42118
G1 X36.266 Y61.534 E2.75646
G1 X36.862 Y61.534 E2.78585
G1 X31.466 Y56.138 E3.16270
G1 X31.466 Y55.543 E3.19209
G1 X37.457 Y61.534 E3.61050
G1 X38.052 Y61.534 E3.63989
G1 X31.466 Y54.948 E4.09986
G1 X31.466 Y54.353 E4.12924
G1 X38.647 Y61.534 E4.63078
G1 X39.242 Y61.534 E4.66016
G1 X31.466 Y53.758 E5.20326
G1 X31.466 Y53.163 E5.23265
G1 X39.837 Y61.534 E5.81730
G1 X40.432 Y61.534 E5.84669
G1 X31.466 Y52.568 E6.47291
G1 X31.466 Y51.973 E6.50230
G1 X41.027 Y61.534 E7.17007
G1 X41.623 Y61.534 E7.19946
G1 X31.466 Y51.377 E7.90880
G1 X31.466 Y50.782 E7.93819
G1 X42.218 Y61.534 E8.68909
G1 X42.813 Y61.534 E8.71848
G1 X31.466 Y50.187 E9.51094
G1 X31.466 Y49.592 E9.54033
G1 X43.408 Y61.534 E10.37435
G1 X44.003 Y61.534 E10.40374
G1 X31.466 Y48.997 E11.27933
G1 X31.466 Y48.402 E11.30872
G1 X44.598 Y61.534 E12.22586
G1 X45.193 Y61.534 E12.25525
G1 X31.466 Y47.807 E13.21396
G1 X31.466 Y47.212 E13.24335
G1 X45.788 Y61.534 E14.24362
G1 X46.383 Y61.534 E14.27301
G1 X31.466 Y46.617 E15.31484
G1 X31.466 Y46.021 E15.34423
G1 X46.979 Y61.534 E16.42762
G1 X47.574 Y61.534 E16.45701
G1 X31.466 Y45.426 E17.58197
G1 X31.466 Y44.831 E17.61135
G1 X48.169 Y61.534 E18.77787
G1 X48.764 Y61.534 E18.80726
G1 X31.466 Y44.236 E20.01534
G1 X31.466 Y43.641 E20.04473
G1 X49.359 Y61.534 E21.29437
G1 X49.954 Y61.534 E21.32375
G1 X31.466 Y43.046 E22.61496
G1 X31.466 Y42.451 E22.64434
G1 X50.549 Y61.534 E23.97711
G1 X51.144 Y61.534 E24.00649
G1 X31.466 Y41.856 E25.38082
G1 X31.466 Y41.261 E25.41021
G1 X51.739 Y61.534 E26.82609
G1 X52.335 Y61.534 E26.85548
G1 X31.466 Y40.665 E28.31293
G1 X31.466 Y40.070 E28.34232
G1 X52.930 Y61.534 E29.84133
G1 X53.525 Y61.534 E29.87071
G1 X31.466 Y39.475 E31.41128
G1 X31.466 Y38.880 E31.44067
G1 X54.120 Y61.534 E33.02281
G1 X54.715 Y61.534 E33.05219
G1 X31.466 Y38.285 E34.67589
G1 X31.466 Y37.690 E34.70528
G1 X55.310 Y61.534 E36.37053
G1 X55.905 Y61.534 E36.39992
G1 X31.466 Y37.095 E38.10674
G1 X31.466 Y36.500 E38.13612
G1 X56.500 Y61.534 E39.88450
G1 X57.096 Y61.534 E39.91389
G1 X31.466 Y35.904 E41.70383
G1 X31.466 Y35.309 E41.73322
G1 X57.691 Y61.534 E43.56472
G1 X58.286 Y61.534 E43.59411
G1 X31.466 Y34.714 E45.46717
G1 X31.466 Y34.119 E45.49656
G1 X58.881 Y61.534 E47.41118
G1 X59.476 Y61.534 E47.44057
G1 X31.466 Y33.524 E49.39676
G1 X31.466 Y32.929 E49.42615
G1 X60.071 Y61.534 E51.42389
G1 X60.666 Y61.534 E51.45328
G1 X31.466 Y32.334 E53.49259
G1 X31.466 Y31.739 E53.52198
G1 X61.261 Y61.534 E55.60285
G1 X61.856 Y61.534 E55.63224
G1 X31.466 Y31.144 E57.75467
G1 X31.466 Y30.548 E57.78406
G1 X62.452 Y61.534 E59.94805
G1 X63.047 Y61.534 E59.97744
G1 X31.466 Y29.953 E62.18300
G1 X31.466 Y29.358 E62.21238
G1 X63.642 Y61.534 E64.45950
G1 X64.237 Y61.534 E64.48889
G1 X31.466 Y28.763 E66.77757
G1 X31.763 Y28.466 E66.79835
G1 X64.534 Y61.237 E69.08703
G1 X64.534 Y60.642 E69.11641
G1 X32.358 Y28.466 E71.36353
G1 X32.953 Y28.466 E71.39292
G1 X64.534 Y60.047 E73.59847
G1 X64.534 Y59.452 E73.62786
G1 X33.548 Y28.466 E75.79186
G1 X34.144 Y28.466 E75.82125
G1 X64.534 Y58.856 E77.94368
G1 X64.534 Y58.261 E77.97307
G1 X34.739 Y28.466 E80.05394
G1 X35.334 Y28.466 E80.08333
G1 X64.534 Y57.666 E82.12263
G1 X64.534 Y57.071 E82.15202
G1 X35.929 Y28.466 E84.14977
G1 X36.524 Y28.466 E84.17916
G1 X64.534 Y56.476 E86.13534
G1 X64.534 Y55.881 E86.16473
G1 X37.119 Y28.466 E88.07936
G1 X37.714 Y28.466 E88.10875
G1 X64.534 Y55.286 E89.98181
G1 X64.534 Y54.691 E90.01120
G1 X38.309 Y28.466 E91.84270
G1 X38.904 Y28.466 E91.87209
G1 X64.534 Y54.096 E93.66203
G1 X64.534 Y53.500 E93.69142
G1 X39.500 Y28.466 E95.43979
G1 X40.095 Y28.466 E95.46918
G1 X64.534 Y52.905 E97.17600
G1 X64.534 Y52.310 E97.20539
G1 X40.690 Y28.466 E98.87064
G1 X41.285 Y28.466 E98.90003
G1 X64.534 Y51.715 E100.52372
G1 X64.534 Y51.120 E100.55311
G1 X41.880 Y28.466 E102.13524
G1 X42.475 Y28.466 E102.16463
G1 X64.534 Y50.525 E103.70520
G1 X64.534 Y49.930 E103.73459
G1 X43.070 Y28.466 E105.23360
G1 X43.665 Y28.466 E105.26299
G1 X64.534 Y49.335 E106.72044
G1 X64.534 Y48.739 E106.74983
G1 X44.261 Y28.466 E108.16571
G1 X44.856 Y28.466 E108.19510
G1 X64.534 Y48.144 E109.56942
G1 X64.534 Y47.549 E109.59881
G1 X45.451 Y28.466 E110.93158
G1 X46.046 Y28.466 E110.96096
G1 X64.534 Y46.954 E112.25216
G1 X64.534 Y46.359 E112.28155
G1 X46.641 Y28.466 E113.53119
G1 X47.236 Y28.466 E113.56058
G1 X64.534 Y45.764 E114.76866
G1 X64.534 Y45.169 E114.79805
G1 X47.831 Y28.466 E115.96456
G1 X48.426 Y28.466 E115.99395
G1 X64.534 Y44.574 E117.11891
G1 X64.534 Y43.979 E117.14830
G1 X49.021 Y28.466 E118.23169
G1 X49.617 Y28.466 E118.26108
G1 X64.534 Y43.383 E119.30291
G1 X64.534 Y42.788 E119.33230
G1 X50.212 Y28.466 E120.33257
G1 X50.807 Y28.466 E120.36196
G1 X64.534 Y42.193 E121.32067
G1 X64.534 Y41.598 E121.35006
G1 X51.402 Y28.466 E122.26720
G1 X51.997 Y28.466 E122.29659
G1 X64.534 Y41.003 E123.17218
G1 X64.534 Y40.408 E123.20156
G1 X52.592 Y28.466 E124.03559
G1 X53.187 Y28.466 E124.06498
G1 X64.534 Y39.813 E124.85744
G1 X64.534 Y39.218 E124.88683
G1 X53.782 Y28.466 E125.63773
G1 X54.377 Y28.466 E125.66712
G1 X64.534 Y38.623 E126.37646
G1 X64.534 Y38.027 E126.40585
G1 X54.973 Y28.466 E127.07362
G1 X55.568 Y28.466 E127.10301
G1 X64.534 Y37.432 E127.72923
G1 X64.534 Y36.837 E127.75862
G1 X56.163 Y28.466 E128.34327
G1 X56.758 Y28.466 E128.37266
G1 X64.534 Y36.242 E128.91575
G1 X64.534 Y35.647 E128.94514
G1 X57.353 Y28.466 E129.44667
G1 X57.948 Y28.466 E129.47606
G1 X64.534 Y35.052 E129.93603
G1 X64.534 Y34.457 E129.96542
G1 X58.543 Y28.466 E130.38383
G1 X59.138 Y28.466 E130.41322
G1 X64.534 Y33.862 E130.79007
G1 X64.534 Y33.266 E130.81946
G1 X59.734 Y28.466 E131.15474
G1 X60.329 Y28.466 E131.18413
G1 X64.534 Y32.671 E131.47785
G1 X64.534 Y32.076 E131.50724
G1 X60.924 Y28.466 E131.75940
G1 X61.519 Y28.466 E131.78879
G1 X64.534 Y31.481 E131.99939
G1 X64.534 Y30.886 E132.02878
G1 X62.114 Y28.466 E132.19782
G1 X62.709 Y28.466 E132.22721
G1 X64.534 Y30.291 E132.35469
G1 X64.534 Y29.696 E132.38408
G1 X63.304 Y28.466 E132.46999
G1 X63.899 Y28.466 E132.49938
G1 X64.534 Y29.101 E132.54374
G1 X64.534 Y28.506 E132.57313
G1 X64.494 Y28.466 E132.57592
M106 S120
G1 F1800.000 E131.57592
G92 E0
G1 Z0.600 F7800.000
G1 X64.635 Y61.635 F7800.000
G1 E1.00000 F1800.000
G1 X31.365 Y61.635 E2.56896 F3600.000
G1 X31.365 Y28.365 E4.13792
G1 X64.635 Y28.365 E5.70688
G1 X64.635 Y61.575 E7.27301
G1 X65.035 Y62.035 F7800.000
G1 X30.965 Y62.035 E8.87970 F3600.000
G1 X30.965 Y27.965 E10.48639
G1 X65.035 Y27.965 E12.09307
G1 X65.035 Y61.975 E13.69693
G1 X65.435 Y62.435 F7800.000
G1 X30.565 Y62.435 E15.34134 F2160.000
G1 X30.565 Y27.565 E16.98575
G1 X65.435 Y27.565 E18.63016
G1 X65.435 Y62.375 E20.27175
G1 X65.089 Y62.235 F7800.000
G1 X64.361 Y61.321 F7800.000
G1 X64.321 Y61.361 E20.27454 F3000.000
G1 X63.727 Y61.361 E20.30388
G1 X64.361 Y60.727 E20.34818
G1 X64.361 Y60.133 E20.37752
G1 X63.133 Y61.361 E20.46331
G1 X62.539 Y61.361 E20.49266
G1 X64.361 Y59.539 E20.61995
G1 X64.361 Y58.944 E20.64930
G1 X61.944 Y61.361 E20.81809
G1 X61.350 Y61.361 E20.84743
G1 X64.361 Y58.350 E21.05772
G1 X64.361 Y57.756 E21.08707
G1 X60.756 Y61.361 E21.33886
G1 X60.162 Y61.361 E21.36820
G1 X64.361 Y57.162 E21.66149
G1 X64.361 Y56.567 E21.69084
G1 X59.567 Y61.361 E22.02563
G1 X58.973 Y61.361 E22.05497
G1 X64.361 Y55.973 E22.43126
G1 X64.361 Y55.379 E22.46061
G1 X58.379 Y61.361 E22.87839
G1 X57.785 Y61.361 E22.90774
G1 X64.361 Y54.785 E23.36703
G1 X64.361 Y54.191 E23.39637
G1 X57.191 Y61.361 E23.89716
G1 X56.596 Y61.361 E23.92650
G1 X64.361 Y53.596 E24.46879
G1 X64.361 Y53.002 E24.49814
G1 X56.002 Y61.361 E25.08192
G1 X55.408 Y61.361 E25.11127
G1 X64.361 Y52.408 E25.73655
G1 X64.361 Y51.814 E25.76590
G1 X54.814 Y61.361 E26.43268
G1 X54.219 Y61.361 E26.46203
G1 X64.361 Y51.219 E27.17031
G1 X64.361 Y50.625 E27.19966
G1 X53.625 Y61.361 E27.94944
G1 X53.031 Y61.361 E27.97879
G1 X64.361 Y50.031 E28.77007
G1 X64.361 Y49.437 E28.79942
G1 X52.437 Y61.361 E29.63220
G1 X51.842 Y61.361 E29.66154
G1 X64.361 Y48.842 E30.53583
G1 X64.361 Y48.248 E30.56517
G1 X51.248 Y61.361 E31.48096
G1 X50.654 Y61.361 E31.51030
G1 X64.361 Y47.654 E32.46758
G1 X64.361 Y47.060 E32.49693
G1 X50.060 Y61.361 E33.49571
G1 X49.466 Y61.361 E33.52505
G1 X64.361 Y46.466 E34.56533
G1 X64.361 Y45.871 E34.59468
G1 X48.871 Y61.361 E35.67646
G1 X48.277 Y61.361 E35.70580
G1 X64.361 Y45.277 E36.82908
G1 X64.361 Y44.683 E36.85843
G1 X47.683 Y61.361 E38.02321
G1 X47.089 Y61.361 E38.05255
G1 X64.361 Y44.089 E39.25883
G1 X64.361 Y43.494 E39.28818
G1 X46.494 Y61.361 E40.53596
G1 X45.900 Y61.361 E40.56530
G1 X64.361 Y42.900 E41.85458
G1 X64.361 Y42.306 E41.88392
G1 X45.306 Y61.361 E43.21470
G1 X44.712 Y61.361 E43.24405
G1 X64.361 Y41.712 E44.61632
G1 X64.361 Y41.118 E44.64567
G1 X44.118 Y61.361 E46.05945
G1 X43.523 Y61.361 E46.08879
G1 X64.361 Y40.523 E47.54407
G1 X64.361 Y39.929 E47.57341
G1 X42.929 Y61.361 E49.07019
G1 X42.335 Y61.361 E49.09953
G1 X64.361 Y39.335 E50.63781
G1 X64.361 Y38.741 E50.66715
G1 X41.741 Y61.361 E52.24693
G1 X41.146 Y61.361 E52.27627
G1 X64.361 Y38.146 E53.89755
G1 X64.361 Y37.552 E53.92689
G1 X40.552 Y61.361 E55.58966
G1 X39.958 Y61.361 E55.61901
G1 X64.361 Y36.958 E57.32328
G1 X64.361 Y36.364 E57.35263
G1 X39.364 Y61.361 E59.09840
G1 X38.769 Y61.361 E59.12774
G1 X64.361 Y35.769 E60.91502
G1 X64.361 Y35.175 E60.94436
G1 X38.175 Y61.361 E62.77313
G1 X37.581 Y61.361 E62.80248
G1 X64.361 Y34.581 E64.67275
G1 X64.361 Y33.987 E64.70209
G1 X36.987 Y61.361 E66.61386
G1 X36.393 Y61.361 E66.64321
G1 X64.361 Y33.393 E68.59648
G1 X64.361 Y32.798 E68.62582
G1 X35.798 Y61.361 E70.62059
G1 X35.204 Y61.361 E70.64994
G1 X64.361 Y32.204 E72.68621
G1 X64.361 Y31.610 E72.71555
G1 X34.610 Y61.361 E74.79332
G1 X34.016 Y61.361 E74.82267
G1 X64.361 Y31.016 E76.94193
G1 X64.361 Y30.421 E76.97128
G1 X33.421 Y61.361 E79.13205
G1 X32.827 Y61.361 E79.16139
G1 X64.361 Y29.827 E81.36366
G1 X64.361 Y29.233 E81.39300
G1 X32.233 Y61.361 E83.63677
G1 X31.659 Y61.341 E83.66514
G1 X64.341 Y28.659 E85.94762
G1 X63.767 Y28.639 E85.97599
G1 X31.639 Y60.767 E88.21976
G1 X31.639 Y60.173 E88.24910
G1 X63.173 Y28.639 E90.45137
G1 X62.579 Y28.639 E90.48072
G1 X31.639 Y59.579 E92.64148
G1 X31.639 Y58.984 E92.67083
G1 X61.984 Y28.639 E94.79010
G1 X61.390 Y28.639 E94.81944
G1 X31.639 Y58.390 E96.89721
G1 X31.639 Y57.796 E96.92655
G1 X60.796 Y28.639 E98.96282
G1 X60.202 Y28.639 E98.99217
G1 X31.639 Y57.202 E100.98694
G1 X31.639 Y56.607 E101.01628
G1 X59.607 Y28.639 E102.96955
G1 X59.013 Y28.639 E102.99890
G1 X31.639 Y56.013 E104.91067
G1 X31.639 Y55.419 E104.94001
G1 X58.419 Y28.639 E106.81028
G1 X57.825 Y28.639 E106.83963
G1 X31.639 Y54.825 E108.66840
G1 X31.639 Y54.231 E108.69775
G1 X57.231 Y28.639 E110.48502
G1 X56.636 Y28.639 E110.51436
G1 X31.639 Y53.636 E112.26014
G1 X31.639 Y53.042 E112.28948
G1 X56.042 Y28.639 E113.99375
G1 X55.448 Y28.639 E114.02310
G1 X31.639 Y52.448 E115.68587
G1 X31.639 Y51.854 E115.71522
G1 X54.854 Y28.639 E117.33649
G1 X54.259 Y28.639 E117.36584
G1 X31.639 Y51.259 E118.94561
G1 X31.639 Y50.665 E118.97495
G1 X53.665 Y28.639 E120.51323
G1 X53.071 Y28.639 E120.54257
G1 X31.639 Y50.071 E122.03935
G1 X31.639 Y49.477 E122.06869
G1 X52.477 Y28.639 E123.52397
G1 X51.882 Y28.639 E123.55332
G1 X31.639 Y48.882 E124.96709
G1 X31.639 Y48.288 E124.99644
G1 X51.288 Y28.639 E126.36871
G1 X50.694 Y28.639 E126.39806
G1 X31.639 Y47.694 E127.72884
G1 X31.639 Y47.100 E127.75818
G1 X50.100 Y28.639 E129.04746
G1 X49.506 Y28.639 E129.07680
G1 X31.639 Y46.506 E130.32458
G1 X31.639 Y45.911 E130.35393
G1 X48.911 Y28.639 E131.56021
G1 X48.317 Y28.639 E131.58955
G1 X31.639 Y45.317 E132.75433
G1 X31.639 Y44.723 E132.78368
G1 X47.723 Y28.639 E133.90696
G1 X47.129 Y28.639 E133.93630
G1 X31.639 Y44.129 E135.01808
G1 X31.639 Y43.534 E135.04743
G1 X46.534 Y28.639 E136.08771
G1 X45.940 Y28.639 E136.11705
G1 X31.639 Y42.940 E137.11583
G1 X31.639 Y42.346 E137.14518
G1 X45.346 Y28.639 E138.10246
G1 X44.752 Y28.639 E138.13180
G1 X31.639 Y41.752 E139.04759
G1 X31.639 Y41.158 E139.07693
G1 X44.158 Y28.639 E139.95121
G1 X43.563 Y28.639 E139.98056
G1 X31.639 Y40.563 E140.81334
G1 X31.639 Y39.969 E140.84269
G1 X42.969 Y28.639 E141.63397
G1 X42.375 Y28.639 E141.66332
G1 X31.639 Y39.375 E142.41310
G1 X31.639 Y38.781 E142.44245
G1 X41.781 Y28.639 E143.15073
G1 X41.186 Y28.639 E143.18008
G1 X31.639 Y38.186 E143.84686
G1 X31.639 Y37.592 E143.87621
G1 X40.592 Y28.639 E144.50149
G1 X39.998 Y28.639 E144.53084
G1 X31.639 Y36.998 E145.11462
G1 X31.639 Y36.404 E145.14397
G1 X39.404 Y28.639 E145.68625
G1 X38.809 Y28.639 E145.71560
G1 X31.639 Y35.809 E146.21639
G1 X31.639 Y35.215 E146.24573
G1 X38.215 Y28.639 E146.70502
G1 X37.621 Y28.639 E146.73436
G1 X31.639 Y34.621 E147.15215
G1 X31.639 Y34.027 E147.18150
G1 X37.027 Y28.639 E147.55779
G1 X36.433 Y28.639 E147.58713
G1 X31.639 Y33.433 E147.92192
G1 X31.639 Y32.838 E147.95126
G1 X35.838 Y28.639 E148.24456
G1 X35.244 Y28.639 E148.27390
G1 X31.639 Y32.244 E148.52569
G1 X31.639 Y31.650 E148.55503
G1 X34.650 Y28.639 E148.76533
G1 X34.056 Y28.639 E148.79467
G1 X31.639 Y31.056 E148.96346
G1 X31.639 Y30.461 E148.99281
