; generated by Slic3r 1.1.7 on 2014-09-30 at 20:46:46

; perimeters extrusion width = 0.40mm
; infill extrusion width = 0.42mm
; solid infill extrusion width = 0.42mm
; top infill extrusion width = 0.42mm
; support material extrusion width = 0.40mm

G21 ; set units to millimeters
M107
M104 S195 ; set temperature
G28 ; home all axes
G1 Z5 F5000 ; lift nozzle
M109 S195 ; wait for temperature to be reached
G90 ; use absolute coordinates
G92 E0
M82 ; use absolute distances for extrusion
G1 F1800.000 E-1.00000
G92 E0
G1 Z0.300 F7800.000
G1 X36.423 Y31.043 F7800.000
G1 E1.00000 F1800.000
G1 X38.121 Y29.456 E1.10958 F2100.000
G1 X40.100 Y28.573 E1.21180
G1 X42.508 Y27.933 E1.32929
G1 X45.077 Y27.338 E1.45362
G1 X46.958 Y27.177 E1.54268
G1 X54.320 Y27.411 E1.89002
G1 X56.596 Y27.881 E1.99960 F2100.000
G1 X58.581 Y29.089 E2.10918
G1 X59.746 Y30.413 E2.19235
G1 X62.798 Y34.978 E2.45129
G1 X66.691 Y41.670 E2.81639
G1 X67.499 Y43.849 E2.92598
G1 X67.527 Y46.172 E3.03556
G1 X66.624 Y48.621 E3.15860
G1 X63.648 Y53.464 E3.42668
G1 X59.616 Y58.922 E3.74667
G1 X57.936 Y60.527 E3.85625
G1 X55.699 Y61.501 E3.97132
G1 X50.811 Y62.647 E4.20808
G1 X49.287 Y62.827 E4.28044
G1 X41.547 Y62.859 E4.64544
G1 X39.256 Y62.471 E4.75502
G1 X37.229 Y61.335 E4.86461
G1 X35.669 Y59.526 E4.97724
G1 X28.947 Y48.183 E5.59898
G1 X28.121 Y46.011 E5.70856
G1 X28.075 Y43.688 E5.81814
G1 X29.243 Y40.792 E5.96539
G1 X32.040 Y36.842 E6.19363
G1 X36.387 Y31.091 E6.53358
G1 X36.742 Y31.285 F7800.000
G1 X38.397 Y29.754 E6.63987 F2100.000
G1 X40.203 Y28.959 E6.73292
G1 X42.604 Y28.322 E6.85008
G1 X45.131 Y27.734 E6.97240
G1 X46.945 Y27.576 E7.05830
G1 X54.307 Y27.811 E7.40564
G1 X56.512 Y28.278 E7.51193 F2100.000
G1 X58.418 Y29.481 E7.61821
G1 X59.414 Y30.636 E7.69015
G1 X62.453 Y35.179 E7.94785
G1 X66.346 Y41.871 E8.31295
G1 X67.118 Y43.988 E8.41924
G1 X67.109 Y46.242 E8.52553
G1 X66.283 Y48.413 E8.63505
G1 X63.327 Y53.227 E8.90143
G1 X59.294 Y58.684 E9.22141
G1 X57.657 Y60.233 E9.32770
G1 X55.608 Y61.112 E9.43285
G1 X50.720 Y62.258 E9.66961
G1 X49.285 Y62.427 E9.73772
G1 X41.545 Y62.459 E10.10272
G1 X39.325 Y62.071 E10.20901
G1 X37.377 Y60.938 E10.31529
G1 X36.013 Y59.322 E10.41500
G1 X29.291 Y47.980 E11.03673
G1 X28.501 Y45.869 E11.14302
G1 X28.492 Y43.615 E11.24931
G1 X29.570 Y41.023 E11.38166
G1 X32.359 Y37.083 E11.60929
G1 X36.706 Y31.332 E11.94925
G1 F1800.000 E10.94925
G92 E0
G1 X53.742 Y49.741 F7800.000
G1 E1.00000 F1800.000
G1 X57.701 Y47.773 E1.20849 F2520.000
G1 X57.590 Y48.154 E1.22720
G1 X57.368 Y48.740 E1.25674
G1 X53.741 Y50.775 E1.45288
G1 X46.756 Y52.354 E1.79055
G1 X50.366 Y54.719 E1.99406
G1 X49.399 Y54.957 E2.04100
G1 X45.871 Y52.857 E2.23461
G1 X40.999 Y47.582 E2.57323
G1 X40.840 Y50.040 E2.68941
G1 X40.746 Y52.017 E2.78274
G1 X40.434 Y51.686 E2.80419
G1 X40.075 Y51.247 E2.83095
G1 X40.068 Y49.113 E2.93156
G1 X40.137 Y47.090 E3.02701
G1 X41.146 Y43.588 E3.19889
G1 X42.539 Y40.223 E3.37063
G1 X39.550 Y41.543 E3.52470
G1 X37.957 Y42.405 E3.61011
G1 X37.789 Y42.215 E3.62208
G1 X38.234 Y41.585 E3.65850
G1 X38.443 Y41.371 E3.67260
G1 X38.932 Y41.083 E3.69933
G1 X42.258 Y39.239 E3.87868
G1 X49.366 Y37.671 E4.22193
G1 X45.551 Y35.218 E4.43583
G1 X46.187 Y35.058 E4.46674
G1 X46.543 Y35.010 E4.48365
G1 X50.122 Y37.149 E4.68029
G1 X55.038 Y42.532 E5.02408
G1 X55.253 Y37.993 E5.23835
G1 X55.663 Y38.416 E5.26613
G1 X55.923 Y38.747 E5.28595
G1 X55.866 Y42.918 E5.48267
G1 X53.760 Y49.684 E5.81684
G1 X54.404 Y48.965 F7800.000
G1 X58.200 Y47.079 E6.01674 F2520.000
G1 X58.652 Y46.586 E6.04825
G1 X58.888 Y46.775 E6.06248
G1 X58.072 Y47.928 E6.12911
G1 X57.969 Y48.281 E6.14644
G1 X57.693 Y49.014 E6.18336
G1 X56.793 Y49.535 E6.23238
G1 X53.887 Y51.152 E6.38922
G1 X47.765 Y52.536 E6.68520
G1 X50.779 Y54.512 E6.85516
G1 X51.325 Y54.903 E6.88680
G1 X49.343 Y55.385 E6.98297
G1 X45.620 Y53.173 E7.18718
G1 X41.338 Y48.539 E7.48471
G1 X41.239 Y50.063 E7.55672
G1 X41.109 Y52.811 E7.68643
G1 X41.313 Y53.460 E7.71854
G1 X41.032 Y53.570 E7.73278
G1 X40.431 Y52.266 E7.80049
G1 X40.133 Y51.950 E7.82096
G1 X39.675 Y51.390 E7.85508
G1 X39.668 Y49.107 E7.96275
G1 X39.739 Y47.027 E8.06088
G1 X40.768 Y43.455 E8.23617
G1 X41.787 Y40.992 E8.36189
G1 X39.726 Y41.902 E8.46815
G1 X37.837 Y42.925 E8.56945
G1 X37.633 Y43.088 E8.58175
G1 X36.272 Y44.664 E8.67997
G1 X35.725 Y44.444 E8.70780
G1 X37.926 Y41.328 E8.88771
G1 X38.195 Y41.053 E8.90582
G1 X38.735 Y40.735 E8.93537
G1 X42.113 Y38.863 E9.11752
G1 X48.341 Y37.488 E9.41831
G1 X44.553 Y35.051 E9.63073
G1 X46.111 Y34.665 E9.70645
G1 X46.622 Y34.595 E9.73077
G1 X50.376 Y36.835 E9.93691
G1 X54.684 Y41.548 E10.23800
G1 X54.900 Y37.051 E10.45030
G1 X55.965 Y38.153 E10.52256
G1 X56.322 Y38.607 E10.54980
G1 X56.265 Y42.980 E10.75606
G1 X54.422 Y48.908 E11.04880
G1 X55.067 Y48.189 F7800.000
G1 X57.957 Y46.753 E11.20100 F1512.000
G1 X59.677 Y44.847 E11.32208
G1 X60.504 Y45.180 E11.36414
G1 X58.437 Y48.105 E11.53303
G1 X58.349 Y48.408 E11.54793
G1 X58.017 Y49.287 E11.59222
G1 X56.990 Y49.883 E11.64824
G1 X54.033 Y51.528 E11.80781
G1 X48.774 Y52.719 E12.06209
G1 X51.469 Y54.503 E12.21448
G1 X52.609 Y54.752 E12.26953
G1 X52.613 Y55.008 E12.28162
G1 X49.287 Y55.813 E12.44297
G1 X48.741 Y55.504 E12.47255
G1 X45.370 Y53.489 E12.65777
G1 X41.677 Y49.497 E12.91422
G1 X41.511 Y52.760 E13.06831
G1 X42.267 Y55.093 E13.18395
G1 X42.220 Y55.108 E13.18624
G1 X42.267 Y55.219 E13.19193
G1 X41.595 Y55.745 E13.23218
G1 X40.095 Y52.493 E13.40108
G1 X39.832 Y52.214 E13.41913
G1 X39.276 Y51.534 E13.46060
G1 X39.268 Y49.101 E13.57532
G1 X39.341 Y46.964 E13.67613
G1 X40.390 Y43.323 E13.85484
G1 X41.036 Y41.761 E13.93455
G1 X39.902 Y42.261 E13.99299
G1 X38.060 Y43.260 E14.09181
G1 X37.910 Y43.380 E14.10089
G1 X36.388 Y45.142 E14.21069
G1 X35.106 Y44.626 E14.27584
G1 X37.618 Y41.071 E14.48109
G1 X37.946 Y40.735 E14.50322
G1 X38.537 Y40.387 E14.53558
G1 X41.968 Y38.486 E14.72054
G1 X47.317 Y37.304 E14.97886
G1 X44.531 Y35.513 E15.13502
G1 X43.242 Y35.235 E15.19720
G1 X43.236 Y34.982 E15.20912
G1 X46.035 Y34.272 E15.34532
G1 X46.702 Y34.180 E15.37704
G1 X47.259 Y34.496 E15.40726
G1 X50.631 Y36.521 E15.59271
G1 X54.329 Y40.564 E15.85109
G1 X54.489 Y37.257 E16.00722
G1 X53.689 Y34.786 E16.12968
G1 X54.028 Y34.521 E16.14996
G1 X54.955 Y36.533 E16.25443
G1 X56.266 Y37.889 E16.34339
G1 X56.721 Y38.467 E16.37805
G1 X56.726 Y39.107 E16.40827
G1 X56.664 Y43.042 E16.59385
G1 X55.085 Y48.132 E16.84516
G1 X55.149 Y48.581 F7800.000
G1 F1800.000 E15.84516
G92 E0
G1 X55.261 Y43.939 F7800.000
G1 E1.00000 F1800.000
G1 X49.291 Y37.969 E1.41693 F2100.000
G1 X48.803 Y38.076 E1.44159
G1 X55.120 Y44.392 E1.88272
G1 X54.978 Y44.846 E1.90619
G1 X48.315 Y38.183 E2.37152
G1 X47.827 Y38.290 E2.39618
G1 X54.837 Y45.300 E2.88571
G1 X54.696 Y45.754 E2.90918
G1 X47.340 Y38.398 E3.42291
G1 X46.852 Y38.505 E3.44758
G1 X54.554 Y46.208 E3.98551
G1 X54.413 Y46.661 E4.00898
G1 X46.364 Y38.612 E4.57112
G1 X45.876 Y38.719 E4.59578
G1 X54.272 Y47.115 E5.18212
G1 X54.131 Y47.569 E5.20559
G1 X45.388 Y38.827 E5.81612
G1 X44.901 Y38.934 E5.84079
G1 X53.989 Y48.023 E6.47553
G1 X53.848 Y48.477 E6.49900
G1 X44.413 Y39.041 E7.15794
G1 X43.925 Y39.148 E7.18260
G1 X53.707 Y48.930 E7.86575
G1 X53.566 Y49.384 E7.88922
G1 X43.707 Y39.526 E8.57770
G1 X43.385 Y39.799 E8.59855
G1 X53.388 Y49.802 E9.29712
G1 X53.073 Y50.082 E9.31793
G1 X43.064 Y40.072 E10.01697
G1 X42.772 Y40.376 E10.03775
G1 X52.806 Y50.410 E10.73849
G1 X52.563 Y50.762 E10.75962
G1 X42.598 Y40.797 E11.45557
G1 X42.424 Y41.218 E11.47806
G1 X52.078 Y50.871 E12.15227
G1 X51.592 Y50.981 E12.17685
G1 X42.249 Y41.638 E12.82931
G1 X42.075 Y42.059 E12.85181
G1 X51.107 Y51.091 E13.48254
G1 X50.621 Y51.200 E13.50712
G1 X41.901 Y42.480 E14.11611
G1 X41.727 Y42.901 E14.13860
G1 X50.136 Y51.310 E14.72586
G1 X49.650 Y51.419 E14.75043
G1 X41.553 Y43.322 E15.31595
G1 X41.385 Y43.749 E15.33861
G1 X49.165 Y51.529 E15.88195
G1 X48.679 Y51.638 E15.90653
G1 X41.252 Y44.211 E16.42525
G1 X41.119 Y44.673 E16.44899
G1 X48.194 Y51.748 E16.94310
G1 X47.708 Y51.858 E16.96768
G1 X40.986 Y45.135 E17.43717
G1 X40.853 Y45.597 E17.46091
G1 X47.223 Y51.967 E17.90579
G1 X46.737 Y52.077 E17.93037
G1 X40.719 Y46.059 E18.35063
G1 X41.146 Y47.081 F7800.000
G1 X45.978 Y51.912 E18.68803 F2100.000
G1 X45.550 Y52.080 E18.71071
G1 X45.181 Y51.711 E18.73646
G1 F1800.000 E17.73646
G92 E0
G1 X54.849 Y42.932 F7800.000
G1 E1.00000 F1800.000
G1 X50.092 Y38.175 E1.33220 F2100.000
G1 X50.690 Y38.178 E1.36171
G1 X50.363 Y37.851 E1.38452
G1 X50.125 Y37.709 F7800.000
G1 X49.853 Y37.481 E1.40782 F420.000
G1 X48.443 Y36.606 E1.51683
G1 X48.443 Y36.605 F7800.000
G1 X46.254 Y35.251 E1.59054 F420.000
G1 F1800.000 E0.59054
G92 E0
G1 X43.154 Y39.242 F7800.000
G1 E1.00000 F1800.000
G1 X42.699 Y39.628 E1.03920 F420.000
G1 X42.442 Y39.714 E1.05703
G1 X40.218 Y40.820 E1.22014
G1 X40.218 Y40.820 F7800.000
G1 X39.390 Y41.231 E1.24660 F420.000
G1 X38.655 Y41.641 E1.27071
G1 X38.378 Y41.862 E1.28086
G1 X37.276 Y42.913 F7800.000
G1 X36.147 Y44.358 E1.33338 F420.000
G1 F1800.000 E0.33338
G92 E0
G1 X40.431 Y46.793 F7800.000
G1 E1.00000 F1800.000
G1 X40.579 Y47.192 E1.02794 F420.000
G1 X40.463 Y49.774 E1.19768
G1 X40.463 Y49.774 F7800.000
G1 X40.426 Y51.360 E1.24312 F420.000
G1 F1800.000 E0.24312
G92 E0
G1 X41.246 Y53.701 F7800.000
G1 E1.00000 F1800.000
G1 X41.708 Y54.881 E1.08325 F420.000
G1 X41.748 Y55.070 E1.09593
G1 X41.846 Y55.295 E1.11201
G1 F1800.000 E0.11201
G92 E0
G1 X45.767 Y52.460 F7800.000
G1 E1.00000 F1800.000
G1 X46.203 Y52.530 E1.02904 F420.000
G1 X48.441 Y53.931 E1.20244
G1 X48.441 Y53.931 F7800.000
G1 X49.652 Y54.685 E1.24329 F420.000
G1 F1800.000 E0.24329
G92 E0
G1 X53.339 Y50.664 F7800.000
G1 E1.00000 F1800.000
G1 X53.625 Y50.313 E1.02979 F420.000
G1 X56.090 Y49.015 E1.21274
G1 X56.090 Y49.015 F7800.000
G1 X57.293 Y48.372 E1.25180 F420.000
G1 F1800.000 E0.25180
G92 E0
G1 X58.894 Y46.524 F7800.000
G1 E1.00000 F1800.000
G1 X59.968 Y45.179 E1.11299 F420.000
G1 F1800.000 E0.11299
G92 E0
G1 X55.384 Y43.209 F7800.000
G1 E1.00000 F1800.000
G1 X55.445 Y42.852 E1.02380 F420.000
G1 X55.496 Y41.239 E1.12978
G1 X55.496 Y41.239 F7800.000
G1 X55.572 Y38.624 E1.20471 F420.000
G1 F1800.000 E0.20471
G92 E0
G1 X54.632 Y36.767 F7800.000
G1 E1.00000 F1800.000
G1 X54.601 Y36.538 E1.00662 F420.000
G1 X54.416 Y36.064 E1.02119
M106 S255
G1 F1800.000 E0.02119
G92 E0
G1 Z0.600 F7800.000
G1 X53.360 Y50.180 F7800.000
G1 E1.00000 F1800.000
G1 X56.570 Y48.585 E1.16904 F3072.073
G1 X57.644 Y48.117 E1.22430
G1 X57.228 Y49.082 E1.27390
G1 X54.301 Y50.614 E1.42965
G1 X53.518 Y50.976 E1.47037
G1 X50.343 Y51.614 E1.62305
G1 X46.180 Y52.242 E1.82162
G1 X49.121 Y54.174 E1.98758
G1 X50.126 Y54.918 E2.04656
G1 X49.064 Y55.023 E2.09692
G1 X46.279 Y53.258 E2.25242
G1 X45.573 Y52.760 E2.29311
G1 X43.428 Y50.324 E2.44620
G1 X40.921 Y47.179 E2.63588
G1 X40.497 Y51.099 E2.82181
G1 X40.454 Y51.734 E2.85184
G1 X39.835 Y50.915 E2.90025
G1 X39.920 Y48.448 E3.01666
G1 X40.060 Y46.747 E3.09712
G1 X40.577 Y44.976 E3.18414
G1 X42.668 Y39.925 E3.44192
G1 X38.344 Y41.834 E3.66479
G1 X37.908 Y42.070 E3.68818
G1 X37.742 Y41.851 E3.70116
G1 X38.604 Y40.977 E3.75902
G1 X41.702 Y39.357 E3.92390
G1 X42.480 Y39.002 E3.96420
G1 X45.484 Y38.404 E4.10866
G1 X49.698 Y37.809 E4.30934
G1 X46.541 Y35.501 E4.49379
G1 X45.934 Y35.093 E4.52826
G1 X46.928 Y34.944 E4.57568
G1 X49.897 Y36.839 E4.74179
G1 X50.421 Y37.211 E4.77207
G1 X53.013 Y40.226 E4.95959
G1 X55.072 Y42.873 E5.11774
G1 X55.511 Y38.826 E5.30973
G1 X55.547 Y38.264 E5.33629
G1 X56.161 Y39.038 E5.38289
G1 X56.006 Y42.558 E5.54905
G1 X55.946 Y43.198 E5.57937
G1 X54.641 Y46.980 E5.76803
G1 X53.382 Y50.125 E5.92776
G1 X54.121 Y49.355 F7800.000
G1 X56.401 Y48.222 E6.04784 F3072.073
G1 X58.283 Y47.402 E6.14464
G1 X57.987 Y48.330 E6.19057
G1 X57.531 Y49.375 E6.24437
G1 X54.478 Y50.973 E6.40683
G1 X53.643 Y51.359 E6.45024
G1 X50.413 Y52.008 E6.60560
G1 X47.275 Y52.481 E6.75525
G1 X49.350 Y53.846 E6.87240
G1 X51.053 Y55.107 E6.97229
G1 X50.049 Y55.327 E7.02073
G1 X48.962 Y55.433 E7.07225
G1 X46.056 Y53.590 E7.23450
G1 X45.304 Y53.060 E7.27788
G1 X43.122 Y50.581 E7.43365
G1 X41.214 Y48.188 E7.57796
G1 X40.895 Y51.134 E7.71766
G1 X40.788 Y52.727 E7.79295
G1 X40.275 Y52.167 E7.82877
G1 X39.431 Y51.038 E7.89525
G1 X39.521 Y48.424 E8.01856
G1 X39.664 Y46.674 E8.10136
G1 X40.200 Y44.842 E8.19139
G1 X41.917 Y40.694 E8.40308
G1 X38.521 Y42.193 E8.57814
G1 X37.914 Y42.522 E8.61070
G1 X37.463 Y42.884 E8.63793
G1 X36.380 Y44.138 E8.71609
G1 X35.792 Y43.901 E8.74597
G1 X37.392 Y41.637 E8.87669
G1 X38.368 Y40.650 E8.94217
G1 X41.527 Y38.997 E9.11027
G1 X42.356 Y38.618 E9.15328
G1 X45.417 Y38.010 E9.30047
G1 X48.667 Y37.551 E9.45523
G1 X46.311 Y35.829 E9.59286
G1 X44.849 Y34.845 E9.67596
G1 X47.030 Y34.534 E9.77986
G1 X50.121 Y36.507 E9.95280
G1 X50.693 Y36.913 E9.98586
G1 X53.323 Y39.973 E10.17614
G1 X54.781 Y41.847 E10.28811
G1 X55.112 Y38.790 E10.43309
G1 X55.214 Y37.215 E10.50752
G1 X56.567 Y38.922 E10.61020
G1 X56.405 Y42.585 E10.78313
G1 X56.339 Y43.283 E10.81619
G1 X55.016 Y47.119 E11.00756
G1 X54.143 Y49.300 E11.11831
G1 X54.882 Y48.531 F7800.000
G1 X56.233 Y47.859 E11.18949 F1843.244
G1 X57.871 Y47.145 E11.27373
G1 X58.859 Y46.172 E11.33915
G1 X59.072 Y46.299 E11.35082
G1 X58.888 Y46.927 E11.38169
G1 X58.670 Y47.505 E11.41081
G1 X58.362 Y48.472 E11.45867
G1 X57.835 Y49.667 E11.52028
G1 X54.655 Y51.332 E11.68955
G1 X53.768 Y51.742 E11.73565
G1 X50.482 Y52.402 E11.89369
G1 X48.370 Y52.720 E11.99442
G1 X49.579 Y53.518 E12.06275
G1 X51.075 Y54.625 E12.15049
G1 X52.331 Y54.961 E12.21184
G1 X52.328 Y55.210 E12.22360
G1 X50.110 Y55.723 E12.33094
G1 X48.863 Y55.843 E12.39004
G1 X45.834 Y53.923 E12.55918
G1 X45.035 Y53.360 E12.60524
G1 X42.815 Y50.838 E12.76370
G1 X41.507 Y49.197 E12.86263
G1 X41.294 Y51.168 E12.95611
G1 X41.206 Y52.478 E13.01799
G1 X41.556 Y53.825 E13.08364
G1 X41.338 Y53.945 E13.09536
G1 X40.761 Y53.332 E13.13505
G1 X40.432 Y52.930 E13.15955
G1 X39.965 Y52.421 E13.19216
G1 X39.026 Y51.161 E13.26626
G1 X39.121 Y48.401 E13.39646
G1 X39.269 Y46.602 E13.48161
G1 X39.822 Y44.708 E13.57465
G1 X41.165 Y41.463 E13.74025
G1 X38.697 Y42.553 E13.86749
G1 X38.136 Y42.857 E13.89757
G1 X37.739 Y43.176 E13.92158
G1 X36.445 Y44.674 E14.01492
G1 X36.088 Y44.452 E14.03475
G1 X35.174 Y44.083 E14.08125
G1 X37.083 Y41.380 E14.23731
G1 X38.132 Y40.322 E14.30756
G1 X41.351 Y38.638 E14.47888
G1 X42.232 Y38.235 E14.52459
G1 X45.350 Y37.615 E14.67451
G1 X47.636 Y37.293 E14.78335
G1 X46.081 Y36.156 E14.87416
G1 X44.919 Y35.374 E14.94020
G1 X43.615 Y35.014 E15.00402
G1 X43.618 Y34.768 E15.01565
G1 X45.004 Y34.420 E15.08305
G1 X46.851 Y34.144 E15.17114
G1 X47.135 Y34.126 E15.18455
G1 X50.344 Y36.175 E15.36410
G1 X50.964 Y36.615 E15.39993
G1 X53.633 Y39.719 E15.59297
G1 X54.489 Y40.821 E15.65877
G1 X54.713 Y38.755 E15.75675
G1 X54.794 Y37.518 E15.81521
G1 X54.452 Y36.202 E15.87933
G1 X54.666 Y36.081 E15.89096
G1 X55.536 Y36.978 E15.94987
G1 X56.805 Y38.559 E16.04543
G1 X56.972 Y38.808 E16.05960
G1 X56.804 Y42.613 E16.23922
G1 X56.733 Y43.368 E16.27500
G1 X55.390 Y47.259 E16.46909
G1 X54.904 Y48.475 E16.53085
G1 X54.954 Y48.924 F7800.000
G1 X53.704 Y48.582 F7800.000
G1 X51.105 Y51.181 E16.71238 F2560.060
G1 X50.356 Y51.332 E16.75012
G1 X54.103 Y47.584 E17.01186
G1 X54.478 Y46.611 F7800.000
G1 X49.647 Y51.442 E17.34923 F2560.060
G1 X48.942 Y51.548 E17.38444
G1 X54.793 Y45.697 E17.79307
G1 X55.109 Y44.782 F7800.000
G1 X48.237 Y51.654 E18.27297 F2560.060
G1 X47.532 Y51.760 E18.30818
G1 X55.402 Y43.890 E18.85782
G1 X54.913 Y43.781 E18.88258
G1 X46.827 Y51.867 E19.44728
G1 X46.122 Y51.973 E19.48249
G1 X54.890 Y43.205 E20.09481
G1 X54.680 Y42.816 E20.11663
G1 X45.664 Y51.832 E20.74628
G1 X45.100 Y51.797 E20.77419
G1 X54.418 Y42.479 E21.42494
G1 X54.156 Y42.143 E21.44601
G1 X44.815 Y51.484 E22.09839
G1 X44.535 Y51.166 E22.11934
G1 X53.894 Y41.806 E22.77300
G1 X53.632 Y41.469 E22.79407
G1 X44.254 Y50.847 E23.44902
G1 X43.974 Y50.529 E23.46997
G1 X53.371 Y41.132 E24.12620
G1 X53.109 Y40.795 E24.14727
G1 X43.694 Y50.210 E24.80479
G1 X43.425 Y49.880 E24.82581
G1 X52.847 Y40.459 E25.48379
G1 X52.573 Y40.134 E25.50477
