; generated by Slic3r 1.1.7 on 2014-10-01 at 20:57:06

; perimeters extrusion width = 0.40mm
; infill extrusion width = 0.42mm
; solid infill extrusion width = 0.42mm
; top infill extrusion width = 0.42mm

G21 ; set units to millimeters
M107
M104 S195 ; set temperature
G28 ; home all axes
G1 Z5 F5000 ; lift nozzle
M109 S195 ; wait for temperature to be reached
G90 ; use absolute coordinates
G92 E0
M82 ; use absolute distances for extrusion
G1 F1800.000 E-1.00000
G92 E0
G1 Z0.300 F7800.000
G1 X27.849 Y27.989 F7800.000
G1 E1.00000 F1800.000
G1 X29.608 Y26.470 E1.10958 F2100.000
G1 X31.775 Y25.632 E1.21917
G1 X33.107 Y25.500 E1.28227
G1 X62.920 Y25.500 E2.68817
G1 X65.210 Y25.898 E2.79775
G1 X67.232 Y27.042 E2.90733 F2100.000
G1 X68.751 Y28.801 E3.01692
G1 X69.588 Y30.969 E3.12650
G1 X69.720 Y32.300 E3.18961
G1 X69.720 Y57.700 E4.38735
G1 X69.323 Y59.989 E4.49693
G1 X68.178 Y62.011 E4.60651
G1 X66.419 Y63.530 E4.71610
G1 X64.252 Y64.368 E4.82568
G1 X62.920 Y64.499 E4.88879
G1 X33.107 Y64.499 E6.29468
G1 X30.817 Y64.102 E6.40426
G1 X28.795 Y62.958 E6.51385
G1 X27.276 Y61.199 E6.62343
G1 X26.439 Y59.031 E6.73301
G1 X26.307 Y57.700 E6.79612
G1 X26.307 Y32.300 E7.99386
G1 X26.704 Y30.011 E8.10344
G1 X27.819 Y28.041 E8.21020
G1 X28.209 Y28.200 F7800.000
G1 X28.245 Y28.138 E8.21358 F2100.000
G1 X29.990 Y26.711 E8.31986
G1 X33.107 Y25.900 E8.47176
G1 X62.920 Y25.900 E9.87765
G1 X65.139 Y26.297 E9.98394
G1 X67.082 Y27.439 E10.09022 F2100.000
G1 X68.509 Y29.183 E10.19651
G1 X69.320 Y32.300 E10.34840
G1 X69.320 Y57.700 E11.54614
G1 X68.923 Y59.918 E11.65243
G1 X67.782 Y61.862 E11.75872
G1 X66.037 Y63.289 E11.86500
G1 X62.920 Y64.099 E12.01690
G1 X33.107 Y64.099 E13.42279
G1 X30.888 Y63.703 E13.52907
G1 X28.945 Y62.561 E13.63536
G1 X27.518 Y60.817 E13.74165
G1 X26.707 Y57.700 E13.89354
G1 X26.707 Y32.300 E15.09128
G1 X27.104 Y30.082 E15.19757
G1 X28.179 Y28.252 E15.29765
G1 F1800.000 E14.29765
G92 E0
G1 X59.815 Y41.503 F7800.000
G1 E1.00000 F1800.000
G1 X59.087 Y41.924 E1.03966 F2520.000
G1 X58.251 Y42.012 E1.07931
G1 X57.451 Y41.752 E1.11897
G1 X56.826 Y41.189 E1.15862
G1 X56.484 Y40.421 E1.19828
G1 X56.484 Y39.580 E1.23794
G1 X56.826 Y38.812 E1.27760
G1 X57.451 Y38.249 E1.31724
G1 X58.251 Y37.989 E1.35690
G1 X58.860 Y38.053 E1.38580
G1 X59.087 Y38.077 E1.39656 F2520.000
G1 X59.815 Y38.498 E1.43622
G1 X60.310 Y39.178 E1.47588
G1 X60.484 Y40.000 E1.51553
G1 X60.310 Y40.823 E1.55518
G1 X59.850 Y41.455 E1.59201
G1 X59.542 Y41.199 F7800.000
G1 X58.961 Y41.535 E1.62365 F2520.000
G1 X58.293 Y41.605 E1.65529
G1 X57.655 Y41.398 E1.68692
G1 X57.157 Y40.949 E1.71856
G1 X56.884 Y40.336 E1.75020
G1 X56.884 Y39.665 E1.78184
G1 X57.157 Y39.052 E1.81348
G1 X57.655 Y38.603 E1.84511
G1 X58.157 Y38.440 E1.87000
G1 X58.293 Y38.396 E1.87675 F2520.000
G1 X58.961 Y38.466 E1.90838
G1 X59.542 Y38.802 E1.94002
G1 X59.936 Y39.344 E1.97166
G1 X60.075 Y40.000 E2.00330
G1 X59.936 Y40.657 E2.03493
G1 X59.577 Y41.151 E2.06374
G1 X59.268 Y40.896 F7800.000
G1 X58.834 Y41.146 E2.08736 F1512.000
G1 X58.336 Y41.198 E2.11098
G1 X57.860 Y41.044 E2.13460
G1 X57.488 Y40.708 E2.15822
G1 X57.284 Y40.251 E2.18183
G1 X57.284 Y39.750 E2.20545
G1 X57.488 Y39.293 E2.22907
G1 X57.860 Y38.957 E2.25269
G1 X58.336 Y38.803 E2.27631
G1 X58.776 Y38.849 E2.29719
G1 X58.834 Y38.855 E2.29993 F1512.000
G1 X59.268 Y39.105 E2.32354
G1 X59.562 Y39.511 E2.34716
G1 X59.666 Y40.000 E2.37078
G1 X59.562 Y40.490 E2.39440
G1 X59.303 Y40.847 E2.41519
G1 F1800.000 E1.41519
G92 E0
G1 X58.772 Y38.791 F7800.000
G1 X58.519 Y48.017 F7800.000
G1 E1.00000 F1800.000
G1 X58.860 Y48.053 E1.01615 F2520.000
G1 X59.087 Y48.077 E1.02691 F2520.000
G1 X59.815 Y48.498 E1.06656
G1 X60.310 Y49.178 E1.10622
G1 X60.484 Y50.000 E1.14588
G1 X60.310 Y50.823 E1.18553
G1 X59.815 Y51.503 E1.22519
G1 X59.087 Y51.924 E1.26484
G1 X58.251 Y52.012 E1.30450
G1 X57.451 Y51.752 E1.34416
G1 X56.826 Y51.189 E1.38381
G1 X56.484 Y50.421 E1.42347
G1 X56.484 Y49.580 E1.46312
G1 X56.826 Y48.812 E1.50278
G1 X57.451 Y48.249 E1.54244
G1 X58.251 Y47.989 E1.58209
G1 X58.460 Y48.011 E1.59201
G1 X58.478 Y48.415 F7800.000
G1 X58.961 Y48.466 E1.61491 F2520.000
G1 X59.542 Y48.801 E1.64655
G1 X59.936 Y49.344 E1.67819
G1 X60.075 Y50.000 E1.70982
G1 X59.936 Y50.657 E1.74146
G1 X59.542 Y51.199 E1.77309
G1 X58.961 Y51.535 E1.80473
G1 X58.293 Y51.605 E1.83637
G1 X57.655 Y51.398 E1.86801
G1 X57.549 Y51.302 E1.87476
G1 X57.157 Y50.949 E1.89964
G1 X56.884 Y50.336 E1.93128
G1 X56.884 Y49.665 E1.96292
G1 X57.157 Y49.052 E1.99456
G1 X57.655 Y48.603 E2.02619
G1 X58.157 Y48.440 E2.05108
G1 X58.293 Y48.396 E2.05783 F2520.000
G1 X58.418 Y48.409 E2.06374
G1 X58.436 Y48.813 F7800.000
G1 X58.776 Y48.849 E2.07989 F1512.000
G1 X58.834 Y48.855 E2.08263 F1512.000
G1 X59.268 Y49.105 E2.10625
G1 X59.562 Y49.511 E2.12987
G1 X59.666 Y50.000 E2.15348
G1 X59.562 Y50.490 E2.17710
G1 X59.268 Y50.896 E2.20072
G1 X58.834 Y51.146 E2.22434
G1 X58.336 Y51.198 E2.24796
G1 X57.860 Y51.044 E2.27158
G1 X57.488 Y50.708 E2.29519
G1 X57.284 Y50.251 E2.31881
G1 X57.284 Y49.750 E2.34243
G1 X57.488 Y49.293 E2.36605
G1 X57.860 Y48.957 E2.38967
G1 X58.336 Y48.803 E2.41329
G1 X58.376 Y48.807 E2.41519
G1 X58.811 Y48.802 F7800.000
G1 F1800.000 E1.41519
G92 E0
G1 X55.030 Y56.699 F7800.000
G1 E1.00000 F1800.000
G1 X55.030 Y33.300 E2.10343 F2520.000
G1 X61.920 Y33.300 E2.42834
G1 X61.920 Y56.699 E3.53177
G1 X55.090 Y56.699 E3.85385
G1 X54.630 Y57.099 F7800.000
G1 X54.630 Y32.900 E4.99500 F2520.000
G1 X62.320 Y32.900 E5.35764
G1 X62.320 Y57.099 E6.49879
G1 X54.690 Y57.099 E6.85860
G1 X54.230 Y57.499 F7800.000
G1 X54.230 Y32.500 E8.03748 F1512.000
G1 X62.720 Y32.500 E8.43784
G1 X62.720 Y57.499 E9.61672
G1 X54.290 Y57.499 E10.01425
G1 X54.430 Y57.153 F7800.000
G1 X55.344 Y56.425 F7800.000
G1 X55.304 Y56.385 E10.01705 F2100.000
G1 X55.304 Y55.791 E10.04639
G1 X55.938 Y56.425 E10.09067
G1 X56.532 Y56.425 E10.12001
G1 X55.304 Y55.197 E10.20579
G1 X55.304 Y54.603 E10.23513
G1 X57.127 Y56.425 E10.36240
G1 X57.721 Y56.425 E10.39174
G1 X55.304 Y54.009 E10.56050
G1 X55.304 Y53.415 E10.58984
G1 X58.315 Y56.425 E10.80009
G1 X58.909 Y56.425 E10.82943
G1 X55.304 Y52.821 E11.08118
G1 X55.304 Y52.226 E11.11052
G1 X59.503 Y56.425 E11.40376
G1 X60.097 Y56.425 E11.43310
G1 X55.304 Y51.632 E11.76783
G1 X55.304 Y50.444 F7800.000
G1 X61.285 Y56.425 E12.18555 F2100.000
G1 X60.691 Y56.425 E12.21489
G1 X55.304 Y51.038 E12.59111
G1 X56.431 Y50.977 E12.64685
G1 X55.304 Y49.850 E12.72555
G1 X55.304 Y49.256 E12.75489
G1 X56.210 Y50.161 E12.81812
G1 X56.210 Y49.567 E12.84746
G1 X55.304 Y48.662 E12.91069
G1 X55.304 Y48.068 E12.94003
G1 X56.379 Y49.142 E13.01507
G1 X56.562 Y48.731 E13.03729
G1 X55.304 Y47.473 E13.12511
G1 X55.304 Y46.879 E13.15445
G1 X56.848 Y48.423 E13.26226
G1 X57.161 Y48.141 E13.28303
G1 X55.304 Y46.285 E13.41267
G1 X55.304 Y45.691 E13.44201
G1 X57.544 Y47.931 E13.59842
G1 X57.992 Y47.785 E13.62170
G1 X55.304 Y45.097 E13.80942
G1 X55.304 Y44.503 E13.83876
G1 X58.546 Y47.745 E14.06516
G1 X59.250 Y47.855 E14.10037
G1 X55.304 Y43.909 E14.37597
G1 X55.304 Y43.315 E14.40531
G1 X61.646 Y49.656 E14.84818
G1 X61.646 Y49.062 E14.87752
G1 X55.304 Y42.720 E15.32040
G1 X55.304 Y42.126 E15.34974
G1 X61.646 Y48.468 E15.79262
G1 X61.646 Y47.874 E15.82196
G1 X55.304 Y41.532 E16.26484
G1 X55.304 Y40.938 E16.29418
G1 X61.646 Y47.280 E16.73706
G1 X61.646 Y46.685 E16.76640
G1 X55.304 Y40.344 E17.20928
G1 X55.304 Y39.750 E17.23861
G1 X56.351 Y40.796 E17.31171
G1 X56.210 Y40.061 F7800.000
G1 X55.304 Y39.156 E17.37494 F2100.000
G1 X55.304 Y38.562 E17.40428
G1 X56.227 Y39.484 E17.46869
G1 X56.410 Y39.073 E17.49091
G1 X55.304 Y37.967 E17.56810
G1 X55.304 Y37.373 E17.59744
G1 X56.593 Y38.662 E17.68742
G1 X56.901 Y38.376 E17.70818
G1 X55.304 Y36.779 E17.81966
G1 X55.304 Y36.185 E17.84900
G1 X57.213 Y38.094 E17.98232
G1 X57.619 Y37.906 E18.00442
G1 X55.304 Y35.591 E18.16610
G1 X55.304 Y34.997 E18.19544
G1 X58.068 Y37.760 E18.38844
G1 X58.658 Y37.756 E18.41758
G1 X55.304 Y34.403 E18.65179
G1 X55.304 Y33.809 E18.68113
G1 X59.487 Y37.992 E18.97327
G1 F1800.000 E17.97327
G92 E0
G1 X55.030 Y33.590 F7800.000
G1 X55.030 Y43.590 F7800.000
G1 X57.664 Y42.109 F7800.000
G1 E1.00000 F1800.000
G1 X61.646 Y46.091 E1.27808 F2100.000
G1 X61.646 Y45.497 E1.30742
G1 X58.418 Y42.270 E1.53281
G1 X58.956 Y42.213 E1.55951
G1 X61.646 Y44.903 E1.74735
G1 X61.646 Y44.309 E1.77669
G1 X59.398 Y42.061 E1.93368
G1 X59.774 Y41.844 E1.95516
G1 X61.646 Y43.715 E2.08585
G1 X61.646 Y43.121 E2.11519
G1 X60.101 Y41.576 E2.22305
G1 X60.351 Y41.232 E2.24406
G1 X61.646 Y42.527 E2.33446
G1 X61.646 Y41.932 E2.36380
G1 X60.580 Y40.867 E2.43820
G1 X60.685 Y40.377 E2.46293
G1 X61.646 Y41.338 E2.53006
G1 X61.646 Y40.744 E2.55940
G1 X60.728 Y39.826 E2.62352
G1 X60.567 Y39.072 E2.66161
G1 X61.646 Y40.150 E2.73693
G1 X61.646 Y39.556 E2.76627
G1 X55.665 Y33.575 E3.18399
G1 X56.259 Y33.575 E3.21333
G1 X61.646 Y38.962 E3.58955
G1 X61.646 Y38.368 E3.61889
G1 X56.853 Y33.575 E3.95362
G1 X57.447 Y33.575 E3.98296
G1 X61.646 Y37.774 E4.27620
G1 X61.646 Y37.179 E4.30554
G1 X58.041 Y33.575 E4.55729
G1 X58.635 Y33.575 E4.58663
G1 X61.646 Y36.585 E4.79688
G1 X61.646 Y35.991 E4.82622
G1 X59.229 Y33.575 E4.99498
G1 X59.823 Y33.575 E5.02432
G1 X61.646 Y35.397 E5.15159
G1 X61.646 Y34.803 E5.18093
G1 X60.418 Y33.575 E5.26671
G1 X61.012 Y33.575 E5.29605
G1 X61.646 Y34.209 E5.34034
G1 X61.646 Y33.615 E5.36968
G1 X61.606 Y33.575 E5.37247
G1 F1800.000 E4.37247
G92 E0
G1 X61.646 Y50.250 F7800.000
G1 E1.00000 F1800.000
G1 X60.594 Y49.199 E1.07343 F2100.000
G1 X60.755 Y49.953 E1.11153
G1 X61.646 Y50.844 E1.17376
G1 X61.646 Y51.438 E1.20310
G1 X60.667 Y50.460 E1.27145
G1 X60.559 Y50.946 E1.29604
G1 X61.646 Y52.033 E1.37193
G1 X61.646 Y52.627 E1.40127
G1 X60.309 Y51.290 E1.49462
G1 X60.059 Y51.634 E1.51562
G1 X61.646 Y53.221 E1.62643
G1 X61.646 Y53.815 E1.65577
G1 X59.711 Y51.880 E1.79089
G1 X59.334 Y52.098 E1.81236
G1 X61.646 Y54.409 E1.97379
G1 X61.646 Y55.003 E2.00313
G1 X58.865 Y52.223 E2.19730
G1 X58.328 Y52.279 E2.22399
G1 X61.646 Y55.597 E2.45571
G1 X61.646 Y56.191 E2.48505
G1 X57.516 Y52.061 E2.77349
G1 F1800.000 E1.77349
G92 E0
G1 X37.328 Y42.012 F7800.000
G1 E1.00000 F1800.000
G1 X36.528 Y41.752 E1.03965 F2520.000
G1 X35.903 Y41.189 E1.07931
G1 X35.561 Y40.421 E1.11897
G1 X35.561 Y39.580 E1.15862
G1 X35.903 Y38.812 E1.19828
G1 X36.528 Y38.249 E1.23793
G1 X37.328 Y37.989 E1.27759
G1 X37.937 Y38.053 E1.30648
G1 X38.164 Y38.077 E1.31724 F2520.000
G1 X38.892 Y38.498 E1.35690
G1 X39.387 Y39.178 E1.39656
G1 X39.561 Y40.000 E1.43622
G1 X39.387 Y40.823 E1.47587
G1 X38.892 Y41.503 E1.51553
G1 X38.164 Y41.924 E1.55519
G1 X37.387 Y42.005 E1.59201
G1 X37.370 Y41.605 F7800.000
G1 X36.732 Y41.398 E1.62365 F2520.000
G1 X36.626 Y41.302 E1.63040
G1 X36.234 Y40.949 E1.65528
G1 X35.961 Y40.336 E1.68692
G1 X35.961 Y39.665 E1.71856
G1 X36.234 Y39.052 E1.75020
G1 X36.732 Y38.603 E1.78183
G1 X37.234 Y38.440 E1.80672
G1 X37.370 Y38.396 E1.81347 F2520.000
G1 X38.038 Y38.466 E1.84511
G1 X38.619 Y38.802 E1.87675
G1 X39.013 Y39.344 E1.90839
G1 X39.152 Y40.000 E1.94002
G1 X39.013 Y40.657 E1.97166
G1 X38.619 Y41.199 E2.00330
G1 X38.038 Y41.535 E2.03494
G1 X37.430 Y41.599 E2.06374
G1 X37.413 Y41.198 F7800.000
G1 X36.937 Y41.044 E2.08736 F1512.000
G1 X36.565 Y40.708 E2.11098
G1 X36.361 Y40.251 E2.13460
G1 X36.361 Y39.750 E2.15822
G1 X36.565 Y39.293 E2.18183
G1 X36.937 Y38.957 E2.20545
G1 X37.413 Y38.803 E2.22907
G1 X37.853 Y38.849 E2.24995
G1 X37.911 Y38.855 E2.25269 F1512.000
G1 X38.345 Y39.105 E2.27631
G1 X38.639 Y39.511 E2.29993
G1 X38.743 Y40.000 E2.32354
G1 X38.639 Y40.490 E2.34716
G1 X38.345 Y40.896 E2.37078
G1 X37.911 Y41.146 E2.39440
G1 X37.473 Y41.192 E2.41519
G1 F1800.000 E1.41519
G92 E0
G1 X37.857 Y38.791 F7800.000
G1 X37.328 Y47.989 F7800.000
G1 E1.00000 F1800.000
G1 X37.937 Y48.053 E1.02890 F2520.000
G1 X38.164 Y48.077 E1.03966 F2520.000
G1 X38.892 Y48.498 E1.07931
G1 X39.387 Y49.178 E1.11897
G1 X39.561 Y50.000 E1.15862
G1 X39.387 Y50.823 E1.19828
G1 X38.892 Y51.503 E1.23793
G1 X38.164 Y51.924 E1.27759
G1 X37.328 Y52.012 E1.31725
G1 X36.528 Y51.752 E1.35690
G1 X36.358 Y51.599 E1.36766
G1 X35.903 Y51.189 E1.39656
G1 X35.561 Y50.421 E1.43622
G1 X35.561 Y49.580 E1.47587
G1 X35.903 Y48.812 E1.51553
G1 X36.528 Y48.249 E1.55518
G1 X37.271 Y48.008 E1.59201
G1 X37.370 Y48.396 F7800.000
G1 X38.038 Y48.466 E1.62365 F2520.000
G1 X38.619 Y48.801 E1.65529
G1 X39.013 Y49.344 E1.68692
G1 X39.152 Y50.000 E1.71856
G1 X39.013 Y50.657 E1.75020
G1 X38.619 Y51.199 E1.78183
G1 X38.038 Y51.535 E1.81347
G1 X37.370 Y51.605 E1.84511
G1 X36.732 Y51.398 E1.87675
G1 X36.234 Y50.949 E1.90838
G1 X35.961 Y50.336 E1.94002
G1 X35.961 Y49.665 E1.97166
G1 X36.234 Y49.052 E2.00330
G1 X36.732 Y48.603 E2.03493
G1 X37.234 Y48.440 E2.05982
G1 X37.313 Y48.414 E2.06374 F2520.000
G1 X37.413 Y48.803 F7800.000
G1 X37.853 Y48.849 E2.08462 F1512.000
G1 X37.911 Y48.855 E2.08736 F1512.000
G1 X38.345 Y49.105 E2.11098
G1 X38.639 Y49.511 E2.13460
G1 X38.743 Y50.000 E2.15821
G1 X38.639 Y50.490 E2.18183
G1 X38.345 Y50.896 E2.20545
G1 X37.911 Y51.146 E2.22907
G1 X37.413 Y51.198 E2.25269
G1 X36.937 Y51.044 E2.27631
G1 X36.894 Y51.005 E2.27905
G1 X36.565 Y50.708 E2.29992
G1 X36.361 Y50.251 E2.32354
G1 X36.361 Y49.750 E2.34716
G1 X36.565 Y49.293 E2.37078
G1 X36.937 Y48.957 E2.39440
G1 X37.356 Y48.821 E2.41519
G1 X37.884 Y48.799 F7800.000
G1 F1800.000 E1.41519
G92 E0
G1 X34.107 Y56.699 F7800.000
G1 E1.00000 F1800.000
G1 X34.107 Y33.300 E2.10343 F2520.000
G1 X40.997 Y33.300 E2.42834
G1 X40.997 Y56.699 E3.53177
G1 X34.167 Y56.699 E3.85385
G1 X33.707 Y57.099 F7800.000
G1 X33.707 Y32.900 E4.99500 F2520.000
G1 X41.397 Y32.900 E5.35764
G1 X41.397 Y57.099 E6.49879
G1 X33.767 Y57.099 E6.85860
G1 X33.307 Y57.499 F7800.000
G1 X33.307 Y32.500 E8.03748 F1512.000
G1 X41.797 Y32.500 E8.43784
G1 X41.797 Y57.499 E9.61672
G1 X33.367 Y57.499 E10.01425
G1 X33.507 Y57.153 F7800.000
G1 X34.421 Y56.425 F7800.000
G1 X34.381 Y56.385 E10.01705 F2100.000
G1 X34.381 Y55.791 E10.04639
G1 X35.015 Y56.425 E10.09067
G1 X35.609 Y56.425 E10.12001
G1 X34.381 Y55.197 E10.20579
G1 X34.381 Y54.603 E10.23513
G1 X36.204 Y56.425 E10.36240
G1 X36.798 Y56.425 E10.39174
G1 X34.381 Y54.009 E10.56050
G1 X34.381 Y53.415 E10.58984
G1 X37.392 Y56.425 E10.80009
G1 X37.986 Y56.425 E10.82943
G1 X34.381 Y52.821 E11.08118
G1 X34.381 Y52.226 E11.11052
G1 X38.580 Y56.425 E11.40376
G1 X39.174 Y56.425 E11.43310
G1 X34.381 Y51.632 E11.76783
G1 X34.381 Y50.444 F7800.000
G1 X40.362 Y56.425 E12.18555 F2100.000
G1 X39.768 Y56.425 E12.21489
G1 X34.381 Y51.038 E12.59111
G1 X35.508 Y50.977 E12.64685
G1 X34.381 Y49.850 E12.72555
G1 X34.381 Y49.256 E12.75489
G1 X35.287 Y50.161 E12.81812
G1 X35.287 Y49.567 E12.84746
G1 X34.381 Y48.662 E12.91069
G1 X34.381 Y48.068 E12.94003
G1 X35.456 Y49.142 E13.01507
G1 X35.639 Y48.731 E13.03729
G1 X34.381 Y47.473 E13.12511
G1 X34.381 Y46.879 E13.15445
G1 X35.925 Y48.423 E13.26226
G1 X36.238 Y48.141 E13.28303
G1 X34.381 Y46.285 E13.41267
G1 X34.381 Y45.691 E13.44201
G1 X36.621 Y47.931 E13.59842
G1 X37.069 Y47.785 E13.62170
G1 X34.381 Y45.097 E13.80942
G1 X34.381 Y44.503 E13.83876
G1 X37.623 Y47.745 E14.06516
G1 X38.327 Y47.855 E14.10037
G1 X34.381 Y43.909 E14.37597
G1 X34.381 Y43.315 E14.40531
G1 X40.723 Y49.656 E14.84818
G1 X40.723 Y49.062 E14.87752
G1 X34.381 Y42.720 E15.32040
G1 X34.381 Y42.126 E15.34974
G1 X40.723 Y48.468 E15.79262
G1 X40.723 Y47.874 E15.82196
G1 X34.381 Y41.532 E16.26484
G1 X34.381 Y40.938 E16.29418
G1 X40.723 Y47.280 E16.73706
G1 X40.723 Y46.685 E16.76640
G1 X34.381 Y40.344 E17.20928
G1 X34.381 Y39.750 E17.23861
G1 X35.428 Y40.796 E17.31171
G1 X35.287 Y40.061 F7800.000
G1 X34.381 Y39.156 E17.37494 F2100.000
G1 X34.381 Y38.562 E17.40428
G1 X35.304 Y39.484 E17.46869
G1 X35.487 Y39.073 E17.49091
G1 X34.381 Y37.967 E17.56810
G1 X34.381 Y37.373 E17.59744
G1 X35.670 Y38.662 E17.68742
G1 X35.978 Y38.376 E17.70818
G1 X34.381 Y36.779 E17.81966
G1 X34.381 Y36.185 E17.84900
G1 X36.290 Y38.094 E17.98232
G1 X36.696 Y37.906 E18.00442
G1 X34.381 Y35.591 E18.16610
G1 X34.381 Y34.997 E18.19544
G1 X37.145 Y37.760 E18.38844
G1 X37.735 Y37.756 E18.41758
G1 X34.381 Y34.403 E18.65179
