; generated by Slic3r 1.1.7 on 2014-10-07 at 20:42:34

; perimeters extrusion width = 0.40mm
; infill extrusion width = 0.42mm
; solid infill extrusion width = 0.42mm
; top infill extrusion width = 0.42mm
; support material extrusion width = 0.40mm

G21 ; set units to millimeters
M107
M104 S195 ; set temperature
G28 ; home all axes
G1 Z5 F5000 ; lift nozzle
M109 S195 ; wait for temperature to be reached
G90 ; use absolute coordinates
G92 E0
M82 ; use absolute distances for extrusion
G1 F1800.000 E-1.00000
G92 E0
G1 Z0.300 F7800.000
G1 X32.122 Y30.063 F7800.000
G1 E1.00000 F1800.000
G1 X32.893 Y29.284 E1.05167 F2100.000
G1 X33.705 Y28.541 E1.10356
G1 X34.547 Y27.846 E1.15506
G1 X35.426 Y27.192 E1.20673
G1 X36.413 Y26.534 E1.26266
G1 X37.363 Y25.972 E1.31471
G1 X38.365 Y25.445 E1.36809
G1 X39.359 Y24.986 E1.41976
G1 X40.376 Y24.577 E1.47142
G1 X41.413 Y24.219 E1.52315
G1 X42.558 Y23.890 E1.57935
G1 X43.663 Y23.636 E1.63279
G1 X44.751 Y23.444 E1.68490
G1 X45.838 Y23.307 E1.73657
G1 X46.929 Y23.226 E1.78815
G1 X48.022 Y23.200 E1.83970
G1 X48.977 Y23.222 E1.88476 F2100.000
G1 X49.901 Y23.283 E1.92844
G1 X50.853 Y23.387 E1.97358
G1 X51.701 Y23.516 E2.01406
G1 X52.638 Y23.699 E2.05905
G1 X53.575 Y23.925 E2.10452
G1 X54.458 Y24.179 E2.14785
G1 X55.372 Y24.484 E2.19331
G1 X56.171 Y24.789 E2.23362
G1 X57.051 Y25.168 E2.27880
G1 X57.919 Y25.587 E2.32425
G1 X58.760 Y26.041 E2.36932
G1 X59.586 Y26.534 E2.41468
G1 X60.384 Y27.059 E2.45970
G1 X61.158 Y27.619 E2.50478
G1 X61.804 Y28.128 E2.54357
G1 X62.535 Y28.753 E2.58891
G1 X63.206 Y29.379 E2.63218
G1 X63.813 Y29.994 E2.67295
G1 X64.459 Y30.705 E2.71822
G1 X65.072 Y31.443 E2.76348
G1 X65.624 Y32.169 E2.80650
G1 X66.170 Y32.955 E2.85160
G1 X66.636 Y33.688 E2.89259
G1 X67.115 Y34.519 E2.93780
G1 X67.555 Y35.365 E2.98276
G1 X67.944 Y36.198 E3.02615
G1 X68.310 Y37.079 E3.07114
G1 X68.638 Y37.977 E3.11622
G1 X68.901 Y38.806 E3.15721
G1 X69.153 Y39.730 E3.20240
G1 X69.356 Y40.625 E3.24565
G1 X69.534 Y41.607 E3.29275
G1 X69.658 Y42.513 E3.33585
G1 X69.740 Y43.380 E3.37689
G1 X69.790 Y44.334 E3.42196
G1 X69.799 Y45.161 E3.46095
G1 X69.771 Y46.122 E3.50628
G1 X69.702 Y47.066 E3.55094
G1 X69.589 Y48.025 E3.59649
G1 X69.459 Y48.839 E3.63536
G1 X69.270 Y49.780 E3.68061
G1 X69.041 Y50.702 E3.72540
G1 X68.767 Y51.630 E3.77105
G1 X68.456 Y52.536 E3.81621
G1 X68.157 Y53.303 E3.85502
G1 X67.775 Y54.176 E3.89999
G1 X67.354 Y55.033 E3.94501
G1 X66.893 Y55.876 E3.99029
G1 X66.466 Y56.586 E4.02936
G1 X65.943 Y57.382 E4.07428
G1 X65.381 Y58.158 E4.11945
G1 X64.784 Y58.911 E4.16478
G1 X64.157 Y59.636 E4.20999
G1 X63.590 Y60.237 E4.24894
G1 X62.906 Y60.907 E4.29410
G1 X62.294 Y61.460 E4.33301
G1 X61.555 Y62.073 E4.37826
G1 X60.798 Y62.648 E4.42313
G1 X60.004 Y63.197 E4.46862
G1 X59.196 Y63.705 E4.51365
G1 X58.368 Y64.177 E4.55857
G1 X57.508 Y64.617 E4.60414
G1 X56.642 Y65.014 E4.64904
G1 X55.874 Y65.328 E4.68821
G1 X54.970 Y65.656 E4.73351
G1 X54.063 Y65.940 E4.77834
G1 X53.135 Y66.187 E4.82364
G1 X52.197 Y66.392 E4.86892
G1 X51.249 Y66.556 E4.91428
G1 X50.434 Y66.664 E4.95304
G1 X49.483 Y66.749 E4.99807
G1 X48.521 Y66.794 E5.04348
G1 X47.573 Y66.796 E5.08820
G1 X46.611 Y66.756 E5.13361
G1 X45.787 Y66.687 E5.17257
G1 X44.844 Y66.570 E5.21740
G1 X43.898 Y66.410 E5.26267
G1 X42.963 Y66.210 E5.30774
G1 X42.157 Y66.002 E5.34699
G1 X41.368 Y65.767 E5.38583
G1 X40.463 Y65.455 E5.43097
G1 X39.575 Y65.106 E5.47593
G1 X38.699 Y64.716 E5.52116
G1 X37.841 Y64.288 E5.56639
G1 X37.120 Y63.891 E5.60520
G1 X36.304 Y63.397 E5.65021
G1 X35.503 Y62.862 E5.69560
G1 X34.728 Y62.294 E5.74093
G1 X33.983 Y61.696 E5.78596
G1 X33.262 Y61.063 E5.83120
G1 X32.567 Y60.397 E5.87660
G1 X31.907 Y59.706 E5.92169
G1 X31.279 Y58.988 E5.96665
G1 X30.676 Y58.233 E6.01221
G1 X30.192 Y57.574 E6.05079
G1 X29.656 Y56.779 E6.09598
G1 X29.155 Y55.960 E6.14125
G1 X28.692 Y55.121 E6.18645
G1 X28.267 Y54.265 E6.23152
G1 X27.878 Y53.388 E6.27676
G1 X27.528 Y52.493 E6.32208
G1 X27.221 Y51.594 E6.36687
G1 X26.984 Y50.793 E6.40629
G1 X26.751 Y49.872 E6.45107
G1 X26.557 Y48.931 E6.49635
G1 X26.406 Y47.990 E6.54133
G1 X26.308 Y47.168 E6.58037
G1 X26.234 Y46.221 E6.62515
G1 X26.202 Y45.253 E6.67082
G1 X26.210 Y44.330 E6.71433
G1 X26.254 Y43.474 E6.75479
G1 X26.342 Y42.514 E6.80023
G1 X26.466 Y41.605 E6.84348
G1 X26.617 Y40.755 E6.88420
G1 X26.824 Y39.822 E6.92926
G1 X27.072 Y38.896 E6.97447
G1 X27.362 Y37.979 E7.01984
G1 X27.691 Y37.078 E7.06508
G1 X28.001 Y36.323 E7.10357
G1 X28.403 Y35.449 E7.14891
G1 X28.826 Y34.628 E7.19248
G1 X29.246 Y33.886 E7.23268
G1 X29.752 Y33.073 E7.27784
G1 X30.294 Y32.283 E7.32302
G1 X30.847 Y31.546 E7.36647
G1 X31.453 Y30.807 E7.41152
G1 X32.081 Y30.106 E7.45590
G1 X32.413 Y30.337 F7800.000
G1 X33.169 Y29.573 E7.50662 F2100.000
G1 X33.966 Y28.844 E7.55755
G1 X34.793 Y28.161 E7.60812
G1 X35.656 Y27.519 E7.65884
G1 X36.626 Y26.873 E7.71382
G1 X37.558 Y26.320 E7.76490
G1 X38.541 Y25.804 E7.81724
G1 X39.517 Y25.353 E7.86796
G1 X40.515 Y24.952 E7.91868
G1 X41.533 Y24.601 E7.96946
G1 X42.659 Y24.277 E8.02469
G1 X43.741 Y24.028 E8.07708
G1 X44.809 Y23.839 E8.12823
G1 X45.877 Y23.706 E8.17895
G1 X46.947 Y23.626 E8.22959
G1 X48.020 Y23.600 E8.28020
G1 X48.958 Y23.621 E8.32444 F2100.000
G1 X49.867 Y23.682 E8.36737
G1 X50.801 Y23.784 E8.41168
G1 X51.633 Y23.911 E8.45135
G1 X52.552 Y24.090 E8.49553
G1 X53.472 Y24.311 E8.54015
G1 X54.340 Y24.561 E8.58276
G1 X55.237 Y24.861 E8.62737
G1 X56.020 Y25.160 E8.66689
G1 X56.884 Y25.531 E8.71124
G1 X57.736 Y25.943 E8.75584
G1 X58.562 Y26.388 E8.80009
G1 X59.373 Y26.872 E8.84461
G1 X60.156 Y27.387 E8.88882
G1 X60.916 Y27.937 E8.93308
G1 X61.551 Y28.437 E8.97115
G1 X62.268 Y29.050 E9.01566
G1 X62.927 Y29.666 E9.05821
G1 X63.522 Y30.269 E9.09815
G1 X64.156 Y30.966 E9.14259
G1 X64.758 Y31.691 E9.18701
G1 X65.301 Y32.405 E9.22933
G1 X65.837 Y33.176 E9.27361
G1 X66.293 Y33.895 E9.31376
G1 X66.764 Y34.710 E9.35814
G1 X67.196 Y35.541 E9.40229
G1 X67.579 Y36.361 E9.44495
G1 X67.938 Y37.226 E9.48912
G1 X68.260 Y38.107 E9.53338
G1 X68.518 Y38.919 E9.57353
G1 X68.765 Y39.826 E9.61789
G1 X68.965 Y40.706 E9.66042
G1 X69.139 Y41.669 E9.70658
G1 X69.260 Y42.560 E9.74898
G1 X69.341 Y43.408 E9.78918
G1 X69.390 Y44.345 E9.83343
G1 X69.399 Y45.157 E9.87170
G1 X69.372 Y46.100 E9.91619
G1 X69.304 Y47.028 E9.96005
G1 X69.193 Y47.969 E10.00474
G1 X69.066 Y48.768 E10.04290
G1 X68.879 Y49.691 E10.08732
G1 X68.655 Y50.597 E10.13130
G1 X68.386 Y51.508 E10.17610
G1 X68.081 Y52.397 E10.22043
G1 X67.788 Y53.150 E10.25853
G1 X67.412 Y54.007 E10.30269
G1 X66.999 Y54.849 E10.34688
G1 X66.547 Y55.676 E10.39133
G1 X66.128 Y56.372 E10.42967
G1 X65.614 Y57.154 E10.47378
G1 X65.063 Y57.916 E10.51812
G1 X64.477 Y58.655 E10.56261
G1 X63.861 Y59.367 E10.60699
G1 X63.305 Y59.957 E10.64522
G1 X62.633 Y60.615 E10.68956
G1 X62.032 Y61.157 E10.72775
G1 X61.308 Y61.759 E10.77217
G1 X60.563 Y62.324 E10.81622
G1 X59.785 Y62.863 E10.86087
G1 X58.991 Y63.362 E10.90508
G1 X58.178 Y63.824 E10.94919
G1 X57.334 Y64.257 E10.99391
G1 X56.484 Y64.646 E11.03799
G1 X55.730 Y64.955 E11.07643
G1 X54.843 Y65.276 E11.12090
G1 X53.953 Y65.555 E11.16492
G1 X53.042 Y65.798 E11.20938
G1 X52.121 Y66.000 E11.25383
G1 X51.191 Y66.161 E11.29835
G1 X50.391 Y66.266 E11.33640
G1 X49.457 Y66.350 E11.38061
G1 X48.513 Y66.394 E11.42518
G1 X47.581 Y66.396 E11.46910
G1 X46.637 Y66.357 E11.51367
G1 X45.829 Y66.290 E11.55190
G1 X44.903 Y66.175 E11.59593
G1 X43.974 Y66.018 E11.64036
G1 X43.056 Y65.821 E11.68462
G1 X42.265 Y65.617 E11.72312
G1 X41.491 Y65.386 E11.76125
G1 X40.602 Y65.080 E11.80557
G1 X39.731 Y64.738 E11.84971
G1 X38.871 Y64.355 E11.89410
G1 X38.028 Y63.935 E11.93850
G1 X37.320 Y63.545 E11.97661
G1 X36.519 Y63.059 E12.02079
G1 X35.733 Y62.535 E12.06534
G1 X34.972 Y61.977 E12.10984
G1 X34.241 Y61.390 E12.15404
G1 X33.533 Y60.769 E12.19846
G1 X32.851 Y60.115 E12.24301
G1 X32.203 Y59.436 E12.28728
G1 X31.587 Y58.732 E12.33142
G1 X30.994 Y57.991 E12.37614
G1 X30.519 Y57.344 E12.41401
G1 X29.993 Y56.564 E12.45838
G1 X29.502 Y55.760 E12.50281
G1 X29.047 Y54.936 E12.54719
G1 X28.629 Y54.096 E12.59143
G1 X28.248 Y53.235 E12.63585
G1 X27.904 Y52.356 E12.68032
G1 X27.603 Y51.474 E12.72431
G1 X27.370 Y50.687 E12.76298
G1 X27.141 Y49.783 E12.80696
G1 X26.951 Y48.860 E12.85140
G1 X26.802 Y47.935 E12.89557
G1 X26.706 Y47.129 E12.93388
G1 X26.634 Y46.199 E12.97786
G1 X26.601 Y45.249 E13.02267
G1 X26.610 Y44.342 E13.06544
G1 X26.652 Y43.502 E13.10510
G1 X26.739 Y42.561 E13.14970
G1 X26.861 Y41.667 E13.19222
G1 X27.009 Y40.834 E13.23213
G1 X27.212 Y39.918 E13.27637
G1 X27.456 Y39.009 E13.32075
G1 X27.740 Y38.109 E13.36527
G1 X28.063 Y37.224 E13.40968
G1 X28.368 Y36.483 E13.44748
G1 X28.763 Y35.625 E13.49198
G1 X29.178 Y34.818 E13.53481
G1 X29.590 Y34.091 E13.57422
G1 X30.086 Y33.293 E13.61855
G1 X30.618 Y32.517 E13.66291
G1 X31.162 Y31.792 E13.70563
G1 X31.757 Y31.067 E13.74986
G1 X32.372 Y30.381 E13.79330
G1 F1800.000 E12.79330
G92 E0
G1 X50.200 Y47.039 F7800.000
G1 E1.00000 F1800.000
G1 X49.925 Y47.301 E1.01791 F2520.000
G1 X49.639 Y47.513 E1.03472
G1 X49.311 Y47.698 E1.05247
G1 X48.961 Y47.842 E1.07033
G1 X48.598 Y47.940 E1.08804
G1 X48.224 Y47.992 E1.10585
G1 X47.867 Y47.997 E1.12270
G1 X47.493 Y47.957 E1.14042
G1 X47.125 Y47.869 E1.15828
G1 X46.776 Y47.739 E1.17584
G1 X46.455 Y47.572 E1.19288
G1 X46.146 Y47.359 E1.21060
G1 X45.865 Y47.107 E1.22839
G1 X45.628 Y46.837 E1.24533
G1 X45.418 Y46.528 E1.26296
G1 X45.247 Y46.191 E1.28077
G1 X45.119 Y45.835 E1.29861
G1 X45.039 Y45.482 E1.31566
G1 X45.002 Y45.111 E1.33326
G1 X45.012 Y44.736 E1.35097
G1 X45.067 Y44.368 E1.36852
G1 X45.170 Y44.005 E1.38631
G1 X45.311 Y43.671 E1.40340
G1 X45.497 Y43.346 E1.42104
G1 X45.723 Y43.047 E1.43875
G1 X45.972 Y42.789 E1.45563
G1 X46.268 Y42.550 E1.47356
G1 X46.588 Y42.353 E1.49127
G1 X46.929 Y42.198 E1.50895
G1 X47.270 Y42.090 E1.52585
G1 X47.642 Y42.021 E1.54368
G1 X48.014 Y42.000 E1.56123
G1 X48.433 Y42.031 E1.58107 F2520.000
G1 X48.854 Y42.124 E1.60137
G1 X49.260 Y42.277 E1.62185
G1 X49.623 Y42.477 E1.64137
G1 X49.953 Y42.723 E1.66081
G1 X50.263 Y43.030 E1.68136
G1 X50.503 Y43.346 E1.70005
G1 X50.750 Y43.770 E1.72322
G1 X50.750 Y46.230 E1.83921
G1 X50.501 Y46.657 E1.86254
G1 X50.241 Y46.995 E1.88263
G1 X49.907 Y46.767 F7800.000
G1 X49.669 Y46.994 E1.89812 F2520.000
G1 X49.420 Y47.178 E1.91270
G1 X49.136 Y47.339 E1.92809
G1 X48.833 Y47.463 E1.94354
G1 X48.519 Y47.548 E1.95891
G1 X48.213 Y47.591 E1.97348
G1 X47.885 Y47.597 E1.98894
G1 X47.575 Y47.565 E2.00362
G1 X47.258 Y47.492 E2.01897
G1 X46.952 Y47.380 E2.03433
G1 X46.662 Y47.229 E2.04977
G1 X46.406 Y47.054 E2.06435
G1 X46.172 Y46.849 E2.07905
G1 X45.955 Y46.606 E2.09443
G1 X45.770 Y46.337 E2.10980
G1 X45.621 Y46.048 E2.12514
G1 X45.512 Y45.755 E2.13989
G1 X45.437 Y45.439 E2.15519
G1 X45.402 Y45.111 E2.17074
G1 X45.409 Y44.787 E2.18605
G1 X45.456 Y44.464 E2.20141
G1 X45.543 Y44.150 E2.21679
G1 X45.662 Y43.863 E2.23143
G1 X45.822 Y43.580 E2.24680
G1 X46.018 Y43.317 E2.26222
G1 X46.243 Y43.083 E2.27754
G1 X46.486 Y42.887 E2.29227
G1 X46.761 Y42.714 E2.30761
G1 X47.042 Y42.583 E2.32222
G1 X47.353 Y42.482 E2.33762
G1 X47.673 Y42.421 E2.35300
G1 X47.999 Y42.400 E2.36839
G1 X48.357 Y42.425 E2.38535 F2520.000
G1 X48.725 Y42.503 E2.40309
G1 X49.063 Y42.627 E2.42004
G1 X49.379 Y42.796 E2.43697
G1 X49.669 Y43.006 E2.45384
G1 X49.929 Y43.257 E2.47085
G1 X50.150 Y43.538 E2.48770
G1 X50.350 Y43.875 E2.50620
G1 X50.350 Y46.125 E2.61232
G1 X50.159 Y46.449 E2.63008
G1 X49.947 Y46.723 E2.64638
G1 X49.613 Y46.496 F7800.000
G1 X49.413 Y46.687 E2.65944 F1512.000
G1 X49.202 Y46.843 E2.67180
G1 X48.962 Y46.979 E2.68483
G1 X48.706 Y47.084 E2.69787
G1 X48.439 Y47.156 E2.71089
G1 X48.165 Y47.194 E2.72393
G1 X47.903 Y47.198 E2.73630
G1 X47.628 Y47.168 E2.74932
G1 X47.359 Y47.105 E2.76237
G1 X47.101 Y47.008 E2.77536
G1 X46.868 Y46.886 E2.78777
G1 X46.641 Y46.730 E2.80079
G1 X46.434 Y46.546 E2.81382
G1 X46.261 Y46.348 E2.82622
G1 X46.106 Y46.120 E2.83921
G1 X45.981 Y45.874 E2.85224
G1 X45.887 Y45.613 E2.86529
G1 X45.827 Y45.344 E2.87830
G1 X45.802 Y45.082 E2.89071
G1 X45.809 Y44.807 E2.90371
G1 X45.850 Y44.534 E2.91670
G1 X45.925 Y44.268 E2.92973
G1 X46.028 Y44.026 E2.94215
G1 X46.165 Y43.787 E2.95516
G1 X46.331 Y43.566 E2.96817
G1 X46.514 Y43.378 E2.98056
G1 X46.730 Y43.204 E2.99361
G1 X46.964 Y43.059 E3.00663
G1 X47.215 Y42.945 E3.01963
G1 X47.466 Y42.866 E3.03202
G1 X47.738 Y42.816 E3.04506
G1 X48.013 Y42.800 E3.05804
G1 X48.303 Y42.821 E3.07176 F1512.000
G1 X48.600 Y42.883 E3.08609
G1 X48.874 Y42.981 E3.09978
G1 X49.144 Y43.121 E3.11411
G1 X49.391 Y43.296 E3.12842
G1 X49.604 Y43.494 E3.14213
G1 X49.788 Y43.718 E3.15581
G1 X49.950 Y43.979 E3.17030
G1 X49.950 Y46.021 E3.26656
G1 X49.812 Y46.248 E3.27910
G1 X49.653 Y46.451 E3.29126
G1 F1800.000 E2.29126
G92 E0
G1 X47.980 Y42.511 F7800.000
G1 X58.240 Y54.547 F7800.000
G1 E1.00000 F1800.000
G1 X57.647 Y55.145 E1.03972 F2520.000
G1 X56.991 Y55.731 E1.08119
G1 X56.300 Y56.274 E1.12268
G1 X55.576 Y56.773 E1.16414
G1 X54.898 Y57.182 E1.20145
G1 X54.120 Y57.592 E1.24294
G1 X53.317 Y57.951 E1.28442
G1 X52.493 Y58.259 E1.32590
G1 X51.652 Y58.515 E1.36734
G1 X50.796 Y58.718 E1.40886
G1 X49.929 Y58.866 E1.45032
G1 X49.054 Y58.960 E1.49180
G1 X48.176 Y58.999 E1.53328
G1 X47.297 Y58.982 E1.57473
G1 X46.420 Y58.911 E1.61621
G1 X45.636 Y58.799 E1.65355
G1 X44.774 Y58.623 E1.69503
G1 X43.925 Y58.394 E1.73651
G1 X43.093 Y58.112 E1.77797
G1 X42.279 Y57.778 E1.81945
G1 X41.488 Y57.393 E1.86093
G1 X40.723 Y56.960 E1.90239
G1 X39.986 Y56.479 E1.94386
G1 X39.350 Y56.008 E1.98121
G1 X38.676 Y55.443 E2.02266
G1 X38.039 Y54.837 E2.06413
G1 X37.441 Y54.192 E2.10561
G1 X36.884 Y53.511 E2.14709
G1 X36.372 Y52.796 E2.18858
G1 X35.905 Y52.051 E2.23005
G1 X35.526 Y51.356 E2.26737
G1 X35.151 Y50.560 E2.30884
G1 X34.827 Y49.742 E2.35035
G1 X34.556 Y48.906 E2.39180
G1 X34.337 Y48.054 E2.43327
G1 X34.186 Y47.277 E2.47058
G1 X34.071 Y46.405 E2.51208
G1 X34.010 Y45.528 E2.55353
G1 X34.004 Y44.648 E2.59503
G1 X34.054 Y43.771 E2.63647
G1 X34.159 Y42.897 E2.67797
G1 X34.318 Y42.032 E2.71946
G1 X34.531 Y41.179 E2.76088
G1 X34.798 Y40.340 E2.80241
G1 X35.117 Y39.521 E2.84385
G1 X35.447 Y38.802 E2.88118
G1 X35.861 Y38.025 E2.92267
G1 X36.323 Y37.277 E2.96415
G1 X36.831 Y36.559 E3.00563
G1 X37.383 Y35.874 E3.04711
G1 X37.976 Y35.226 E3.08854
G1 X38.546 Y34.675 E3.12591
G1 X39.212 Y34.101 E3.16738
G1 X39.914 Y33.571 E3.20884
G1 X40.648 Y33.086 E3.25034
G1 X41.411 Y32.648 E3.29183
G1 X42.198 Y32.259 E3.33325
G1 X43.010 Y31.920 E3.37472
G1 X43.842 Y31.632 E3.41624
G1 X44.689 Y31.397 E3.45770
G1 X45.550 Y31.216 E3.49918
G1 X46.420 Y31.089 E3.54067
G1 X47.297 Y31.018 E3.58213
G1 X48.088 Y31.000 E3.61946
G1 X49.055 Y31.040 E3.66507 F2520.000
G1 X50.103 Y31.159 E3.71483
G1 X51.054 Y31.337 E3.76045
G1 X52.075 Y31.606 E3.81025
G1 X53.072 Y31.951 E3.86000
G1 X53.961 Y32.332 E3.90561
G1 X54.898 Y32.818 E3.95539
G1 X55.723 Y33.323 E4.00100
G1 X56.511 Y33.884 E4.04661
G1 X57.324 Y34.557 E4.09639
G1 X58.023 Y35.226 E4.14201
G1 X58.731 Y36.008 E4.19177
G1 X59.326 Y36.771 E4.23738
G1 X59.914 Y37.648 E4.28717
G1 X60.393 Y38.488 E4.33276
G1 X60.849 Y39.440 E4.38255
G1 X61.202 Y40.340 E4.42816
G1 X61.515 Y41.348 E4.47790
G1 X61.735 Y42.290 E4.52355
G1 X61.900 Y43.333 E4.57333
G1 X61.982 Y44.297 E4.61894
G1 X61.996 Y45.352 E4.66871
G1 X61.929 Y46.405 E4.71847
G1 X61.799 Y47.364 E4.76409
G1 X61.603 Y48.311 E4.80971
G1 X61.315 Y49.326 E4.85946
G1 X60.951 Y50.317 E4.90924
G1 X60.553 Y51.198 E4.95485
G1 X60.095 Y52.050 E5.00047
G1 X59.529 Y52.942 E5.05026
G1 X58.953 Y53.719 E5.09587
G1 X58.281 Y54.503 E5.14457
G1 X58.533 Y54.820 F7800.000
G1 X57.923 Y55.435 E5.18541 F2520.000
G1 X57.248 Y56.037 E5.22807
G1 X56.537 Y56.597 E5.27073
G1 X55.792 Y57.110 E5.31338
G1 X55.095 Y57.531 E5.35177
G1 X54.295 Y57.951 E5.39444
G1 X53.469 Y58.321 E5.43710
G1 X52.621 Y58.638 E5.47977
G1 X51.756 Y58.901 E5.52240
G1 X50.876 Y59.110 E5.56509
G1 X49.984 Y59.263 E5.60774
G1 X49.085 Y59.359 E5.65040
G1 X48.181 Y59.399 E5.69307
G1 X47.277 Y59.382 E5.73571
G1 X46.375 Y59.308 E5.77838
G1 X45.569 Y59.193 E5.81678
G1 X44.682 Y59.013 E5.85944
G1 X43.809 Y58.777 E5.90210
