; generated by Slic3r 1.1.7 on 2014-10-07 at 21:07:34

; perimeters extrusion width = 0.40mm
; infill extrusion width = 0.42mm
; solid infill extrusion width = 0.42mm
; top infill extrusion width = 0.42mm
; support material extrusion width = 0.40mm

G21 ; set units to millimeters
M107
M104 S195 ; set temperature
G28 ; home all axes
G1 Z5 F5000 ; lift nozzle
M109 S195 ; wait for temperature to be reached
G90 ; use absolute coordinates
G92 E0
M82 ; use absolute distances for extrusion
G1 F1800.000 E-1.00000
G92 E0
G1 Z0.300 F7800.000
G1 X37.226 Y34.853 F7800.000
G1 E1.00000 F1800.000
G1 X37.749 Y34.325 E1.03508 F1902.376
G1 X38.299 Y33.823 E1.07020
G1 X38.947 Y33.292 E1.10966
G1 X39.546 Y32.852 E1.14473
G1 X40.166 Y32.444 E1.17974
G1 X40.808 Y32.065 E1.21488
G1 X41.467 Y31.720 E1.24997
G1 X42.142 Y31.409 E1.28505
G1 X42.833 Y31.131 E1.32013
G1 X43.591 Y30.872 E1.35791
G1 X44.340 Y30.660 E1.39464
G1 X45.066 Y30.494 E1.42973
G1 X45.797 Y30.365 E1.46475
G1 X46.535 Y30.273 E1.49984
G1 X47.279 Y30.218 E1.53499
G1 X48.077 Y30.200 E1.57266
G1 X48.721 Y30.218 E1.60301 F1902.376
G1 X49.372 Y30.264 E1.63379
G1 X49.968 Y30.331 E1.66209
G1 X50.611 Y30.432 E1.69278
G1 X51.249 Y30.561 E1.72349
G1 X51.846 Y30.708 E1.75247
G1 X52.418 Y30.875 E1.78055
G1 X53.034 Y31.083 E1.81124
G1 X53.641 Y31.317 E1.84191
G1 X54.201 Y31.562 E1.87070
G1 X54.738 Y31.823 E1.89886
G1 X55.311 Y32.132 E1.92958
G1 X55.870 Y32.466 E1.96030
G1 X56.412 Y32.823 E1.99092
G1 X57.379 Y33.551 E2.04797
G1 X57.873 Y33.975 E2.07868
G1 X58.320 Y34.391 E2.10747
G1 X58.739 Y34.817 E2.13565
G1 X59.177 Y35.299 E2.16638
G1 X59.592 Y35.799 E2.19701
G1 X59.987 Y36.319 E2.22780
G1 X60.357 Y36.854 E2.25848
G1 X60.702 Y37.404 E2.28909
G1 X61.280 Y38.467 E2.34613
G1 X61.554 Y39.056 E2.37679
G1 X61.803 Y39.659 E2.40753
G1 X62.024 Y40.271 E2.43823
G1 X62.218 Y40.892 E2.46889
G1 X62.506 Y42.066 E2.52589
G1 X62.621 Y42.707 E2.55661
G1 X62.703 Y43.312 E2.58541
G1 X62.760 Y43.906 E2.61358
G1 X62.793 Y44.556 E2.64426
G1 X62.780 Y45.766 E2.70129
G1 X62.732 Y46.414 E2.73197
G1 X62.656 Y47.062 E2.76272
G1 X62.551 Y47.703 E2.79333
G1 X62.419 Y48.335 E2.82381
G1 X62.259 Y48.965 E2.85444
G1 X62.070 Y49.590 E2.88524
G1 X61.647 Y50.726 E2.94242
G1 X61.384 Y51.318 E2.97297
G1 X61.092 Y51.902 E3.00372
G1 X60.484 Y52.949 E3.06082
G1 X60.123 Y53.490 E3.09153
G1 X59.738 Y54.014 E3.12215
G1 X59.331 Y54.521 E3.15285
G1 X58.903 Y55.008 E3.18341
G1 X58.047 Y55.867 E3.24059
G1 X57.126 Y56.652 E3.29766
G1 X56.607 Y57.040 E3.32824
G1 X56.075 Y57.403 E3.35856
G1 X55.029 Y58.024 E3.41595
G1 X54.451 Y58.320 E3.44658
G1 X53.857 Y58.592 E3.47738
G1 X52.727 Y59.025 E3.53444
G1 X52.109 Y59.218 E3.56500
G1 X51.480 Y59.385 E3.59567
G1 X50.293 Y59.621 E3.65273
G1 X49.650 Y59.708 E3.68336
G1 X49.000 Y59.766 E3.71410
G1 X48.353 Y59.796 E3.74468
G1 X47.701 Y59.797 E3.77540
G1 X46.494 Y59.723 E3.83241
G1 X45.848 Y59.643 E3.86313
G1 X45.205 Y59.534 E3.89390
G1 X44.027 Y59.257 E3.95094
G1 X43.408 Y59.070 E3.98145
G1 X42.796 Y58.855 E4.01204
G1 X41.679 Y58.382 E4.06924
G1 X41.097 Y58.091 E4.09993
G1 X40.528 Y57.775 E4.13062
G1 X39.510 Y57.122 E4.18765
G1 X38.986 Y56.738 E4.21826
G1 X38.479 Y56.331 E4.24894
G1 X37.584 Y55.515 E4.30605
G1 X37.133 Y55.047 E4.33670
G1 X36.702 Y54.560 E4.36734
G1 X36.293 Y54.055 E4.39800
G1 X35.907 Y53.532 E4.42868
G1 X35.249 Y52.514 E4.48583
G1 X34.932 Y51.947 E4.51644
G1 X34.639 Y51.366 E4.54712
G1 X34.373 Y50.775 E4.57771
G1 X34.132 Y50.170 E4.60842
G1 X33.756 Y49.019 E4.66551
G1 X33.593 Y48.388 E4.69622
G1 X33.459 Y47.755 E4.72677
G1 X33.282 Y46.554 E4.78401
G1 X33.228 Y45.908 E4.81460
G1 X33.202 Y45.258 E4.84526
G1 X33.205 Y44.606 E4.87599
G1 X33.234 Y43.999 E4.90468
G1 X33.287 Y43.401 E4.93298
G1 X33.371 Y42.756 E4.96364
G1 X33.484 Y42.115 E4.99433
G1 X33.625 Y41.479 E5.02505
G1 X33.794 Y40.850 E5.05577
G1 X33.977 Y40.269 E5.08450
G1 X34.179 Y39.705 E5.11273
G1 X34.426 Y39.103 E5.14345
G1 X34.952 Y38.015 E5.20042
G1 X35.272 Y37.447 E5.23115
G1 X35.615 Y36.897 E5.26175
G1 X35.984 Y36.360 E5.29245
G1 X36.351 Y35.871 E5.32127
G1 X36.763 Y35.369 E5.35192
G1 X37.185 Y34.897 E5.38176
G1 X37.517 Y35.128 F7800.000
G1 X38.026 Y34.614 E5.41589 F1902.376
G1 X38.561 Y34.125 E5.45006
G1 X39.191 Y33.609 E5.48846
G1 X39.774 Y33.181 E5.52258
G1 X40.377 Y32.783 E5.55664
G1 X41.002 Y32.415 E5.59083
G1 X41.643 Y32.079 E5.62497
G1 X42.300 Y31.776 E5.65910
G1 X42.972 Y31.506 E5.69324
G1 X43.710 Y31.254 E5.73004
G1 X44.438 Y31.047 E5.76573
G1 X45.144 Y30.886 E5.79987
G1 X45.856 Y30.761 E5.83395
G1 X46.574 Y30.671 E5.86809
G1 X47.298 Y30.617 E5.90229
G1 X48.076 Y30.600 E5.93899
G1 X48.702 Y30.617 E5.96853 F1902.376
G1 X49.335 Y30.662 E5.99848
G1 X49.914 Y30.728 E6.02595
G1 X50.540 Y30.826 E6.05581
G1 X51.161 Y30.951 E6.08570
G1 X51.742 Y31.095 E6.11394
G1 X52.298 Y31.256 E6.14121
G1 X52.898 Y31.459 E6.17107
G1 X53.488 Y31.687 E6.20091
G1 X54.033 Y31.925 E6.22898
G1 X54.555 Y32.178 E6.25633
G1 X55.113 Y32.479 E6.28622
G1 X55.657 Y32.804 E6.31611
G1 X56.184 Y33.152 E6.34590
G1 X57.125 Y33.860 E6.40141
G1 X57.606 Y34.272 E6.43129
G1 X58.041 Y34.678 E6.45935
G1 X58.449 Y35.091 E6.48671
G1 X58.875 Y35.561 E6.51662
G1 X59.279 Y36.047 E6.54642
G1 X59.662 Y36.553 E6.57637
G1 X60.022 Y37.074 E6.60623
G1 X60.358 Y37.609 E6.63601
G1 X60.921 Y38.643 E6.69151
G1 X61.187 Y39.216 E6.72133
G1 X61.429 Y39.803 E6.75125
G1 X61.645 Y40.398 E6.78112
G1 X61.834 Y41.002 E6.81095
G1 X62.114 Y42.144 E6.86641
G1 X62.226 Y42.768 E6.89629
G1 X62.306 Y43.358 E6.92438
G1 X62.361 Y43.935 E6.95173
G1 X62.393 Y44.568 E6.98158
G1 X62.381 Y45.744 E7.03707
G1 X62.334 Y46.375 E7.06692
G1 X62.260 Y47.006 E7.09684
G1 X62.158 Y47.629 E7.12662
G1 X62.030 Y48.245 E7.15629
G1 X61.874 Y48.857 E7.18608
G1 X61.690 Y49.465 E7.21605
G1 X61.279 Y50.571 E7.27168
G1 X61.022 Y51.147 E7.30141
G1 X60.739 Y51.714 E7.33133
G1 X60.147 Y52.733 E7.38688
G1 X59.795 Y53.260 E7.41676
G1 X59.422 Y53.770 E7.44656
G1 X59.025 Y54.263 E7.47643
G1 X58.609 Y54.737 E7.50617
G1 X57.776 Y55.573 E7.56179
G1 X56.880 Y56.336 E7.61732
G1 X56.374 Y56.714 E7.64708
G1 X55.858 Y57.067 E7.67659
G1 X54.840 Y57.672 E7.73241
G1 X54.277 Y57.960 E7.76222
G1 X53.699 Y58.224 E7.79218
G1 X52.600 Y58.645 E7.84770
G1 X51.998 Y58.834 E7.87744
G1 X51.387 Y58.996 E7.90728
G1 X50.232 Y59.226 E7.96279
G1 X49.606 Y59.310 E7.99260
G1 X48.974 Y59.367 E8.02251
G1 X48.344 Y59.396 E8.05226
G1 X47.710 Y59.397 E8.08215
G1 X46.536 Y59.325 E8.13762
G1 X45.907 Y59.247 E8.16751
G1 X45.281 Y59.141 E8.19744
G1 X44.135 Y58.872 E8.25295
G1 X43.533 Y58.689 E8.28263
G1 X42.937 Y58.481 E8.31239
G1 X41.850 Y58.021 E8.36804
G1 X41.284 Y57.738 E8.39790
G1 X40.730 Y57.430 E8.42776
G1 X39.740 Y56.795 E8.48325
G1 X39.230 Y56.422 E8.51304
G1 X38.737 Y56.025 E8.54289
G1 X37.866 Y55.231 E8.59846
G1 X37.427 Y54.776 E8.62828
G1 X37.008 Y54.303 E8.65809
G1 X36.610 Y53.811 E8.68792
G1 X36.234 Y53.302 E8.71777
G1 X35.594 Y52.311 E8.77338
G1 X35.285 Y51.760 E8.80316
G1 X35.001 Y51.195 E8.83301
G1 X34.742 Y50.619 E8.86278
G1 X34.507 Y50.031 E8.89266
G1 X34.141 Y48.911 E8.94820
G1 X33.983 Y48.298 E8.97808
G1 X33.852 Y47.681 E9.00781
G1 X33.680 Y46.513 E9.06350
G1 X33.627 Y45.884 E9.09326
G1 X33.602 Y45.252 E9.12309
G1 X33.605 Y44.618 E9.15299
G1 X33.633 Y44.025 E9.18096
G1 X33.684 Y43.445 E9.20845
G1 X33.766 Y42.817 E9.23827
G1 X33.876 Y42.194 E9.26813
G1 X34.013 Y41.575 E9.29803
G1 X34.178 Y40.963 E9.32791
G1 X34.356 Y40.396 E9.35592
G1 X34.553 Y39.849 E9.38334
G1 X34.792 Y39.263 E9.41322
G1 X35.304 Y38.204 E9.46865
G1 X35.616 Y37.652 E9.49855
G1 X35.950 Y37.116 E9.52833
G1 X36.308 Y36.594 E9.55820
G1 X36.666 Y36.118 E9.58629
G1 X37.067 Y35.628 E9.61612
G1 X37.476 Y35.172 E9.64502
G1 F1800.000 E8.64502
G92 E0
G1 X50.345 Y47.177 F7800.000
G1 E1.00000 F1800.000
G1 X50.055 Y47.453 E1.01888 F2282.852
G1 X49.747 Y47.681 E1.03696
G1 X49.397 Y47.879 E1.05591
G1 X49.027 Y48.031 E1.07478
G1 X48.637 Y48.136 E1.09381
G1 X48.240 Y48.191 E1.11272
G1 X47.839 Y48.196 E1.13163
G1 X47.461 Y48.154 E1.14957
G1 X47.069 Y48.062 E1.16853
G1 X46.709 Y47.928 E1.18668
G1 X46.354 Y47.744 E1.20551
G1 X46.021 Y47.515 E1.22458
G1 X45.723 Y47.248 E1.24344
G1 X45.459 Y46.944 E1.26243
G1 X45.236 Y46.612 E1.28131
G1 X45.063 Y46.270 E1.29935
G1 X44.927 Y45.894 E1.31824
G1 X44.842 Y45.518 E1.33642
G1 X44.802 Y45.119 E1.35531
G1 X44.812 Y44.718 E1.37421
G1 X44.873 Y44.322 E1.39310
G1 X44.982 Y43.938 E1.41196
G1 X45.131 Y43.582 E1.43014
G1 X45.331 Y43.235 E1.44903
G1 X45.572 Y42.915 E1.46791
G1 X45.838 Y42.641 E1.48593
G1 X46.150 Y42.389 E1.50484
G1 X46.492 Y42.178 E1.52378
G1 X46.843 Y42.017 E1.54200
G1 X47.224 Y41.895 E1.56088
G1 X47.618 Y41.823 E1.57978
G1 X48.015 Y41.800 E1.59851
G1 X48.480 Y41.836 E1.62053 F2282.852
G1 X48.931 Y41.938 E1.64229
G1 X49.364 Y42.105 E1.66420
G1 X49.765 Y42.331 E1.68590
G1 X50.131 Y42.613 E1.70769
G1 X50.452 Y42.944 E1.72944
G1 X50.701 Y43.284 E1.74932
G1 X50.950 Y43.733 E1.77352
G1 X50.950 Y46.267 E1.89302
G1 X50.680 Y46.749 E1.91908
G1 X50.386 Y47.133 E1.94188
G1 X50.052 Y46.905 F7800.000
G1 X49.798 Y47.146 E1.95841 F2282.852
G1 X49.516 Y47.354 E1.97495
G1 X49.223 Y47.519 E1.99079
G1 X48.899 Y47.652 E2.00732
G1 X48.558 Y47.744 E2.02396
G1 X48.210 Y47.792 E2.04051
G1 X47.859 Y47.796 E2.05707
G1 X47.528 Y47.760 E2.07278
G1 X47.186 Y47.679 E2.08937
G1 X46.871 Y47.562 E2.10521
G1 X46.560 Y47.401 E2.12172
G1 X46.271 Y47.202 E2.13826
G1 X46.008 Y46.967 E2.15491
G1 X45.787 Y46.716 E2.17069
G1 X45.590 Y46.426 E2.18721
G1 X45.436 Y46.126 E2.20309
G1 X45.321 Y45.814 E2.21876
G1 X45.240 Y45.472 E2.23537
G1 X45.203 Y45.122 E2.25194
G1 X45.209 Y44.773 E2.26843
G1 X45.260 Y44.424 E2.28504
G1 X45.348 Y44.101 E2.30081
G1 X45.481 Y43.777 E2.31735
G1 X45.654 Y43.471 E2.33393
G1 X45.854 Y43.202 E2.34973
G1 X46.097 Y42.946 E2.36638
G1 X46.368 Y42.725 E2.38288
G1 X46.667 Y42.538 E2.39949
G1 X46.984 Y42.391 E2.41600
G1 X47.319 Y42.284 E2.43254
G1 X47.649 Y42.222 E2.44839
G1 X47.999 Y42.200 E2.46491
G1 X48.402 Y42.229 E2.48401 F2282.852
G1 X48.782 Y42.311 E2.50231
G1 X49.160 Y42.451 E2.52132
G1 X49.514 Y42.644 E2.54034
G1 X49.824 Y42.876 E2.55860
G1 X50.111 Y43.161 E2.57768
G1 X50.345 Y43.470 E2.59593
G1 X50.550 Y43.832 E2.61558
G1 X50.550 Y46.168 E2.72571
G1 X50.335 Y46.545 E2.74616
G1 X50.093 Y46.860 E2.76495
G1 X49.759 Y46.633 F7800.000
G1 X49.541 Y46.840 E2.77912 F1369.711
G1 X49.299 Y47.018 E2.79332
G1 X49.049 Y47.159 E2.80686
G1 X48.770 Y47.273 E2.82105
G1 X48.479 Y47.352 E2.83530
G1 X48.181 Y47.393 E2.84949
G1 X47.879 Y47.397 E2.86369
G1 X47.595 Y47.366 E2.87718
G1 X47.302 Y47.296 E2.89140
G1 X47.033 Y47.196 E2.90493
G1 X46.765 Y47.058 E2.91912
G1 X46.516 Y46.887 E2.93337
G1 X46.292 Y46.686 E2.94755
G1 X46.094 Y46.459 E2.96177
G1 X45.927 Y46.209 E2.97597
G1 X45.797 Y45.953 E2.98948
G1 X45.695 Y45.670 E3.00368
G1 X45.632 Y45.389 E3.01724
G1 X45.602 Y45.090 E3.03142
G1 X45.609 Y44.789 E3.04562
G1 X45.655 Y44.491 E3.05983
G1 X45.736 Y44.202 E3.07400
G1 X45.848 Y43.937 E3.08755
G1 X45.998 Y43.676 E3.10176
G1 X46.180 Y43.436 E3.11596
G1 X46.390 Y43.220 E3.13014
G1 X46.614 Y43.041 E3.14370
G1 X46.870 Y42.882 E3.15791
G1 X47.131 Y42.763 E3.17142
G1 X47.418 Y42.672 E3.18562
G1 X47.714 Y42.617 E3.19983
G1 X48.014 Y42.600 E3.21397
G1 X48.345 Y42.625 E3.22966 F1369.711
G1 X48.670 Y42.695 E3.24532
G1 X48.980 Y42.809 E3.26091
G1 X49.273 Y42.965 E3.27656
G1 X49.541 Y43.160 E3.29220
G1 X49.780 Y43.390 E3.30779
G1 X49.984 Y43.650 E3.32342
G1 X50.150 Y43.932 E3.33882
G1 X50.150 Y46.068 E3.43958
G1 X49.993 Y46.337 E3.45427
G1 X49.799 Y46.588 E3.46920
G1 F1800.000 E2.46920
G92 E0
G1 X47.976 Y42.269 F7800.000
G1 X53.122 Y49.771 F7800.000
G1 E1.00000 F1800.000
G1 X52.824 Y50.073 E1.02002 F2282.852
G1 X52.496 Y50.366 E1.04076
G1 X52.150 Y50.637 E1.06148
G1 X51.788 Y50.887 E1.08222
G1 X51.060 Y51.296 E1.12161
G1 X50.659 Y51.475 E1.14233
G1 X50.246 Y51.630 E1.16309
G1 X49.441 Y51.850 E1.20247
G1 X49.008 Y51.927 E1.22320
G1 X48.571 Y51.977 E1.24394
G1 X48.132 Y51.999 E1.26468
G1 X47.692 Y51.993 E1.28542
G1 X47.254 Y51.960 E1.30616
G1 X46.818 Y51.899 E1.32690
G1 X46.387 Y51.812 E1.34763
G1 X45.963 Y51.697 E1.36836
G1 X45.180 Y51.407 E1.40773
G1 X44.783 Y51.217 E1.42849
G1 X44.399 Y51.003 E1.44922
G1 X44.029 Y50.765 E1.46996
G1 X43.675 Y50.504 E1.49070
G1 X43.338 Y50.221 E1.51144
G1 X43.019 Y49.919 E1.53217
G1 X42.469 Y49.290 E1.57156
G1 X42.210 Y48.934 E1.59231
G1 X41.975 Y48.563 E1.61304
G1 X41.763 Y48.178 E1.63378
G1 X41.576 Y47.780 E1.65451
G1 X41.414 Y47.371 E1.67524
G1 X41.278 Y46.953 E1.69598
G1 X41.169 Y46.527 E1.71671
G1 X41.086 Y46.095 E1.73744
G1 X41.005 Y45.264 E1.77683
G1 X41.002 Y44.824 E1.79759
G1 X41.027 Y44.385 E1.81832
G1 X41.150 Y43.559 E1.85769
G1 X41.254 Y43.131 E1.87845
G1 X41.385 Y42.712 E1.89917
G1 X41.541 Y42.301 E1.91991
G1 X41.724 Y41.901 E1.94065
G1 X41.931 Y41.513 E1.96139
G1 X42.161 Y41.139 E1.98212
G1 X42.663 Y40.471 E2.02150
G1 X42.958 Y40.144 E2.04225
G1 X43.272 Y39.838 E2.06296
G1 X43.606 Y39.551 E2.08372
G1 X43.957 Y39.286 E2.10445
G1 X44.324 Y39.043 E2.12520
G1 X44.705 Y38.824 E2.14593
G1 X45.464 Y38.476 E2.18530
G1 X45.879 Y38.329 E2.20604
G1 X46.302 Y38.209 E2.22680
G1 X46.732 Y38.116 E2.24753
G1 X47.166 Y38.050 E2.26826
G1 X47.604 Y38.011 E2.28900
G1 X48.044 Y38.000 E2.30972
G1 X48.571 Y38.023 E2.33463 F2282.852
G1 X49.052 Y38.079 E2.35744
G1 X49.527 Y38.169 E2.38025
G1 X50.037 Y38.303 E2.40512
G1 X50.536 Y38.476 E2.43002
G1 X50.981 Y38.666 E2.45282
G1 X51.449 Y38.909 E2.47771
G1 X51.862 Y39.161 E2.50051
G1 X52.290 Y39.469 E2.52538
G1 X52.662 Y39.778 E2.54820
G1 X53.012 Y40.113 E2.57102
G1 X53.337 Y40.471 E2.59382
G1 X53.663 Y40.886 E2.61872
G1 X53.934 Y41.286 E2.64152
G1 X54.176 Y41.705 E2.66433
G1 X54.407 Y42.180 E2.68922
G1 X54.586 Y42.629 E2.71202
G1 X54.746 Y43.131 E2.73689
G1 X54.859 Y43.602 E2.75971
G1 X54.945 Y44.123 E2.78459
G1 X54.991 Y44.648 E2.80948
G1 X54.999 Y45.132 E2.83229
G1 X54.969 Y45.659 E2.85717
G1 X54.907 Y46.138 E2.87998
G1 X54.812 Y46.613 E2.90279
G1 X54.671 Y47.121 E2.92769
G1 X54.508 Y47.577 E2.95048
G1 X54.296 Y48.060 E2.97536
G1 X54.069 Y48.487 E2.99818
G1 X53.789 Y48.935 E3.02307
G1 X53.504 Y49.325 E3.04588
G1 X53.163 Y49.727 E3.07073
G1 X53.415 Y50.044 F7800.000
G1 X53.099 Y50.362 E3.09187 F2282.852
G1 X52.753 Y50.672 E3.11379
G1 X52.387 Y50.959 E3.13571
G1 X52.004 Y51.223 E3.15763
G1 X51.646 Y51.439 E3.17736
G1 X51.235 Y51.656 E3.19928
G1 X50.811 Y51.845 E3.22119
G1 X50.375 Y52.009 E3.24314
G1 X49.975 Y52.132 E3.26286
G1 X49.523 Y52.242 E3.28478
G1 X49.066 Y52.323 E3.30670
G1 X48.604 Y52.375 E3.32862
G1 X48.140 Y52.399 E3.35055
G1 X47.674 Y52.393 E3.37248
G1 X47.211 Y52.358 E3.39440
G1 X46.750 Y52.294 E3.41632
G1 X46.295 Y52.201 E3.43824
G1 X45.846 Y52.080 E3.46016
G1 X45.406 Y51.930 E3.48209
G1 X45.019 Y51.773 E3.50180
G1 X44.599 Y51.572 E3.52374
G1 X44.193 Y51.346 E3.54565
G1 X43.802 Y51.094 E3.56758
G1 X43.428 Y50.819 E3.58950
G1 X43.071 Y50.520 E3.61143
G1 X42.735 Y50.200 E3.63335
G1 X42.419 Y49.859 E3.65526
G1 X42.153 Y49.536 E3.67500
G1 X41.879 Y49.159 E3.69694
G1 X41.630 Y48.767 E3.71885
G1 X41.428 Y48.401 E3.73858
G1 X41.227 Y47.981 E3.76052
G1 X41.070 Y47.594 E3.78023
G1 X40.920 Y47.154 E3.80216
G1 X40.799 Y46.705 E3.82407
G1 X40.706 Y46.250 E3.84599
G1 X40.642 Y45.789 E3.86792
G1 X40.607 Y45.326 E3.88983
G1 X40.601 Y44.860 E3.91178
G1 X40.625 Y44.396 E3.93369
G1 X40.677 Y43.934 E3.95561
G1 X40.758 Y43.477 E3.97752
G1 X40.869 Y43.025 E3.99947
G1 X40.991 Y42.625 E4.01917
G1 X41.154 Y42.190 E4.04110
G1 X41.324 Y41.807 E4.06084
G1 X41.538 Y41.394 E4.08277
G1 X41.777 Y40.996 E4.10468
G1 X42.013 Y40.651 E4.12440
G1 X42.298 Y40.283 E4.14634
G1 X42.606 Y39.934 E4.16828
G1 X42.935 Y39.605 E4.19020
G1 X43.283 Y39.298 E4.21212
G1 X43.650 Y39.013 E4.23402
G1 X44.035 Y38.752 E4.25595
G1 X44.435 Y38.515 E4.27786
G1 X44.849 Y38.304 E4.29979
G1 X45.276 Y38.120 E4.32171
G1 X45.713 Y37.962 E4.34363
G1 X46.115 Y37.844 E4.36337
G1 X46.568 Y37.740 E4.38531
G1 X47.026 Y37.664 E4.40721
G1 X47.489 Y37.618 E4.42914
G1 X47.953 Y37.600 E4.45105
G1 X48.511 Y37.618 E4.47736 F2282.852
G1 X49.020 Y37.671 E4.50148
G1 X49.523 Y37.758 E4.52557
G1 X50.065 Y37.894 E4.55189
G1 X50.594 Y38.070 E4.57819
