; generated by Slic3r 1.1.7 on 2014-10-19 at 14:39:40

; perimeters extrusion width = 0.40mm
; infill extrusion width = 0.42mm
; solid infill extrusion width = 0.42mm
; top infill extrusion width = 0.42mm
; support material extrusion width = 0.40mm

G21 ; set units to millimeters
M107
M104 S195 ; set temperature
G28 ; home all axes
G1 Z5 F5000 ; lift nozzle
M109 S195 ; wait for temperature to be reached
G90 ; use absolute coordinates
G92 E0
M82 ; use absolute distances for extrusion
G1 F1800.000 E-1.00000
G92 E0
G1 Z0.400 F7800.000
G1 X37.288 Y34.912 F7800.000
G1 E1.00000 F1800.000
G1 X37.847 Y34.350 E1.08894 F764.632
G1 X38.403 Y33.847 E1.17313
G1 X38.972 Y33.381 E1.25574
G1 X39.595 Y32.923 E1.34253
G1 X40.211 Y32.516 E1.42537
G1 X40.849 Y32.140 E1.50853
G1 X41.505 Y31.797 E1.59160
G1 X42.176 Y31.487 E1.67460
G1 X42.863 Y31.212 E1.75764
G1 X43.612 Y30.955 E1.84651
G1 X44.361 Y30.743 E1.93398
G1 X45.082 Y30.578 E2.01703
G1 X45.864 Y30.442 E2.10612
G1 X46.637 Y30.349 E2.19344
G1 X47.373 Y30.299 E2.27631
G1 X48.113 Y30.286 E2.35936
G1 X48.761 Y30.306 E2.43220 F764.632
G1 X49.376 Y30.350 E2.50136
G1 X49.956 Y30.417 E2.56696
G1 X50.596 Y30.517 E2.63959
G1 X51.770 Y30.777 E2.77460
G1 X52.392 Y30.957 E2.84732
G1 X53.005 Y31.163 E2.91993
G1 X53.608 Y31.397 E2.99252
G1 X54.201 Y31.656 E3.06517
G1 X55.268 Y32.206 E3.19997
G1 X55.824 Y32.539 E3.27269
G1 X56.364 Y32.894 E3.34520
G1 X57.324 Y33.617 E3.48019
G1 X57.816 Y34.039 E3.55287
G1 X58.287 Y34.479 E3.62528
G1 X59.112 Y35.355 E3.76037
G1 X59.525 Y35.852 E3.83293
G1 X59.894 Y36.338 E3.90138
G1 X60.285 Y36.902 E3.97839
G1 X60.607 Y37.412 E4.04608
G1 X60.930 Y37.977 E4.11913
G1 X61.203 Y38.504 E4.18585
G1 X61.475 Y39.090 E4.25840
G1 X61.708 Y39.652 E4.32668
G1 X61.913 Y40.210 E4.39334
G1 X62.110 Y40.826 E4.46593
G1 X62.280 Y41.451 E4.53866
G1 X62.422 Y42.082 E4.61134
G1 X62.530 Y42.678 E4.67930
G1 X62.618 Y43.320 E4.75207
G1 X62.674 Y43.913 E4.81886
G1 X62.708 Y44.559 E4.89146
G1 X62.713 Y45.206 E4.96413
G1 X62.690 Y45.847 E5.03615
G1 X62.571 Y47.048 E5.17161
G1 X62.467 Y47.687 E5.24430
G1 X62.335 Y48.320 E5.31693
G1 X62.175 Y48.948 E5.38964
G1 X61.987 Y49.567 E5.46226
G1 X61.774 Y50.176 E5.53467
G1 X61.533 Y50.777 E5.60740
G1 X61.016 Y51.862 E5.74231
G1 X60.412 Y52.902 E5.87729
G1 X60.055 Y53.437 E5.94955
G1 X59.670 Y53.961 E6.02251
G1 X58.899 Y54.885 E6.15761
G1 X58.454 Y55.355 E6.23031
G1 X57.991 Y55.802 E6.30254
G1 X57.506 Y56.232 E6.37526
G1 X57.004 Y56.638 E6.44773
G1 X56.023 Y57.334 E6.58279
G1 X54.989 Y57.949 E6.71783
G1 X54.413 Y58.243 E6.79047
G1 X53.825 Y58.512 E6.86306
G1 X53.226 Y58.755 E6.93560
G1 X52.617 Y58.971 E7.00807
G1 X51.460 Y59.302 E7.14322
G1 X50.828 Y59.440 E7.21581
G1 X50.199 Y59.549 E7.28747
G1 X48.995 Y59.680 E7.42349
G1 X47.794 Y59.713 E7.55831
G1 X47.158 Y59.690 E7.62976
G1 X46.503 Y59.638 E7.70358
G1 X45.860 Y59.558 E7.77632
G1 X45.221 Y59.449 E7.84899
G1 X44.052 Y59.175 E7.98380
G1 X43.434 Y58.988 E8.05635
G1 X42.824 Y58.774 E8.12885
G1 X41.718 Y58.306 E8.26373
G1 X41.138 Y58.016 E8.33643
G1 X40.572 Y57.701 E8.40919
G1 X39.558 Y57.051 E8.54440
G1 X39.039 Y56.670 E8.61669
G1 X38.534 Y56.265 E8.68932
G1 X38.048 Y55.838 E8.76199
G1 X37.585 Y55.394 E8.83402
G1 X36.766 Y54.503 E8.96980
G1 X36.361 Y54.002 E9.04212
G1 X35.979 Y53.486 E9.11426
G1 X35.324 Y52.472 E9.24973
G1 X35.009 Y51.909 E9.32224
G1 X34.718 Y51.332 E9.39473
G1 X34.245 Y50.224 E9.52994
G1 X34.029 Y49.617 E9.60224
G1 X33.839 Y48.997 E9.67506
G1 X33.677 Y48.369 E9.74790
G1 X33.543 Y47.738 E9.82034
G1 X33.367 Y46.547 E9.95546
G1 X33.314 Y45.903 E10.02801
G1 X33.288 Y45.263 E10.09991
G1 X33.290 Y44.651 E10.16865
G1 X33.320 Y44.004 E10.24128
G1 X33.372 Y43.410 E10.30826
G1 X33.456 Y42.769 E10.38079
G1 X33.568 Y42.132 E10.45344
G1 X33.708 Y41.500 E10.52615
G1 X33.866 Y40.911 E10.59458
G1 X34.059 Y40.294 E10.66707
G1 X34.280 Y39.684 E10.73994
G1 X34.505 Y39.137 E10.80637
G1 X34.775 Y38.550 E10.87890
G1 X35.051 Y38.012 E10.94672
G1 X35.346 Y37.492 E11.01393
G1 X35.687 Y36.944 E11.08640
G1 X36.054 Y36.410 E11.15905
G1 X36.444 Y35.892 E11.23185
G1 X36.855 Y35.393 E11.30439
G1 X37.247 Y34.956 E11.37037
G1 F1800.000 E10.37037
G92 E0
G1 X50.953 Y47.740 F7800.000
G1 E1.00000 F1800.000
G1 X50.588 Y48.087 E1.05648 F764.632
G1 X50.175 Y48.391 E1.11408
G1 X49.757 Y48.625 E1.16788
G1 X49.288 Y48.817 E1.22465
G1 X48.803 Y48.947 E1.28104
G1 X48.304 Y49.017 E1.33771
G1 X47.821 Y49.024 E1.39191
G1 X47.318 Y48.970 E1.44865
G1 X46.832 Y48.855 E1.50468
G1 X46.376 Y48.687 E1.55926
G1 X45.925 Y48.453 E1.61632
G1 X45.509 Y48.166 E1.67301
G1 X45.135 Y47.832 E1.72939
G1 X44.799 Y47.446 E1.78678
G1 X44.518 Y47.026 E1.84354
G1 X44.303 Y46.599 E1.89717
G1 X44.138 Y46.144 E1.95155
G1 X44.025 Y45.651 E2.00832
G1 X43.974 Y45.148 E2.06508
G1 X43.987 Y44.649 E2.12105
G1 X44.059 Y44.167 E2.17583
G1 X44.192 Y43.686 E2.23188
G1 X44.387 Y43.218 E2.28873
G1 X44.638 Y42.781 E2.34533
G1 X44.943 Y42.377 E2.40217
G1 X45.279 Y42.029 E2.45647
G1 X45.673 Y41.712 E2.51317
G1 X46.104 Y41.446 E2.57004
G1 X46.537 Y41.247 E2.62353
G1 X47.024 Y41.092 E2.68099
G1 X47.516 Y41.001 E2.73711
G1 X48.016 Y40.972 E2.79337
G1 X48.609 Y41.018 E2.86012 F764.632
G1 X49.192 Y41.152 E2.92724
G1 X49.757 Y41.375 E2.99541
G1 X50.260 Y41.665 E3.06067
G1 X50.719 Y42.028 E3.12630
G1 X51.121 Y42.453 E3.19193
G1 X51.440 Y42.903 E3.25395
G1 X51.778 Y43.527 E3.33362
G1 X51.778 Y46.473 E3.66429
G1 X51.386 Y47.182 E3.75528
G1 X51.196 Y47.453 E3.79243
G1 X50.993 Y47.696 E3.82797
G1 X50.429 Y47.254 F7800.000
G1 X50.129 Y47.540 E3.87450 F764.632
G1 X49.790 Y47.789 E3.92172
G1 X49.446 Y47.982 E3.96601
G1 X49.061 Y48.140 E4.01272
G1 X48.661 Y48.248 E4.05920
G1 X48.250 Y48.305 E4.10584
G1 X47.831 Y48.310 E4.15284
G1 X47.439 Y48.266 E4.19708
G1 X47.038 Y48.172 E4.24334
G1 X46.664 Y48.033 E4.28810
G1 X46.294 Y47.841 E4.33499
G1 X45.951 Y47.605 E4.38165
G1 X45.643 Y47.329 E4.42812
G1 X45.381 Y47.031 E4.47273
G1 X45.158 Y46.705 E4.51703
G1 X44.967 Y46.335 E4.56374
G1 X44.829 Y45.964 E4.60818
G1 X44.733 Y45.558 E4.65504
G1 X44.689 Y45.147 E4.70146
G1 X44.697 Y44.728 E4.74842
G1 X44.756 Y44.319 E4.79483
G1 X44.867 Y43.918 E4.84156
G1 X45.018 Y43.554 E4.88580
G1 X45.223 Y43.191 E4.93266
G1 X45.460 Y42.871 E4.97730
G1 X45.746 Y42.571 E5.02384
G1 X46.067 Y42.308 E5.07038
G1 X46.421 Y42.086 E5.11733
G1 X46.797 Y41.912 E5.16382
G1 X47.174 Y41.791 E5.20826
G1 X47.583 Y41.712 E5.25508
G1 X47.998 Y41.686 E5.30172
G1 X48.476 Y41.720 E5.35554 F764.632
G1 X48.964 Y41.829 E5.41166
G1 X49.411 Y42.001 E5.46542
G1 X49.826 Y42.234 E5.51890
G1 X50.205 Y42.526 E5.57253
G1 X50.540 Y42.871 E5.62646
G1 X50.809 Y43.241 E5.67793
G1 X51.064 Y43.705 E5.73729
G1 X51.064 Y46.295 E6.02813
G1 X50.776 Y46.810 E6.09429
G1 X50.470 Y47.210 E6.15087
G1 X49.906 Y46.768 F7800.000
G1 X49.670 Y46.993 E6.18746 F600.000
G1 X49.406 Y47.187 E6.22430
G1 X49.136 Y47.339 E6.25908
G1 X48.833 Y47.463 E6.29574
G1 X48.519 Y47.548 E6.33230
G1 X48.196 Y47.593 E6.36893
G1 X47.868 Y47.597 E6.40568
G1 X47.561 Y47.563 E6.44045
G1 X47.244 Y47.488 E6.47694
G1 X46.952 Y47.380 E6.51189
G1 X46.662 Y47.229 E6.54861
G1 X46.393 Y47.044 E6.58524
G1 X46.150 Y46.827 E6.62180
G1 X45.945 Y46.593 E6.65673
G1 X45.762 Y46.323 E6.69340
G1 X45.614 Y46.032 E6.72999
G1 X45.503 Y45.725 E6.76663
G1 X45.434 Y45.422 E6.80158
G1 X45.402 Y45.097 E6.83823
G1 X45.410 Y44.772 E6.87467
G1 X45.456 Y44.464 E6.90968
G1 X45.543 Y44.151 E6.94618
G1 X45.669 Y43.849 E6.98284
G1 X45.831 Y43.566 E7.01946
G1 X46.028 Y43.306 E7.05612
G1 X46.244 Y43.083 E7.09102
G1 X46.498 Y42.878 E7.12765
G1 X46.776 Y42.706 E7.16432
G1 X47.057 Y42.577 E7.19905
G1 X47.370 Y42.478 E7.23584
G1 X47.689 Y42.419 E7.27236
G1 X48.014 Y42.400 E7.30886
G1 X48.374 Y42.427 E7.34938 F600.000
G1 X48.725 Y42.503 E7.38974
G1 X49.076 Y42.633 E7.43175
G1 X49.393 Y42.805 E7.47217
G1 X49.682 Y43.017 E7.51242
G1 X49.939 Y43.268 E7.55273
G1 X50.159 Y43.552 E7.59309
G1 X50.350 Y43.882 E7.63590
G1 X50.350 Y46.118 E7.88691
G1 X50.160 Y46.447 E7.92953
G1 X49.947 Y46.724 E7.96879
G1 F1800.000 E6.96879
G92 E0
G1 X47.974 Y42.041 F7800.000
G1 X52.533 Y49.188 F7800.000
G1 E1.00000 F1800.000
G1 X51.993 Y49.706 E1.08394 F764.632
G1 X51.372 Y50.169 E1.17093
G1 X50.698 Y50.551 E1.25793
G1 X49.981 Y50.845 E1.34496
G1 X49.271 Y51.039 E1.42760
G1 X48.504 Y51.151 E1.51461
G1 X47.729 Y51.166 E1.60162
G1 X46.958 Y51.083 E1.68861
G1 X46.204 Y50.905 E1.77563
G1 X45.514 Y50.649 E1.85827
G1 X44.825 Y50.292 E1.94530
G1 X44.187 Y49.853 E2.03228
G1 X43.609 Y49.336 E2.11933
G1 X43.123 Y48.783 E2.20197
G1 X42.688 Y48.142 E2.28897
G1 X42.336 Y47.451 E2.37597
G1 X42.073 Y46.722 E2.46301
G1 X41.904 Y45.966 E2.54999
G1 X41.833 Y45.233 E2.63266
G1 X41.852 Y44.458 E2.71964
G1 X41.960 Y43.730 E2.80230
G1 X42.167 Y42.983 E2.88929
G1 X42.466 Y42.267 E2.97635
G1 X42.853 Y41.595 E3.06339
G1 X43.320 Y40.977 E3.15035
G1 X43.861 Y40.422 E3.23735
G1 X44.467 Y39.939 E3.32438
G1 X45.095 Y39.555 E3.40701
G1 X45.801 Y39.234 E3.49404
G1 X46.540 Y39.003 E3.58103
G1 X47.303 Y38.868 E3.66801
G1 X48.039 Y38.828 E3.75072
G1 X48.503 Y38.849 E3.80289 F764.632
G1 X48.927 Y38.898 E3.85081
G1 X49.384 Y38.986 E3.90304
G1 X49.797 Y39.096 E3.95093
G1 X50.236 Y39.248 E4.00311
G1 X50.628 Y39.416 E4.05099
G1 X51.041 Y39.630 E4.10322
G1 X51.405 Y39.853 E4.15114
G1 X51.783 Y40.123 E4.20332
G1 X52.110 Y40.396 E4.25121
G1 X52.419 Y40.691 E4.29907
G1 X52.705 Y41.006 E4.34693
G1 X52.993 Y41.372 E4.39915
G1 X53.232 Y41.726 E4.44706
G1 X53.463 Y42.129 E4.49926
G1 X53.649 Y42.514 E4.54717
G1 X53.807 Y42.910 E4.59504
G1 X53.948 Y43.353 E4.64723
G1 X54.047 Y43.767 E4.69509
G1 X54.123 Y44.227 E4.74737
G1 X54.164 Y44.690 E4.79956
G1 X54.171 Y45.116 E4.84742
G1 X54.144 Y45.581 E4.89966
G1 X54.090 Y46.004 E4.94755
G1 X54.006 Y46.422 E4.99543
G1 X53.882 Y46.870 E5.04764
G1 X53.738 Y47.272 E5.09554
G1 X53.551 Y47.698 E5.14776
G1 X53.332 Y48.108 E5.19997
G1 X53.104 Y48.469 E5.24785
G1 X52.853 Y48.813 E5.29571
G1 X52.574 Y49.144 E5.34429
G1 X53.058 Y49.672 F7800.000
G1 X52.776 Y49.960 E5.38956 F764.632
G1 X52.455 Y50.250 E5.43810
G1 X52.117 Y50.519 E5.48666
G1 X51.762 Y50.767 E5.53521
G1 X51.049 Y51.174 E5.62742
G1 X50.655 Y51.353 E5.67600
G1 X50.251 Y51.508 E5.72458
G1 X49.838 Y51.636 E5.77314
G1 X49.418 Y51.738 E5.82168
G1 X48.991 Y51.814 E5.87027
G1 X48.562 Y51.863 E5.91880
G1 X47.741 Y51.881 E6.01101
G1 X47.309 Y51.851 E6.05959
G1 X46.880 Y51.794 E6.10815
G1 X46.079 Y51.612 E6.20036
G1 X45.668 Y51.479 E6.24892
G1 X45.265 Y51.319 E6.29753
G1 X44.874 Y51.135 E6.34607
G1 X44.495 Y50.927 E6.39460
G1 X44.130 Y50.695 E6.44317
G1 X43.780 Y50.441 E6.49176
G1 X43.446 Y50.165 E6.54030
G1 X43.131 Y49.869 E6.58888
G1 X42.835 Y49.554 E6.63743
G1 X42.559 Y49.220 E6.68599
G1 X42.305 Y48.870 E6.73456
G1 X42.073 Y48.505 E6.78311
G1 X41.698 Y47.774 E6.87536
G1 X41.412 Y47.004 E6.96752
G1 X41.299 Y46.586 E7.01612
G1 X41.213 Y46.162 E7.06470
G1 X41.153 Y45.734 E7.11321
G1 X41.121 Y45.303 E7.16181
G1 X41.115 Y44.870 E7.21034
G1 X41.137 Y44.439 E7.25889
G1 X41.186 Y44.008 E7.30751
G1 X41.262 Y43.583 E7.35603
G1 X41.478 Y42.790 E7.44827
G1 X41.788 Y42.029 E7.54049
G1 X41.987 Y41.645 E7.58909
G1 X42.209 Y41.274 E7.63764
G1 X42.695 Y40.611 E7.72988
G1 X42.981 Y40.286 E7.77844
G1 X43.286 Y39.980 E7.82700
G1 X43.611 Y39.694 E7.87556
G1 X43.952 Y39.429 E7.92404
G1 X44.310 Y39.186 E7.97263
G1 X44.683 Y38.966 E8.02119
G1 X45.425 Y38.614 E8.11341
G1 X45.831 Y38.465 E8.16199
G1 X46.246 Y38.341 E8.21054
G1 X46.667 Y38.244 E8.25914
G1 X47.094 Y38.174 E8.30767
G1 X47.525 Y38.131 E8.35626
G1 X47.957 Y38.114 E8.40480
G1 X48.476 Y38.131 E8.46307 F764.632
G1 X48.949 Y38.180 E8.51649
G1 X49.417 Y38.262 E8.56988
G1 X49.921 Y38.388 E8.62815
G1 X50.414 Y38.551 E8.68646
G1 X50.854 Y38.733 E8.73988
G1 X51.279 Y38.945 E8.79327
G1 X51.726 Y39.209 E8.85155
G1 X52.151 Y39.506 E8.90976
G1 X52.521 Y39.807 E8.96326
G1 X52.900 Y40.162 E9.02151
G1 X53.222 Y40.511 E9.07486
G1 X53.520 Y40.883 E9.12833
G1 X53.814 Y41.310 E9.18657
G1 X54.055 Y41.721 E9.23999
G1 X54.285 Y42.186 E9.29827
G1 X54.479 Y42.668 E9.35656
G1 X54.624 Y43.120 E9.40995
G1 X54.738 Y43.582 E9.46336
G1 X54.826 Y44.094 E9.52166
G1 X54.875 Y44.611 E9.57990
G1 X54.885 Y45.087 E9.63332
G1 X54.863 Y45.562 E9.68675
G1 X54.801 Y46.077 E9.74502
G1 X54.701 Y46.586 E9.80328
G1 X54.575 Y47.045 E9.85668
G1 X54.418 Y47.495 E9.91012
G1 X54.212 Y47.971 E9.96837
G1 X53.971 Y48.430 E10.02663
G1 X53.719 Y48.834 E10.08004
G1 X53.414 Y49.254 E10.13832
G1 X53.099 Y49.628 E10.19318
G1 X53.584 Y50.156 F7800.000
G1 X53.272 Y50.474 E10.24323 F600.000
G1 X52.918 Y50.795 E10.29682
G1 X52.544 Y51.092 E10.35042
G1 X52.153 Y51.365 E10.40400
G1 X51.745 Y51.613 E10.45761
G1 X51.322 Y51.835 E10.51120
G1 X50.886 Y52.031 E10.56480
G1 X50.439 Y52.198 E10.61841
G1 X50.028 Y52.324 E10.66666
G1 X49.565 Y52.437 E10.72022
G1 X49.094 Y52.521 E10.77385
G1 X48.620 Y52.575 E10.82742
G1 X48.143 Y52.599 E10.88105
G1 X47.666 Y52.593 E10.93462
G1 X47.190 Y52.557 E10.98820
G1 X46.717 Y52.491 E11.04181
G1 X46.249 Y52.396 E11.09541
G1 X45.788 Y52.271 E11.14899
G1 X45.336 Y52.118 E11.20262
G1 X44.938 Y51.956 E11.25083
G1 X44.507 Y51.750 E11.30445
G1 X44.090 Y51.517 E11.35804
G1 X43.689 Y51.259 E11.41163
G1 X43.304 Y50.976 E11.46521
G1 X42.938 Y50.669 E11.51885
G1 X42.592 Y50.340 E11.57245
G1 X42.268 Y49.990 E11.62601
G1 X41.995 Y49.658 E11.67427
G1 X41.714 Y49.272 E11.72787
G1 X41.458 Y48.869 E11.78146
G1 X41.228 Y48.450 E11.83506
G1 X41.025 Y48.018 E11.88865
G1 X40.849 Y47.575 E11.94222
G1 X40.702 Y47.120 E11.99587
G1 X40.583 Y46.658 E12.04949
G1 X40.494 Y46.189 E12.10304
G1 X40.434 Y45.715 E12.15669
G1 X40.405 Y45.286 E12.20490
G1 X40.402 Y44.809 E12.25847
G1 X40.429 Y44.333 E12.31205
G1 X40.479 Y43.905 E12.36035
G1 X40.563 Y43.436 E12.41390
G1 X40.676 Y42.972 E12.46749
G1 X40.817 Y42.516 E12.52107
G1 X40.988 Y42.070 E12.57471
G1 X41.186 Y41.635 E12.62831
G1 X41.410 Y41.214 E12.68188
G1 X41.661 Y40.807 E12.73554
G1 X41.937 Y40.418 E12.78906
G1 X42.205 Y40.083 E12.83730
G1 X42.526 Y39.728 E12.89094
G1 X42.868 Y39.395 E12.94453
G1 X43.230 Y39.084 E12.99813
G1 X43.610 Y38.796 E13.05171
G1 X44.009 Y38.532 E13.10532
G1 X44.423 Y38.295 E13.15892
G1 X44.851 Y38.083 E13.21248
G1 X45.291 Y37.899 E13.26613
G1 X45.742 Y37.743 E13.31970
G1 X46.202 Y37.616 E13.37329
G1 X46.670 Y37.517 E13.42692
G1 X47.142 Y37.449 E13.48047
G1 X47.618 Y37.410 E13.53412
G1 X48.048 Y37.400 E13.58236
G1 X48.620 Y37.425 E13.64661 F600.000
G1 X49.142 Y37.486 E13.70562
G1 X49.658 Y37.583 E13.76452
G1 X50.212 Y37.729 E13.82890
G1 X50.753 Y37.916 E13.89316
G1 X51.236 Y38.123 E13.95214
G1 X51.745 Y38.387 E14.01644
G1 X52.193 Y38.661 E14.07545
G1 X52.658 Y38.995 E14.13971
G1 X53.062 Y39.331 E14.19869
G1 X53.441 Y39.694 E14.25764
G1 X53.794 Y40.082 E14.31657
G1 X54.148 Y40.533 E14.38087
G1 X54.442 Y40.968 E14.43985
G1 X54.728 Y41.465 E14.50414
G1 X54.956 Y41.938 E14.56313
G1 X55.151 Y42.426 E14.62209
G1 X55.324 Y42.971 E14.68637
G1 X55.447 Y43.482 E14.74531
G1 X55.540 Y44.048 E14.80966
G1 X55.590 Y44.618 E14.87395
G1 X55.599 Y45.143 E14.93289
G1 X55.566 Y45.715 E14.99722
G1 X55.499 Y46.236 E15.05619
G1 X55.396 Y46.751 E15.11515
G1 X55.243 Y47.303 E15.17944
G1 X55.066 Y47.798 E15.23842
G1 X54.835 Y48.322 E15.30272
G1 X54.566 Y48.828 E15.36703
G1 X54.286 Y49.272 E15.42599
G1 X53.976 Y49.696 E15.48493
G1 X53.624 Y50.112 E15.54607
G1 X48.416 Y37.557 F7800.000
G1 X51.701 Y40.706 F7800.000
G1 X52.273 Y41.278 E15.63688 F764.632
G1 X52.276 Y43.413 F7800.000
G1 X53.664 Y44.801 E15.85722 F764.632
G1 X53.608 Y45.811 E15.97076
G1 X52.276 Y44.479 E16.18218
G1 X52.276 Y45.545 E16.30185
G1 X53.416 Y46.685 E16.48278
G1 X53.112 Y47.447 E16.57488
G1 X52.272 Y46.607 E16.70824
G1 X51.897 Y47.298 E16.79650
G1 X52.731 Y48.132 E16.92885
G1 X52.264 Y48.731 E17.01412
G1 X51.453 Y47.920 E17.14284
G1 X50.917 Y48.450 E17.22746
G1 X51.731 Y49.264 E17.35667
G1 X51.132 Y49.731 E17.44194
G1 X50.292 Y48.891 E17.57524
G1 X49.569 Y49.234 E17.66506
G1 X50.447 Y50.112 E17.80440
G1 X49.685 Y50.416 E17.89650
G1 X48.733 Y49.464 E18.04763
G1 X47.715 Y49.512 E18.16199
G1 X48.811 Y50.608 E18.33590
G1 X47.801 Y50.664 E18.44944
G1 X46.347 Y49.210 E18.68024
G1 X46.549 Y50.478 E18.82431
