; generated by Slic3r 1.1.7 on 2014-10-07 at 19:32:30

; perimeters extrusion width = 0.40mm
; infill extrusion width = 0.42mm
; solid infill extrusion width = 0.42mm
; top infill extrusion width = 0.42mm
; support material extrusion width = 0.40mm

G21 ; set units to millimeters
M107
M104 S195 ; set temperature
G28 ; home all axes
G1 Z5 F5000 ; lift nozzle
M109 S195 ; wait for temperature to be reached
G90 ; use absolute coordinates
G92 E0
M82 ; use absolute distances for extrusion
G1 F1800.000 E-1.00000
G92 E0
G1 Z0.300 F7800.000
G1 X26.001 Y35.091 F7800.000
G1 E1.00000 F1800.000
G1 X28.168 Y34.253 E1.10958 F2100.000
G1 X29.500 Y34.122 E1.17269
G1 X66.500 Y34.122 E2.91750
G1 X68.790 Y34.519 E3.02708
G1 X70.812 Y35.664 E3.13667 F2100.000
G1 X72.331 Y37.422 E3.24625
G1 X73.168 Y39.590 E3.35583
G1 X73.300 Y40.922 E3.41894
G1 X73.300 Y49.078 E3.80359
G1 X72.903 Y51.368 E3.91317
G1 X71.758 Y53.390 E4.02275
G1 X69.999 Y54.909 E4.13234
G1 X67.832 Y55.747 E4.24192
G1 X66.500 Y55.878 E4.30503
G1 X29.500 Y55.878 E6.04984
G1 X27.210 Y55.481 E6.15942
G1 X25.188 Y54.336 E6.26900
G1 X23.669 Y52.578 E6.37859
G1 X22.832 Y50.410 E6.48817
G1 X22.700 Y49.078 E6.55128
G1 X22.700 Y40.922 E6.93592
G1 X23.097 Y38.632 E7.04551
G1 X24.242 Y36.610 E7.15509
G1 X25.955 Y35.130 E7.26184
G1 X26.272 Y35.423 F7800.000
G1 X26.383 Y35.332 E7.26858 F2100.000
G1 X29.500 Y34.522 E7.42048
G1 X66.500 Y34.522 E9.16529
G1 X68.719 Y34.919 E9.27157
G1 X70.662 Y36.060 E9.37786 F2100.000
G1 X72.089 Y37.804 E9.48415
G1 X72.900 Y40.922 E9.63604
G1 X72.900 Y49.078 E10.02068
G1 X72.503 Y51.297 E10.12697
G1 X71.362 Y53.241 E10.23326
G1 X69.617 Y54.668 E10.33954
G1 X66.500 Y55.478 E10.49144
G1 X29.500 Y55.478 E12.23625
G1 X27.281 Y55.081 E12.34253
G1 X25.338 Y53.940 E12.44882
G1 X23.911 Y52.196 E12.55511
G1 X23.100 Y49.078 E12.70700
G1 X23.100 Y40.922 E13.09165
G1 X23.497 Y38.703 E13.19793
G1 X24.638 Y36.759 E13.30422
G1 X26.226 Y35.461 E13.40094
G1 F1800.000 E12.40094
G92 E0
G1 X65.500 Y48.078 F7800.000
G1 E1.00000 F1800.000
G1 X30.500 Y48.078 E2.65050 F2520.000
G1 X30.500 Y47.578 E2.67407
G1 X65.500 Y47.578 E4.32457
G1 X65.500 Y48.018 E4.34532
G1 X65.900 Y48.478 F7800.000
G1 X30.100 Y48.478 E6.03354 F2520.000
G1 X30.100 Y47.178 E6.09484
G1 X65.900 Y47.178 E7.78307
G1 X65.900 Y48.418 E7.84154
G1 X66.300 Y48.878 F7800.000
G1 X29.700 Y48.878 E9.56749 F1512.000
G1 X29.700 Y46.778 E9.66652
G1 X66.300 Y46.778 E11.39246
G1 X66.300 Y48.818 E11.48866
G1 X65.954 Y48.678 F7800.000
G1 F1800.000 E10.48866
G92 E0
G1 X65.500 Y42.422 F7800.000
G1 E1.00000 F1800.000
G1 X30.500 Y42.422 E2.65050 F2520.000
G1 X30.500 Y41.922 E2.67407
G1 X65.500 Y41.922 E4.32457
G1 X65.500 Y42.362 E4.34532
G1 X65.900 Y42.822 F7800.000
G1 X30.100 Y42.822 E6.03354 F2520.000
G1 X30.100 Y41.522 E6.09484
G1 X65.900 Y41.522 E7.78307
G1 X65.900 Y42.762 E7.84154
G1 X66.300 Y43.222 F7800.000
G1 X29.700 Y43.222 E9.56749 F1512.000
G1 X29.700 Y41.122 E9.66652
G1 X66.300 Y41.122 E11.39247
G1 X66.300 Y43.162 E11.48867
G1 X65.954 Y43.022 F7800.000
M106 S255
G1 F1800.000 E10.48867
G92 E0
G1 Z0.600 F7800.000
G1 X65.500 Y48.078 F7800.000
G1 E1.00000 F1800.000
G1 X30.500 Y48.078 E2.65050 F1643.880
G1 X30.500 Y47.578 E2.67407
G1 X65.500 Y47.578 E4.32457
G1 X65.500 Y48.018 E4.34532
G1 X65.900 Y48.478 F7800.000
G1 X30.100 Y48.478 E6.03354 F1643.880
G1 X30.100 Y47.178 E6.09484
G1 X65.900 Y47.178 E7.78307
G1 X65.900 Y48.418 E7.84154
G1 X66.300 Y48.878 F7800.000
G1 X29.700 Y48.878 E9.56749 F986.328
G1 X29.700 Y46.778 E9.66652
G1 X66.300 Y46.778 E11.39246
G1 X66.300 Y48.818 E11.48866
G1 X65.954 Y48.678 F7800.000
G1 F1800.000 E10.48866
G92 E0
G1 X65.500 Y42.422 F7800.000
G1 E1.00000 F1800.000
G1 X30.500 Y42.422 E2.65050 F1643.880
G1 X30.500 Y41.922 E2.67407
G1 X65.500 Y41.922 E4.32457
G1 X65.500 Y42.362 E4.34532
G1 X65.900 Y42.822 F7800.000
G1 X30.100 Y42.822 E6.03354 F1643.880
G1 X30.100 Y41.522 E6.09484
G1 X65.900 Y41.522 E7.78307
G1 X65.900 Y42.762 E7.84154
G1 X66.300 Y43.222 F7800.000
G1 X29.700 Y43.222 E9.56749 F986.328
G1 X29.700 Y41.122 E9.66652
G1 X66.300 Y41.122 E11.39247
G1 X66.300 Y43.162 E11.48867
G1 X65.954 Y43.022 F7800.000
G1 F1800.000 E10.48867
G92 E0
G1 Z0.900 F7800.000
G1 X65.500 Y48.078 F7800.000
G1 E1.00000 F1800.000
G1 X30.500 Y48.078 E2.65050 F1643.880
G1 X30.500 Y47.578 E2.67407
G1 X65.500 Y47.578 E4.32457
G1 X65.500 Y48.018 E4.34532
G1 X65.900 Y48.478 F7800.000
G1 X30.100 Y48.478 E6.03354 F1643.880
G1 X30.100 Y47.178 E6.09484
G1 X65.900 Y47.178 E7.78307
G1 X65.900 Y48.418 E7.84154
G1 X66.300 Y48.878 F7800.000
G1 X29.700 Y48.878 E9.56749 F986.328
G1 X29.700 Y46.778 E9.66652
G1 X66.300 Y46.778 E11.39246
G1 X66.300 Y48.818 E11.48866
G1 X65.954 Y48.678 F7800.000
G1 F1800.000 E10.48866
G92 E0
G1 X65.500 Y42.422 F7800.000
G1 E1.00000 F1800.000
G1 X30.500 Y42.422 E2.65050 F1643.880
G1 X30.500 Y41.922 E2.67407
G1 X65.500 Y41.922 E4.32457
G1 X65.500 Y42.362 E4.34532
G1 X65.900 Y42.822 F7800.000
G1 X30.100 Y42.822 E6.03354 F1643.880
G1 X30.100 Y41.522 E6.09484
G1 X65.900 Y41.522 E7.78307
G1 X65.900 Y42.762 E7.84154
G1 X66.300 Y43.222 F7800.000
G1 X29.700 Y43.222 E9.56749 F986.328
G1 X29.700 Y41.122 E9.66652
G1 X66.300 Y41.122 E11.39247
G1 X66.300 Y43.162 E11.48867
G1 X65.954 Y43.022 F7800.000
G1 F1800.000 E10.48867
G92 E0
G1 Z1.200 F7800.000
G1 X65.500 Y48.078 F7800.000
G1 E1.00000 F1800.000
G1 X30.500 Y48.078 E2.65050 F1643.880
G1 X30.500 Y47.578 E2.67407
G1 X65.500 Y47.578 E4.32457
G1 X65.500 Y48.018 E4.34532
G1 X65.900 Y48.478 F7800.000
G1 X30.100 Y48.478 E6.03354 F1643.880
G1 X30.100 Y47.178 E6.09484
G1 X65.900 Y47.178 E7.78307
G1 X65.900 Y48.418 E7.84154
G1 X66.300 Y48.878 F7800.000
G1 X29.700 Y48.878 E9.56749 F986.328
G1 X29.700 Y46.778 E9.66652
G1 X66.300 Y46.778 E11.39246
G1 X66.300 Y48.818 E11.48866
G1 X65.954 Y48.678 F7800.000
G1 F1800.000 E10.48866
G92 E0
G1 X65.500 Y42.422 F7800.000
G1 E1.00000 F1800.000
G1 X30.500 Y42.422 E2.65050 F1643.880
G1 X30.500 Y41.922 E2.67407
G1 X65.500 Y41.922 E4.32457
G1 X65.500 Y42.362 E4.34532
G1 X65.900 Y42.822 F7800.000
G1 X30.100 Y42.822 E6.03354 F1643.880
G1 X30.100 Y41.522 E6.09484
G1 X65.900 Y41.522 E7.78307
G1 X65.900 Y42.762 E7.84154
G1 X66.300 Y43.222 F7800.000
G1 X29.700 Y43.222 E9.56749 F986.328
G1 X29.700 Y41.122 E9.66652
G1 X66.300 Y41.122 E11.39247
G1 X66.300 Y43.162 E11.48867
G1 X65.954 Y43.022 F7800.000
G1 F1800.000 E10.48867
G92 E0
G1 Z1.500 F7800.000
G1 X65.500 Y48.078 F7800.000
G1 E1.00000 F1800.000
G1 X30.500 Y48.078 E2.65050 F1643.880
G1 X30.500 Y47.578 E2.67407
G1 X65.500 Y47.578 E4.32457
G1 X65.500 Y48.018 E4.34532
G1 X65.900 Y48.478 F7800.000
G1 X30.100 Y48.478 E6.03354 F1643.880
G1 X30.100 Y47.178 E6.09484
G1 X65.900 Y47.178 E7.78307
G1 X65.900 Y48.418 E7.84154
G1 X66.300 Y48.878 F7800.000
G1 X29.700 Y48.878 E9.56749 F986.328
G1 X29.700 Y46.778 E9.66652
G1 X66.300 Y46.778 E11.39246
G1 X66.300 Y48.818 E11.48866
G1 X65.954 Y48.678 F7800.000
G1 F1800.000 E10.48866
G92 E0
G1 X65.500 Y42.422 F7800.000
G1 E1.00000 F1800.000
G1 X30.500 Y42.422 E2.65050 F1643.880
G1 X30.500 Y41.922 E2.67407
G1 X65.500 Y41.922 E4.32457
G1 X65.500 Y42.362 E4.34532
G1 X65.900 Y42.822 F7800.000
G1 X30.100 Y42.822 E6.03354 F1643.880
G1 X30.100 Y41.522 E6.09484
G1 X65.900 Y41.522 E7.78307
G1 X65.900 Y42.762 E7.84154
G1 X66.300 Y43.222 F7800.000
G1 X29.700 Y43.222 E9.56749 F986.328
G1 X29.700 Y41.122 E9.66652
G1 X66.300 Y41.122 E11.39247
G1 X66.300 Y43.162 E11.48867
G1 X65.954 Y43.022 F7800.000
G1 F1800.000 E10.48867
G92 E0
G1 Z1.800 F7800.000
G1 X65.500 Y48.078 F7800.000
G1 E1.00000 F1800.000
G1 X65.007 Y48.078 E1.02323 F1586.295
G1 X65.007 Y47.578 E1.04681
G1 X65.500 Y47.578 E1.07004
G1 X65.500 Y48.018 E1.09079
G1 X65.900 Y48.478 F7800.000
G1 X64.607 Y48.478 E1.15175 F1586.295
G1 X64.607 Y47.178 E1.21305
G1 X65.900 Y47.178 E1.27401
G1 X65.900 Y48.418 E1.33248
G1 X66.300 Y48.878 F7800.000
G1 X64.207 Y48.878 E1.43117 F951.777
G1 X64.207 Y46.778 E1.53020
G1 X66.300 Y46.778 E1.62888
G1 X66.300 Y48.818 E1.72508
G1 X65.954 Y48.678 F7800.000
G1 F1800.000 E0.72508
G92 E0
G1 X61.993 Y48.078 F7800.000
G1 E1.00000 F1800.000
G1 X61.049 Y48.078 E1.04452 F1586.295
G1 X61.049 Y47.578 E1.06810
G1 X61.993 Y47.578 E1.11262
G1 X61.993 Y48.018 E1.13336
G1 X62.393 Y48.478 F7800.000
G1 X60.649 Y48.478 E1.21561 F1586.295
G1 X60.649 Y47.178 E1.27691
G1 X62.393 Y47.178 E1.35916
G1 X62.393 Y48.418 E1.41763
G1 X62.793 Y48.878 F7800.000
G1 X60.249 Y48.878 E1.53760 F951.777
G1 X60.249 Y46.778 E1.63663
G1 X62.793 Y46.778 E1.75660
G1 X62.793 Y48.818 E1.85280
G1 X62.446 Y48.678 F7800.000
G1 F1800.000 E0.85280
G92 E0
G1 X58.251 Y48.078 F7800.000
G1 E1.00000 F1800.000
G1 X57.190 Y48.078 E1.05006 F1586.295
G1 X57.190 Y47.578 E1.07364
G1 X58.251 Y47.578 E1.12370
G1 X58.251 Y48.018 E1.14445
G1 X58.651 Y48.478 F7800.000
G1 X56.790 Y48.478 E1.23224 F1586.295
G1 X56.790 Y47.178 E1.29355
G1 X58.651 Y47.178 E1.38134
G1 X58.651 Y48.418 E1.43981
G1 X59.051 Y48.878 F7800.000
G1 X56.390 Y48.878 E1.56532 F951.777
G1 X56.390 Y46.778 E1.66435
G1 X59.051 Y46.778 E1.78987
G1 X59.051 Y48.818 E1.88607
G1 X58.705 Y48.678 F7800.000
G1 F1800.000 E0.88607
G92 E0
G1 X54.610 Y48.078 F7800.000
G1 E1.00000 F1800.000
G1 X30.500 Y48.078 E2.13697 F1586.295
G1 X30.500 Y47.578 E2.16054
G1 X54.610 Y47.578 E3.29751
G1 X54.610 Y48.018 E3.31826
G1 X55.010 Y48.478 F7800.000
G1 X30.100 Y48.478 E4.49295 F1586.295
G1 X30.100 Y47.178 E4.55426
G1 X55.010 Y47.178 E5.72895
G1 X55.010 Y48.418 E5.78742
G1 X55.410 Y48.878 F7800.000
G1 X29.700 Y48.878 E6.99984 F951.777
G1 X29.700 Y46.778 E7.09887
G1 X55.410 Y46.778 E8.31129
G1 X55.410 Y48.818 E8.40749
G1 X55.064 Y48.678 F7800.000
G1 F1800.000 E7.40749
G92 E0
G1 X65.500 Y42.422 F7800.000
G1 E1.00000 F1800.000
G1 X65.007 Y42.422 E1.02323 F1586.295
G1 X65.007 Y41.922 E1.04681
G1 X65.500 Y41.922 E1.07004
G1 X65.500 Y42.362 E1.09079
G1 X65.900 Y42.822 F7800.000
G1 X64.607 Y42.822 E1.15175 F1586.295
G1 X64.607 Y41.522 E1.21305
G1 X65.900 Y41.522 E1.27401
G1 X65.900 Y42.762 E1.33248
G1 X66.300 Y43.222 F7800.000
G1 X64.207 Y43.222 E1.43117 F951.777
G1 X64.207 Y41.122 E1.53020
G1 X66.300 Y41.122 E1.62888
G1 X66.300 Y43.162 E1.72508
G1 X65.954 Y43.022 F7800.000
G1 F1800.000 E0.72508
G92 E0
G1 X61.993 Y42.422 F7800.000
G1 E1.00000 F1800.000
G1 X61.049 Y42.422 E1.04452 F1586.295
G1 X61.049 Y41.922 E1.06810
G1 X61.993 Y41.922 E1.11262
G1 X61.993 Y42.362 E1.13336
G1 X62.393 Y42.822 F7800.000
G1 X60.649 Y42.822 E1.21561 F1586.295
G1 X60.649 Y41.522 E1.27691
G1 X62.393 Y41.522 E1.35916
G1 X62.393 Y42.762 E1.41763
G1 X62.793 Y43.222 F7800.000
G1 X60.249 Y43.222 E1.53760 F951.777
G1 X60.249 Y41.122 E1.63663
G1 X62.793 Y41.122 E1.75660
G1 X62.793 Y43.162 E1.85280
G1 X62.446 Y43.022 F7800.000
G1 F1800.000 E0.85280
G92 E0
G1 X58.251 Y42.422 F7800.000
G1 E1.00000 F1800.000
G1 X57.190 Y42.422 E1.05006 F1586.295
G1 X57.190 Y41.922 E1.07364
G1 X58.251 Y41.922 E1.12370
G1 X58.251 Y42.362 E1.14445
G1 X58.651 Y42.822 F7800.000
G1 X56.790 Y42.822 E1.23224 F1586.295
G1 X56.790 Y41.522 E1.29355
G1 X58.651 Y41.522 E1.38134
G1 X58.651 Y42.762 E1.43981
G1 X59.051 Y43.222 F7800.000
G1 X56.390 Y43.222 E1.56532 F951.777
G1 X56.390 Y41.122 E1.66435
G1 X59.051 Y41.122 E1.78987
G1 X59.051 Y43.162 E1.88607
G1 X58.705 Y43.022 F7800.000
G1 F1800.000 E0.88607
G92 E0
G1 X54.610 Y42.422 F7800.000
G1 E1.00000 F1800.000
G1 X30.500 Y42.422 E2.13697 F1586.295
G1 X30.500 Y41.922 E2.16054
G1 X54.610 Y41.922 E3.29751
G1 X54.610 Y42.362 E3.31826
G1 X55.010 Y42.822 F7800.000
G1 X30.100 Y42.822 E4.49295 F1586.295
G1 X30.100 Y41.522 E4.55426
G1 X55.010 Y41.522 E5.72895
G1 X55.010 Y42.762 E5.78742
G1 X55.410 Y43.222 F7800.000
G1 X29.700 Y43.222 E6.99984 F951.777
G1 X29.700 Y41.122 E7.09887
G1 X55.410 Y41.122 E8.31129
G1 X55.410 Y43.162 E8.40749
G1 X55.064 Y43.022 F7800.000
G1 F1800.000 E7.40749
G92 E0
G1 Z2.100 F7800.000
G1 X64.928 Y48.478 F7800.000
G1 E1.00000 F1800.000
G1 X64.928 Y47.178 E1.06130 F1353.551
G1 X65.900 Y47.178 E1.10713
G1 X65.900 Y48.478 E1.16843
G1 X64.988 Y48.478 E1.21143
G1 X64.528 Y48.878 F7800.000
G1 X64.528 Y46.778 E1.31046 F900.000
G1 X66.300 Y46.778 E1.39401
G1 X66.300 Y48.878 E1.49304
G1 X64.588 Y48.878 E1.57376
G1 X64.728 Y48.532 F7800.000
G1 X65.242 Y48.204 F7800.000
G1 X65.202 Y48.164 E1.57655 F1127.959
G1 X65.626 Y47.493 E1.61575
G1 X65.586 Y47.453 E1.61854
G1 F1800.000 E0.61854
G92 E0
G1 X62.072 Y48.478 F7800.000
G1 E1.00000 F1800.000
G1 X61.023 Y48.478 E1.04946 F1353.551
G1 X61.023 Y47.178 E1.11077
G1 X62.072 Y47.178 E1.16023
G1 X62.072 Y48.418 E1.21870
G1 X62.472 Y48.878 F7800.000
G1 X60.623 Y48.878 E1.30589 F900.000
G1 X60.623 Y46.778 E1.40492
G1 X62.472 Y46.778 E1.49210
G1 X62.472 Y48.818 E1.58830
G1 X62.125 Y48.678 F7800.000
G1 X61.337 Y48.204 F7800.000
G1 X61.297 Y48.164 E1.59110 F1127.959
G1 X61.798 Y47.493 E1.63245
G1 X61.758 Y47.453 E1.63525
G1 F1800.000 E0.63525
G92 E0
G1 X58.277 Y48.478 F7800.000
G1 E1.00000 F1800.000
G1 X57.207 Y48.478 E1.05046 F1353.551
G1 X57.207 Y47.178 E1.11176
G1 X58.277 Y47.178 E1.16222
G1 X58.277 Y48.418 E1.22070
G1 X58.677 Y48.878 F7800.000
G1 X56.807 Y48.878 E1.30888 F900.000
G1 X56.807 Y46.778 E1.40791
G1 X58.677 Y46.778 E1.49609
G1 X58.677 Y48.818 E1.59229
G1 X58.331 Y48.678 F7800.000
G1 X57.481 Y48.164 F7800.000
G1 X57.521 Y48.204 E1.59509 F1127.959
G1 X58.003 Y48.089 E1.61954
G1 X57.481 Y47.568 E1.65596
G1 X58.003 Y47.493 E1.68198
G1 X57.963 Y47.453 E1.68477
G1 F1800.000 E0.68477
G92 E0
G1 X54.593 Y48.478 F7800.000
G1 E1.00000 F1800.000
G1 X53.487 Y48.478 E1.05214 F1353.551
G1 X53.487 Y47.178 E1.11344
G1 X54.593 Y47.178 E1.16558
G1 X54.593 Y48.418 E1.22405
G1 X54.993 Y48.878 F7800.000
G1 X53.087 Y48.878 E1.31391 F900.000
G1 X53.087 Y46.778 E1.41294
G1 X54.993 Y46.778 E1.50280
G1 X54.993 Y48.818 E1.59900
G1 X54.646 Y48.678 F7800.000
G1 X53.762 Y48.164 F7800.000
G1 X53.802 Y48.204 E1.60180 F1127.959
G1 X54.319 Y48.107 E1.62778
G1 X53.762 Y47.550 E1.66669
G1 X54.319 Y47.493 E1.69434
G1 X54.279 Y47.453 E1.69714
G1 F1800.000 E0.69714
G92 E0
G1 X50.613 Y48.078 F7800.000
G1 E1.00000 F1800.000
G1 X50.267 Y48.078 E1.01628 F1353.551
G1 X50.267 Y47.578 E1.03986
G1 X50.613 Y47.578 E1.05614
G1 X50.613 Y48.018 E1.07689
G1 X51.013 Y48.478 F7800.000
G1 X49.867 Y48.478 E1.13090 F1353.551
G1 X49.867 Y47.178 E1.19220
G1 X51.013 Y47.178 E1.24621
G1 X51.013 Y48.418 E1.30469
G1 X51.413 Y48.878 F7800.000
G1 X49.467 Y48.878 E1.39642 F900.000
G1 X49.467 Y46.778 E1.49545
G1 X51.413 Y46.778 E1.58718
G1 X51.413 Y48.818 E1.68338
G1 X51.066 Y48.678 F7800.000
G1 F1800.000 E0.68338
G92 E0
G1 X47.133 Y48.078 F7800.000
G1 E1.00000 F1800.000
G1 X46.748 Y48.078 E1.01815 F1353.551
G1 X46.748 Y47.578 E1.04173
G1 X47.133 Y47.578 E1.05989
G1 X47.133 Y48.018 E1.08064
G1 X47.533 Y48.478 F7800.000
G1 X46.348 Y48.478 E1.13652 F1353.551
G1 X46.348 Y47.178 E1.19782
G1 X47.533 Y47.178 E1.25370
G1 X47.533 Y48.418 E1.31218
G1 X47.933 Y48.878 F7800.000
G1 X45.948 Y48.878 E1.40578 F900.000
G1 X45.948 Y46.778 E1.50481
G1 X47.933 Y46.778 E1.59842
G1 X47.933 Y48.818 E1.69462
G1 X47.586 Y48.678 F7800.000
G1 F1800.000 E0.69462
G92 E0
G1 X43.752 Y48.078 F7800.000
G1 E1.00000 F1800.000
G1 X43.328 Y48.078 E1.02003 F1353.551
G1 X43.328 Y47.578 E1.04361
G1 X43.752 Y47.578 E1.06363
G1 X43.752 Y48.018 E1.08438
G1 X44.152 Y48.478 F7800.000
G1 X42.928 Y48.478 E1.14214 F1353.551
G1 X42.928 Y47.178 E1.20344
G1 X44.152 Y47.178 E1.26119
G1 X44.152 Y48.418 E1.31967
G1 X44.552 Y48.878 F7800.000
G1 X42.528 Y48.878 E1.41515 F900.000
G1 X42.528 Y46.778 E1.51418
G1 X44.552 Y46.778 E1.60965
G1 X44.552 Y48.818 E1.70585
G1 X44.206 Y48.678 F7800.000
G1 F1800.000 E0.70585
G92 E0
G1 X40.472 Y48.078 F7800.000
G1 E1.00000 F1800.000
G1 X39.985 Y48.078 E1.02299 F1353.551
G1 X39.985 Y47.578 E1.04657
G1 X40.472 Y47.578 E1.06957
G1 X40.472 Y48.018 E1.09032
G1 X40.872 Y48.478 F7800.000
G1 X39.585 Y48.478 E1.15104 F1353.551
G1 X39.585 Y47.178 E1.21234
G1 X40.872 Y47.178 E1.27306
G1 X40.872 Y48.418 E1.33153
G1 X41.272 Y48.878 F7800.000
G1 X39.185 Y48.878 E1.42998 F900.000
G1 X39.185 Y46.778 E1.52901
G1 X41.272 Y46.778 E1.62745
G1 X41.272 Y48.818 E1.72365
G1 X40.926 Y48.678 F7800.000
G1 F1800.000 E0.72365
G92 E0
G1 X37.315 Y48.078 F7800.000
