; generated by Slic3r 1.1.7 on 2014-11-11 at 19:24:00

; perimeters extrusion width = 0.40mm
; infill extrusion width = 0.42mm
; solid infill extrusion width = 0.42mm
; top infill extrusion width = 0.42mm
; support material extrusion width = 0.40mm

G21 ; set units to millimeters
M107
M104 S195 ; set temperature
G28 ; home all axes
G1 Z5 F5000 ; lift nozzle
M109 S195 ; wait for temperature to be reached
G90 ; use absolute coordinates
G92 E0
M82 ; use absolute distances for extrusion
G1 F1800.000 E-1.00000
G92 E0
G1 Z0.300 F7800.000
G1 X37.023 Y20.959 F7800.000
G1 E1.00000 F1800.000
G1 X37.742 Y19.688 E1.06886 F2100.000
G1 X39.501 Y18.169 E1.17844
G1 X41.668 Y17.332 E1.28802
G1 X43.000 Y17.200 E1.35113
G1 X53.000 Y17.200 E1.82270
G1 X55.290 Y17.597 E1.93229
G1 X57.312 Y18.742 E2.04187 F2100.000
G1 X58.831 Y20.501 E2.15145
G1 X59.668 Y22.668 E2.26103
G1 X59.800 Y24.000 E2.32414
G1 X59.800 Y66.000 E4.30474
G1 X59.403 Y68.290 E4.41432
G1 X58.258 Y70.312 E4.52390
G1 X56.499 Y71.831 E4.63349
G1 X54.332 Y72.668 E4.74307
G1 X53.000 Y72.800 E4.80618
G1 X43.000 Y72.800 E5.27775
G1 X40.710 Y72.403 E5.38733
G1 X38.688 Y71.258 E5.49691
G1 X37.169 Y69.499 E5.60650
G1 X36.332 Y67.332 E5.71608
G1 X36.200 Y66.000 E5.77919
G1 X36.200 Y24.000 E7.75978
G1 X36.597 Y21.710 E7.86937
G1 X36.993 Y21.011 E7.90726
G1 X37.363 Y21.159 F7800.000
G1 X38.138 Y19.838 E7.97949 F2100.000
G1 X39.883 Y18.411 E8.08578
G1 X43.000 Y17.600 E8.23767
G1 X53.000 Y17.600 E8.70924
G1 X55.219 Y17.997 E8.81553
G1 X57.162 Y19.138 E8.92181 F2100.000
G1 X58.589 Y20.883 E9.02810
G1 X59.400 Y24.000 E9.17999
G1 X59.400 Y66.000 E11.16059
G1 X59.003 Y68.219 E11.26687
G1 X57.862 Y70.162 E11.37316
G1 X56.117 Y71.589 E11.47945
G1 X53.000 Y72.400 E11.63134
G1 X43.000 Y72.400 E12.10291
G1 X40.781 Y72.003 E12.20920
G1 X38.838 Y70.862 E12.31548
G1 X37.411 Y69.117 E12.42177
G1 X36.600 Y66.000 E12.57366
G1 X36.600 Y24.000 E14.55426
G1 X36.997 Y21.781 E14.66054
G1 X37.332 Y21.210 E14.69177
G1 F1800.000 E13.69177
G92 E0
G1 X52.000 Y65.000 F7800.000
G1 E1.00000 F1800.000
G1 X44.000 Y65.000 E1.37726 F2520.000
G1 X44.000 Y25.000 E3.26354
G1 X52.000 Y25.000 E3.64079
G1 X52.000 Y64.940 E5.52424
G1 X52.400 Y65.400 F7800.000
G1 X43.600 Y65.400 E5.93923 F2520.000
G1 X43.600 Y24.600 E7.86323
G1 X52.400 Y24.600 E8.27821
G1 X52.400 Y65.340 E10.19939
G1 X52.800 Y65.800 F7800.000
G1 X43.200 Y65.800 E10.65210 F1512.000
G1 X43.200 Y24.200 E12.61383
G1 X52.800 Y24.200 E13.06654
G1 X52.800 Y65.740 E15.02544
G1 X52.454 Y65.600 F7800.000
G1 F1800.000 E14.02544
G92 E0
G1 X44.274 Y64.686 F7800.000
G1 E1.00000 F1800.000
G1 X44.314 Y64.726 E1.00279 F2100.000
G1 X44.907 Y64.726 E1.03206
G1 X44.274 Y64.093 E1.07625
G1 X44.274 Y63.500 E1.10552
G1 X45.500 Y64.726 E1.19110
G1 X46.092 Y64.726 E1.22037
G1 X44.274 Y62.908 E1.34734
G1 X44.274 Y62.315 E1.37661
G1 X46.685 Y64.726 E1.54497
G1 X47.278 Y64.726 E1.57424
G1 X44.274 Y61.722 E1.78400
G1 X44.274 Y61.130 E1.81326
G1 X47.870 Y64.726 E2.06441
G1 X48.463 Y64.726 E2.09368
G1 X44.274 Y60.537 E2.38622
G1 X44.274 Y59.944 E2.41549
G1 X49.056 Y64.726 E2.74943
G1 X49.649 Y64.726 E2.77870
G1 X44.274 Y59.351 E3.15402
G1 X44.274 Y58.759 E3.18329
G1 X50.241 Y64.726 E3.60001
G1 X50.834 Y64.726 E3.62928
G1 X44.274 Y58.166 E4.08739
G1 X44.274 Y57.573 E4.11666
G1 X51.427 Y64.726 E4.61617
G1 X51.726 Y64.432 E4.63686
G1 X44.274 Y56.981 E5.15726
G1 X44.274 Y56.388 E5.18653
G1 X51.726 Y63.840 E5.70693
G1 X51.726 Y63.247 E5.73620
G1 X44.274 Y55.795 E6.25660
G1 X44.274 Y55.203 E6.28587
G1 X51.726 Y62.654 E6.80627
G1 X51.726 Y62.061 E6.83554
G1 X44.274 Y54.610 E7.35593
G1 X44.274 Y54.017 E7.38520
G1 X51.726 Y61.469 E7.90560
G1 X51.726 Y60.876 E7.93487
G1 X44.274 Y53.425 E8.45527
G1 X44.274 Y52.832 E8.48454
G1 X51.726 Y60.283 E9.00494
G1 X51.726 Y59.691 E9.03421
G1 X44.274 Y52.239 E9.55461
G1 X44.274 Y51.646 E9.58388
G1 X51.726 Y59.098 E10.10427
G1 X51.726 Y58.505 E10.13354
G1 X44.274 Y51.054 E10.65394
G1 X44.274 Y50.461 E10.68321
G1 X51.726 Y57.913 E11.20361
G1 X51.726 Y57.320 E11.23288
G1 X44.274 Y49.868 E11.75328
G1 X44.274 Y49.276 E11.78255
G1 X51.726 Y56.727 E12.30295
G1 X51.726 Y56.134 E12.33221
G1 X44.274 Y48.683 E12.85261
G1 X44.274 Y48.090 E12.88188
G1 X51.726 Y55.542 E13.40228
G1 X51.726 Y54.949 E13.43155
G1 X44.274 Y47.498 E13.95195
G1 X44.274 Y46.905 E13.98122
G1 X51.726 Y54.356 E14.50162
G1 X51.726 Y53.764 E14.53089
G1 X44.274 Y46.312 E15.05128
G1 X44.274 Y45.719 E15.08055
G1 X51.726 Y53.171 E15.60095
G1 X51.726 Y52.578 E15.63022
G1 X44.274 Y45.127 E16.15062
G1 X44.274 Y44.534 E16.17989
G1 X51.726 Y51.986 E16.70029
G1 X51.726 Y51.393 E16.72956
G1 X44.274 Y43.941 E17.24996
G1 X44.274 Y43.349 E17.27922
G1 X51.726 Y50.800 E17.79962
G1 X51.726 Y50.208 E17.82889
G1 X44.274 Y42.756 E18.34929
G1 X44.274 Y42.163 E18.37856
G1 X51.726 Y49.615 E18.89896
G1 X51.726 Y49.022 E18.92823
G1 X44.274 Y41.571 E19.44863
G1 X44.274 Y40.978 E19.47790
G1 X51.726 Y48.429 E19.99830
G1 X51.726 Y47.837 E20.02756
G1 X44.274 Y40.385 E20.54796
G1 X44.274 Y39.792 E20.57723
G1 X51.726 Y47.244 E21.09763
G1 X51.726 Y46.651 E21.12690
G1 X44.274 Y39.200 E21.64730
G1 X44.274 Y38.607 E21.67657
G1 X51.726 Y46.059 E22.19697
G1 X51.726 Y45.466 E22.22624
G1 X44.274 Y38.014 E22.74663
G1 X44.274 Y37.422 E22.77590
G1 X51.726 Y44.873 E23.29630
G1 X51.726 Y44.281 E23.32557
G1 X44.274 Y36.829 E23.84597
G1 X44.274 Y36.236 E23.87524
G1 X51.726 Y43.688 E24.39564
G1 X51.726 Y43.095 E24.42491
G1 X44.274 Y35.644 E24.94531
G1 X44.274 Y35.051 E24.97458
G1 X51.726 Y42.502 E25.49497
G1 X51.726 Y41.910 E25.52424
G1 X44.274 Y34.458 E26.04464
G1 X44.274 Y33.866 E26.07391
G1 X51.726 Y41.317 E26.59431
G1 X51.726 Y40.724 E26.62358
G1 X44.274 Y33.273 E27.14398
G1 X44.274 Y32.680 E27.17325
G1 X51.726 Y40.132 E27.69365
G1 X51.726 Y39.539 E27.72292
G1 X44.274 Y32.087 E28.24331
G1 X44.274 Y31.495 E28.27258
G1 X51.726 Y38.946 E28.79298
G1 X51.726 Y38.354 E28.82225
G1 X44.274 Y30.902 E29.34265
G1 X44.274 Y30.309 E29.37192
G1 X51.726 Y37.761 E29.89232
G1 X51.726 Y37.168 E29.92159
G1 X44.274 Y29.717 E30.44199
G1 X44.274 Y29.124 E30.47125
G1 X51.726 Y36.575 E30.99165
G1 X51.726 Y35.983 E31.02092
G1 X44.274 Y28.531 E31.54132
G1 X44.274 Y27.939 E31.57059
G1 X51.726 Y35.390 E32.09099
G1 X51.726 Y34.797 E32.12026
G1 X44.274 Y27.346 E32.64066
G1 X44.274 Y26.753 E32.66993
G1 X51.726 Y34.205 E33.19032
G1 X51.726 Y33.612 E33.21959
G1 X44.274 Y26.160 E33.73999
G1 X44.274 Y25.568 E33.76926
G1 X51.726 Y33.019 E34.28966
G1 X51.726 Y32.427 E34.31893
G1 X44.573 Y25.274 E34.81843
G1 X45.166 Y25.274 E34.84770
G1 X51.726 Y31.834 E35.30582
G1 X51.726 Y31.241 E35.33509
G1 X45.759 Y25.274 E35.75181
G1 X46.351 Y25.274 E35.78107
G1 X51.726 Y30.649 E36.15640
G1 X51.726 Y30.056 E36.18567
G1 X46.944 Y25.274 E36.51960
G1 X47.537 Y25.274 E36.54887
G1 X51.726 Y29.463 E36.84142
G1 X51.726 Y28.870 E36.87068
G1 X48.130 Y25.274 E37.12183
G1 X48.722 Y25.274 E37.15110
G1 X51.726 Y28.278 E37.36086
G1 X51.726 Y27.685 E37.39013
G1 X49.315 Y25.274 E37.55849
G1 X49.908 Y25.274 E37.58776
G1 X51.726 Y27.092 E37.71473
G1 X51.726 Y26.500 E37.74400
G1 X50.500 Y25.274 E37.82958
G1 X51.093 Y25.274 E37.85885
G1 X51.726 Y25.907 E37.90304
G1 X51.726 Y25.314 E37.93230
G1 X51.686 Y25.274 E37.93510
M106 S251
G1 F1800.000 E36.93510
G92 E0
G1 Z0.600 F7800.000
G1 X52.000 Y65.000 F7800.000
G1 E1.00000 F1800.000
G1 X44.000 Y65.000 E1.37726 F3600.000
G1 X44.000 Y25.000 E3.26354
G1 X52.000 Y25.000 E3.64079
G1 X52.000 Y64.940 E5.52424
G1 X52.400 Y65.400 F7800.000
G1 X43.600 Y65.400 E5.93923 F3600.000
G1 X43.600 Y24.600 E7.86323
G1 X52.400 Y24.600 E8.27821
G1 X52.400 Y65.340 E10.19939
G1 X52.800 Y65.800 F7800.000
G1 X43.200 Y65.800 E10.65210 F2160.000
G1 X43.200 Y24.200 E12.61383
G1 X52.800 Y24.200 E13.06654
G1 X52.800 Y65.740 E15.02544
G1 X52.454 Y65.600 F7800.000
G1 X51.726 Y64.686 F7800.000
G1 X51.686 Y64.726 E15.02824 F3000.000
G1 X51.093 Y64.726 E15.05750
G1 X51.726 Y64.093 E15.10169
G1 X51.726 Y63.500 E15.13096
G1 X50.500 Y64.726 E15.21654
G1 X49.908 Y64.726 E15.24581
G1 X51.726 Y62.908 E15.37278
G1 X51.726 Y62.315 E15.40205
G1 X49.315 Y64.726 E15.57041
G1 X48.722 Y64.726 E15.59968
G1 X51.726 Y61.722 E15.80944
G1 X51.726 Y61.130 E15.83871
G1 X48.130 Y64.726 E16.08986
G1 X47.537 Y64.726 E16.11912
G1 X51.726 Y60.537 E16.41167
G1 X51.726 Y59.944 E16.44094
G1 X46.944 Y64.726 E16.77487
G1 X46.351 Y64.726 E16.80414
G1 X51.726 Y59.351 E17.17947
G1 X51.726 Y58.759 E17.20874
G1 X45.759 Y64.726 E17.62546
G1 X45.166 Y64.726 E17.65472
G1 X51.726 Y58.166 E18.11284
G1 X51.726 Y57.573 E18.14211
G1 X44.573 Y64.726 E18.64161
G1 X44.274 Y64.432 E18.66231
G1 X51.726 Y56.981 E19.18271
G1 X51.726 Y56.388 E19.21198
G1 X44.274 Y63.840 E19.73238
G1 X44.274 Y63.247 E19.76164
G1 X51.726 Y55.795 E20.28204
G1 X51.726 Y55.203 E20.31131
G1 X44.274 Y62.654 E20.83171
G1 X44.274 Y62.061 E20.86098
G1 X51.726 Y54.610 E21.38138
G1 X51.726 Y54.017 E21.41065
G1 X44.274 Y61.469 E21.93105
G1 X44.274 Y60.876 E21.96032
G1 X51.726 Y53.425 E22.48071
G1 X51.726 Y52.832 E22.50998
G1 X44.274 Y60.283 E23.03038
G1 X44.274 Y59.691 E23.05965
G1 X51.726 Y52.239 E23.58005
G1 X51.726 Y51.646 E23.60932
G1 X44.274 Y59.098 E24.12972
G1 X44.274 Y58.505 E24.15899
G1 X51.726 Y51.054 E24.67939
G1 X51.726 Y50.461 E24.70865
G1 X44.274 Y57.913 E25.22905
G1 X44.274 Y57.320 E25.25832
G1 X51.726 Y49.868 E25.77872
G1 X51.726 Y49.276 E25.80799
G1 X44.274 Y56.727 E26.32839
G1 X44.274 Y56.134 E26.35766
G1 X51.726 Y48.683 E26.87806
G1 X51.726 Y48.090 E26.90733
G1 X44.274 Y55.542 E27.42772
G1 X44.274 Y54.949 E27.45699
G1 X51.726 Y47.498 E27.97739
G1 X51.726 Y46.905 E28.00666
G1 X44.274 Y54.356 E28.52706
G1 X44.274 Y53.764 E28.55633
G1 X51.726 Y46.312 E29.07673
G1 X51.726 Y45.719 E29.10600
G1 X44.274 Y53.171 E29.62640
G1 X44.274 Y52.578 E29.65567
G1 X51.726 Y45.127 E30.17606
G1 X51.726 Y44.534 E30.20533
G1 X44.274 Y51.986 E30.72573
G1 X44.274 Y51.393 E30.75500
G1 X51.726 Y43.941 E31.27540
G1 X51.726 Y43.349 E31.30467
G1 X44.274 Y50.800 E31.82507
G1 X44.274 Y50.208 E31.85434
G1 X51.726 Y42.756 E32.37474
G1 X51.726 Y42.163 E32.40400
G1 X44.274 Y49.615 E32.92440
G1 X44.274 Y49.022 E32.95367
G1 X51.726 Y41.571 E33.47407
G1 X51.726 Y40.978 E33.50334
G1 X44.274 Y48.429 E34.02374
G1 X44.274 Y47.837 E34.05301
G1 X51.726 Y40.385 E34.57341
G1 X51.726 Y39.792 E34.60268
G1 X44.274 Y47.244 E35.12308
G1 X44.274 Y46.651 E35.15234
G1 X51.726 Y39.200 E35.67274
G1 X51.726 Y38.607 E35.70201
G1 X44.274 Y46.059 E36.22241
G1 X44.274 Y45.466 E36.25168
G1 X51.726 Y38.014 E36.77208
G1 X51.726 Y37.422 E36.80135
G1 X44.274 Y44.873 E37.32175
G1 X44.274 Y44.281 E37.35102
G1 X51.726 Y36.829 E37.87141
G1 X51.726 Y36.236 E37.90068
G1 X44.274 Y43.688 E38.42108
G1 X44.274 Y43.095 E38.45035
G1 X51.726 Y35.644 E38.97075
G1 X51.726 Y35.051 E39.00002
G1 X44.274 Y42.502 E39.52042
G1 X44.274 Y41.910 E39.54969
G1 X51.726 Y34.458 E40.07009
G1 X51.726 Y33.866 E40.09936
G1 X44.274 Y41.317 E40.61975
G1 X44.274 Y40.724 E40.64902
G1 X51.726 Y33.273 E41.16942
G1 X51.726 Y32.680 E41.19869
G1 X44.274 Y40.132 E41.71909
G1 X44.274 Y39.539 E41.74836
G1 X51.726 Y32.087 E42.26876
G1 X51.726 Y31.495 E42.29803
G1 X44.274 Y38.946 E42.81843
G1 X44.274 Y38.354 E42.84769
G1 X51.726 Y30.902 E43.36809
G1 X51.726 Y30.309 E43.39736
G1 X44.274 Y37.761 E43.91776
G1 X44.274 Y37.168 E43.94703
G1 X51.726 Y29.717 E44.46743
G1 X51.726 Y29.124 E44.49670
G1 X44.274 Y36.575 E45.01710
G1 X44.274 Y35.983 E45.04637
G1 X51.726 Y28.531 E45.56677
G1 X51.726 Y27.939 E45.59603
G1 X44.274 Y35.390 E46.11643
G1 X44.274 Y34.797 E46.14570
G1 X51.726 Y27.346 E46.66610
G1 X51.726 Y26.753 E46.69537
G1 X44.274 Y34.205 E47.21577
G1 X44.274 Y33.612 E47.24504
G1 X51.726 Y26.160 E47.76544
G1 X51.726 Y25.568 E47.79471
G1 X44.274 Y33.019 E48.31510
G1 X44.274 Y32.427 E48.34437
G1 X51.427 Y25.274 E48.84388
G1 X50.834 Y25.274 E48.87315
G1 X44.274 Y31.834 E49.33126
G1 X44.274 Y31.241 E49.36053
G1 X50.241 Y25.274 E49.77725
G1 X49.649 Y25.274 E49.80652
G1 X44.274 Y30.649 E50.18184
G1 X44.274 Y30.056 E50.21111
G1 X49.056 Y25.274 E50.54505
G1 X48.463 Y25.274 E50.57432
G1 X44.274 Y29.463 E50.86686
G1 X44.274 Y28.870 E50.89613
G1 X47.870 Y25.274 E51.14728
G1 X47.278 Y25.274 E51.17655
G1 X44.274 Y28.278 E51.38630
G1 X44.274 Y27.685 E51.41557
G1 X46.685 Y25.274 E51.58394
G1 X46.092 Y25.274 E51.61320
G1 X44.274 Y27.092 E51.74018
G1 X44.274 Y26.500 E51.76945
G1 X45.500 Y25.274 E51.85502
G1 X44.907 Y25.274 E51.88429
G1 X44.274 Y25.907 E51.92848
G1 X44.274 Y25.314 E51.95775
G1 X44.314 Y25.274 E51.96054
M106 S251
G1 F1800.000 E50.96054
G92 E0
G1 Z0.900 F7800.000
G1 X52.000 Y65.000 F7800.000
G1 E1.00000 F1800.000
G1 X44.000 Y65.000 E1.37726 F3600.000
G1 X44.000 Y25.000 E3.26354
G1 X52.000 Y25.000 E3.64079
G1 X52.000 Y64.940 E5.52424
G1 X52.400 Y65.400 F7800.000
G1 X43.600 Y65.400 E5.93923 F3600.000
G1 X43.600 Y24.600 E7.86323
G1 X52.400 Y24.600 E8.27821
G1 X52.400 Y65.340 E10.19939
G1 X52.800 Y65.800 F7800.000
G1 X43.200 Y65.800 E10.65210 F2160.000
G1 X43.200 Y24.200 E12.61383
G1 X52.800 Y24.200 E13.06654
G1 X52.800 Y65.740 E15.02544
G1 X52.454 Y65.600 F7800.000
G1 F1800.000 E14.02544
G92 E0
G1 X44.274 Y64.686 F7800.000
G1 E1.00000 F1800.000
G1 X44.314 Y64.726 E1.00279 F3000.000
G1 X44.907 Y64.726 E1.03206
G1 X44.274 Y64.093 E1.07625
G1 X44.274 Y63.500 E1.10552
G1 X45.500 Y64.726 E1.19110
G1 X46.092 Y64.726 E1.22037
G1 X44.274 Y62.908 E1.34734
G1 X44.274 Y62.315 E1.37661
G1 X46.685 Y64.726 E1.54497
G1 X47.278 Y64.726 E1.57424
G1 X44.274 Y61.722 E1.78400
G1 X44.274 Y61.130 E1.81326
G1 X47.870 Y64.726 E2.06441
G1 X48.463 Y64.726 E2.09368
G1 X44.274 Y60.537 E2.38622
G1 X44.274 Y59.944 E2.41549
G1 X49.056 Y64.726 E2.74943
G1 X49.649 Y64.726 E2.77870
G1 X44.274 Y59.351 E3.15402
G1 X44.274 Y58.759 E3.18329
G1 X50.241 Y64.726 E3.60001
G1 X50.834 Y64.726 E3.62928
G1 X44.274 Y58.166 E4.08739
G1 X44.274 Y57.573 E4.11666
G1 X51.427 Y64.726 E4.61617
G1 X51.726 Y64.432 E4.63686
G1 X44.274 Y56.981 E5.15726
G1 X44.274 Y56.388 E5.18653
G1 X51.726 Y63.840 E5.70693
G1 X51.726 Y63.247 E5.73620
G1 X44.274 Y55.795 E6.25660
G1 X44.274 Y55.203 E6.28587
G1 X51.726 Y62.654 E6.80627
G1 X51.726 Y62.061 E6.83554
G1 X44.274 Y54.610 E7.35593
G1 X44.274 Y54.017 E7.38520
G1 X51.726 Y61.469 E7.90560
G1 X51.726 Y60.876 E7.93487
G1 X44.274 Y53.425 E8.45527
G1 X44.274 Y52.832 E8.48454
G1 X51.726 Y60.283 E9.00494
G1 X51.726 Y59.691 E9.03421
G1 X44.274 Y52.239 E9.55461
G1 X44.274 Y51.646 E9.58388
G1 X51.726 Y59.098 E10.10427
G1 X51.726 Y58.505 E10.13354
G1 X44.274 Y51.054 E10.65394
G1 X44.274 Y50.461 E10.68321
G1 X51.726 Y57.913 E11.20361
G1 X51.726 Y57.320 E11.23288
G1 X44.274 Y49.868 E11.75328
G1 X44.274 Y49.276 E11.78255
G1 X51.726 Y56.727 E12.30295
G1 X51.726 Y56.134 E12.33221
G1 X44.274 Y48.683 E12.85261
G1 X44.274 Y48.090 E12.88188
G1 X51.726 Y55.542 E13.40228
G1 X51.726 Y54.949 E13.43155
G1 X44.274 Y47.498 E13.95195
G1 X44.274 Y46.905 E13.98122
G1 X51.726 Y54.356 E14.50162
G1 X51.726 Y53.764 E14.53089
G1 X44.274 Y46.312 E15.05128
G1 X44.274 Y45.719 E15.08055
G1 X51.726 Y53.171 E15.60095
G1 X51.726 Y52.578 E15.63022
G1 X44.274 Y45.127 E16.15062
G1 X44.274 Y44.534 E16.17989
G1 X51.726 Y51.986 E16.70029
G1 X51.726 Y51.393 E16.72956
G1 X44.274 Y43.941 E17.24996
G1 X44.274 Y43.349 E17.27922
G1 X51.726 Y50.800 E17.79962
G1 X51.726 Y50.208 E17.82889
G1 X44.274 Y42.756 E18.34929
G1 X44.274 Y42.163 E18.37856
G1 X51.726 Y49.615 E18.89896
G1 X51.726 Y49.022 E18.92823
G1 X44.274 Y41.571 E19.44863
G1 X44.274 Y40.978 E19.47790
G1 X51.726 Y48.429 E19.99830
G1 X51.726 Y47.837 E20.02756
G1 X44.274 Y40.385 E20.54796
G1 X44.274 Y39.792 E20.57723
G1 X51.726 Y47.244 E21.09763
G1 X51.726 Y46.651 E21.12690
G1 X44.274 Y39.200 E21.64730
G1 X44.274 Y38.607 E21.67657
G1 X51.726 Y46.059 E22.19697
G1 X51.726 Y45.466 E22.22624
G1 X44.274 Y38.014 E22.74663
G1 X44.274 Y37.422 E22.77590
G1 X51.726 Y44.873 E23.29630
G1 X51.726 Y44.281 E23.32557
G1 X44.274 Y36.829 E23.84597
G1 X44.274 Y36.236 E23.87524
G1 X51.726 Y43.688 E24.39564
G1 X51.726 Y43.095 E24.42491
G1 X44.274 Y35.644 E24.94531
G1 X44.274 Y35.051 E24.97458
G1 X51.726 Y42.502 E25.49497
G1 X51.726 Y41.910 E25.52424
G1 X44.274 Y34.458 E26.04464
