; generated by Slic3r 1.1.7 on 2014-11-13 at 18:39:13

; perimeters extrusion width = 0.40mm
; infill extrusion width = 0.42mm
; solid infill extrusion width = 0.42mm
; top infill extrusion width = 0.42mm
; support material extrusion width = 0.40mm

G21 ; set units to millimeters
M107
M104 S195 ; set temperature
G28 ; home all axes
G1 Z5 F5000 ; lift nozzle
M109 S195 ; wait for temperature to be reached
G90 ; use absolute coordinates
G92 E0
M82 ; use absolute distances for extrusion
G1 F1800.000 E-1.00000
G92 E0
G1 Z0.350 F7800.000
G1 X37.029 Y21.274 F7800.000
G1 E1.00000 F1800.000
G1 X37.905 Y19.749 E1.15378 F1080.000
G1 X39.658 Y18.267 E1.35445
G1 X41.811 Y17.472 E1.55511
G1 X43.000 Y17.364 E1.65949
G1 X53.000 Y17.364 E2.53373
G1 X55.261 Y17.761 E2.73439
G1 X57.251 Y18.905 E2.93506 F1080.000
G1 X58.733 Y20.658 E3.13572
G1 X59.528 Y22.811 E3.33639
G1 X59.636 Y24.000 E3.44077
G1 X59.636 Y66.000 E7.11257
G1 X59.239 Y68.261 E7.31324
G1 X58.095 Y70.251 E7.51390
G1 X56.342 Y71.733 E7.71457
G1 X54.189 Y72.528 E7.91524
G1 X53.000 Y72.636 E8.01961
G1 X43.000 Y72.636 E8.89385
G1 X40.739 Y72.239 E9.09452
G1 X38.749 Y71.095 E9.29518
G1 X37.267 Y69.342 E9.49585
G1 X36.472 Y67.189 E9.69651
G1 X36.364 Y66.000 E9.80089
G1 X36.364 Y24.000 E13.47270
G1 X36.761 Y21.739 E13.67336
G1 X36.999 Y21.326 E13.71500
G1 F1800.000 E12.71500
G92 E0
G1 X50.264 Y30.645 F7800.000
G1 E1.00000 F1800.000
G1 X49.645 Y31.263 E1.07652 F1080.000
G1 X48.865 Y31.661 E1.15306
G1 X48.000 Y31.798 E1.22959
G1 X47.135 Y31.661 E1.30611
G1 X46.355 Y31.263 E1.38265
G1 X45.736 Y30.645 E1.45917
G1 X45.339 Y29.865 E1.53569
G1 X45.202 Y29.000 E1.61223
G1 X45.339 Y28.135 E1.68875
G1 X45.736 Y27.355 E1.76529
G1 X46.355 Y26.736 E1.84182
G1 X47.135 Y26.339 E1.91834
G1 X48.000 Y26.202 E1.99488
G1 X48.164 Y26.228 E2.00938
G1 X48.865 Y26.339 E2.07141 F1080.000
G1 X49.645 Y26.736 E2.14793
G1 X50.263 Y27.355 E2.22445
G1 X50.661 Y28.135 E2.30100
G1 X50.798 Y29.000 E2.37751
G1 X50.661 Y29.865 E2.45406
G1 X50.291 Y30.591 E2.52533
G1 X49.743 Y30.266 F7800.000
G1 X49.266 Y30.743 E2.58426 F756.000
G1 X49.208 Y30.773 E2.58996
G1 X48.666 Y31.049 E2.64319
G1 X48.000 Y31.154 E2.70211
G1 X47.334 Y31.049 E2.76104
G1 X46.792 Y30.773 E2.81426
G1 X46.734 Y30.743 E2.81997
G1 X46.257 Y30.266 E2.87889
G1 X45.951 Y29.666 E2.93782
G1 X45.846 Y29.000 E2.99675
G1 X45.951 Y28.334 E3.05567
G1 X46.257 Y27.734 E3.11460
G1 X46.734 Y27.257 E3.17353
G1 X47.334 Y26.951 E3.23245
G1 X47.936 Y26.856 E3.28567
G1 X48.000 Y26.846 E3.29138 F756.000
G1 X48.666 Y26.951 E3.35031
G1 X49.266 Y27.257 E3.40923
G1 X49.743 Y27.734 E3.46816
G1 X50.049 Y28.334 E3.52709
G1 X50.154 Y29.000 E3.58601
G1 X50.049 Y29.666 E3.64494
G1 X49.770 Y30.213 E3.69862
G1 F1800.000 E2.69862
G92 E0
G1 X47.915 Y26.794 F7800.000
G1 X48.896 Y33.744 F7800.000
G1 E1.00000 F1800.000
G1 X49.703 Y34.156 E1.07926 F1080.000
G1 X50.344 Y34.797 E1.15851
G1 X50.420 Y34.945 E1.17307
G1 X50.756 Y35.605 E1.23779
G1 X50.898 Y36.500 E1.31705
G1 X50.756 Y37.395 E1.39631
G1 X50.344 Y38.203 E1.47557
G1 X49.703 Y38.844 E1.55483
G1 X48.896 Y39.256 E1.63410
G1 X48.000 Y39.398 E1.71337
G1 X47.104 Y39.256 E1.79264
G1 X46.297 Y38.844 E1.87190
G1 X45.773 Y38.321 E1.93660
G1 X45.656 Y38.203 E1.95116
G1 X45.244 Y37.396 E2.03042
G1 X45.102 Y36.500 E2.10968
G1 X45.244 Y35.605 E2.18895
G1 X45.580 Y34.945 E2.25366
G1 X45.656 Y34.797 E2.26822
G1 X46.297 Y34.156 E2.34747
G1 X47.104 Y33.744 E2.42673
G1 X48.000 Y33.602 E2.50601
G1 X48.165 Y33.628 E2.52057
G1 X48.836 Y33.735 E2.58003 F1080.000
G1 X48.697 Y34.356 F7800.000
G1 X49.325 Y34.676 E2.64169 F756.000
G1 X49.824 Y35.175 E2.70335
G1 X49.854 Y35.234 E2.70911
G1 X50.144 Y35.803 E2.76502
G1 X50.254 Y36.500 E2.82668
G1 X50.144 Y37.197 E2.88834
G1 X49.824 Y37.825 E2.95000
G1 X49.325 Y38.324 E3.01166
G1 X48.697 Y38.644 E3.07332
G1 X48.000 Y38.754 E3.13498
G1 X47.303 Y38.644 E3.19665
G1 X46.675 Y38.324 E3.25831
G1 X46.223 Y37.872 E3.31421
G1 X46.176 Y37.825 E3.31997
G1 X45.856 Y37.197 E3.38163
G1 X45.746 Y36.500 E3.44329
G1 X45.856 Y35.803 E3.50495
G1 X46.176 Y35.175 E3.56662
G1 X46.675 Y34.676 E3.62828
G1 X47.303 Y34.356 E3.68994
G1 X47.935 Y34.256 E3.74584
G1 X48.000 Y34.246 E3.75160 F756.000
G1 X48.637 Y34.347 E3.80802
G1 X47.893 Y34.205 F7800.000
G1 F1800.000 E2.80802
G92 E0
G1 X48.000 Y41.202 F7800.000
G1 E1.00000 F1800.000
G1 X48.165 Y41.228 E1.01461 F1080.000
G1 X48.926 Y41.349 E1.08200 F1080.000
G1 X49.762 Y41.775 E1.16400
G1 X50.425 Y42.438 E1.24599
G1 X50.851 Y43.274 E1.32801
G1 X50.998 Y44.200 E1.40999
G1 X50.851 Y45.126 E1.49199
G1 X50.425 Y45.962 E1.57400
G1 X49.762 Y46.625 E1.65599
G1 X48.926 Y47.051 E1.73799
G1 X48.000 Y47.198 E1.81999
G1 X47.074 Y47.051 E1.90200
G1 X46.238 Y46.625 E1.98399
G1 X45.575 Y45.962 E2.06598
G1 X45.149 Y45.126 E2.14799
G1 X45.002 Y44.200 E2.22999
G1 X45.149 Y43.274 E2.31197
G1 X45.575 Y42.438 E2.39399
G1 X46.238 Y41.775 E2.47599
G1 X47.074 Y41.349 E2.55798
G1 X47.941 Y41.211 E2.63474
G1 X48.000 Y41.846 F7800.000
G1 X48.728 Y41.961 E2.69914 F756.000
G1 X49.384 Y42.295 E2.76353
G1 X49.905 Y42.816 E2.82793
G1 X50.239 Y43.473 E2.89233
G1 X50.354 Y44.200 E2.95672
G1 X50.344 Y44.266 E2.96252
G1 X50.239 Y44.928 E3.02112
G1 X49.905 Y45.584 E3.08552
G1 X49.384 Y46.105 E3.14991
G1 X48.728 Y46.439 E3.21431
G1 X48.000 Y46.554 E3.27871
G1 X47.272 Y46.439 E3.34311
G1 X46.616 Y46.105 E3.40750
G1 X46.095 Y45.584 E3.47189
G1 X45.761 Y44.928 E3.53630
G1 X45.646 Y44.200 E3.60069
G1 X45.761 Y43.473 E3.66508
G1 X46.095 Y42.816 E3.72949
G1 X46.616 Y42.295 E3.79388
G1 X47.272 Y41.961 E3.85828
G1 X47.934 Y41.856 E3.91687
G1 X47.941 Y41.855 E3.91743 F756.000
G1 X47.934 Y41.850 F7800.000
G1 F1800.000 E2.91743
G92 E0
G1 X48.000 Y49.002 F7800.000
G1 E1.00000 F1800.000
G1 X48.166 Y49.028 E1.01466 F1080.000
G1 X48.957 Y49.154 E1.08474 F1080.000
G1 X49.821 Y49.594 E1.16947
G1 X50.506 Y50.279 E1.25420
G1 X50.946 Y51.143 E1.33893
G1 X51.098 Y52.100 E1.42368
G1 X50.946 Y53.057 E1.50840
G1 X50.506 Y53.921 E1.59314
G1 X50.237 Y54.190 E1.62643
G1 X50.237 Y54.394 E1.64427
G1 X48.957 Y55.046 E1.76983
G1 X48.000 Y55.198 E1.85457
G1 X47.043 Y55.046 E1.93930
G1 X46.179 Y54.606 E2.02404
G1 X45.494 Y53.921 E2.10877
G1 X45.054 Y53.057 E2.19351
G1 X44.902 Y52.100 E2.27823
G1 X45.054 Y51.143 E2.36298
G1 X45.494 Y50.279 E2.44770
G1 X46.179 Y49.594 E2.53244
G1 X47.043 Y49.154 E2.61717
G1 X47.941 Y49.011 E2.69666
G1 X48.000 Y49.646 F7800.000
G1 X48.758 Y49.766 E2.76380 F756.000
G1 X49.443 Y50.114 E2.83093
G1 X49.490 Y50.162 E2.83678
G1 X49.986 Y50.657 E2.89806
G1 X50.334 Y51.342 E2.96519
G1 X50.454 Y52.100 E3.03232
G1 X50.334 Y52.858 E3.09945
G1 X49.986 Y53.543 E3.16658
G1 X49.601 Y53.927 E3.21409
G1 X49.601 Y54.005 E3.22090
G1 X48.758 Y54.434 E3.30360
G1 X48.000 Y54.554 E3.37074
G1 X47.242 Y54.434 E3.43787
G1 X46.557 Y54.086 E3.50500
G1 X46.014 Y53.543 E3.57213
G1 X45.666 Y52.858 E3.63927
G1 X45.546 Y52.100 E3.70639
G1 X45.655 Y51.408 E3.76768
G1 X45.666 Y51.342 E3.77353
G1 X46.014 Y50.657 E3.84066
G1 X46.557 Y50.114 E3.90779
G1 X47.242 Y49.766 E3.97492
G1 X47.934 Y49.656 E4.03620
G1 X47.941 Y49.655 E4.03681 F756.000
G1 X47.933 Y49.649 F7800.000
G1 F1800.000 E3.03681
G92 E0
G1 X48.000 Y57.002 F7800.000
G1 E1.00000 F1800.000
G1 X48.166 Y57.028 E1.01470 F1080.000
G1 X48.988 Y57.159 E1.08748 F1080.000
G1 X49.880 Y57.613 E1.17494
G1 X50.587 Y58.320 E1.26241
G1 X51.041 Y59.212 E1.34988
G1 X51.198 Y60.200 E1.43735
G1 X51.041 Y61.188 E1.52481
G1 X50.587 Y62.080 E1.61228
G1 X50.468 Y62.199 E1.62698
G1 X49.880 Y62.787 E1.69975
G1 X48.988 Y63.241 E1.78722
G1 X48.000 Y63.398 E1.87469
G1 X47.012 Y63.241 E1.96217
G1 X46.120 Y62.787 E2.04964
G1 X45.532 Y62.199 E2.12241
G1 X45.413 Y62.080 E2.13711
G1 X44.959 Y61.188 E2.22457
G1 X44.802 Y60.200 E2.31204
G1 X44.959 Y59.212 E2.39951
G1 X45.413 Y58.320 E2.48698
G1 X46.120 Y57.613 E2.57444
G1 X47.012 Y57.159 E2.66191
G1 X47.941 Y57.011 E2.74414
G1 X48.000 Y57.646 F7800.000
G1 X48.789 Y57.771 E2.81401 F756.000
G1 X49.501 Y58.134 E2.88388
G1 X50.067 Y58.699 E2.95375
G1 X50.429 Y59.411 E3.02361
G1 X50.554 Y60.200 E3.09348
G1 X50.429 Y60.989 E3.16334
G1 X50.067 Y61.701 E3.23321
G1 X49.501 Y62.266 E3.30308
G1 X48.789 Y62.629 E3.37294
G1 X48.723 Y62.640 E3.37884
G1 X48.000 Y62.754 E3.44281
G1 X47.211 Y62.629 E3.51268
G1 X46.499 Y62.266 E3.58255
G1 X45.933 Y61.701 E3.65242
G1 X45.571 Y60.989 E3.72228
G1 X45.456 Y60.267 E3.78625
G1 X45.446 Y60.200 E3.79215
G1 X45.571 Y59.411 E3.86201
G1 X45.933 Y58.699 E3.93188
G1 X46.499 Y58.134 E4.00175
G1 X47.211 Y57.771 E4.07161
G1 X47.933 Y57.656 E4.13558
G1 X47.941 Y57.655 E4.13624 F756.000
G1 X47.933 Y57.649 F7800.000
G1 F1800.000 E3.13624
G92 E0
G1 X44.621 Y62.187 F7800.000
G1 E1.00000 F1800.000
G1 X45.742 Y63.308 E1.13857 F1080.000
G1 X46.813 Y63.853 E1.24365
G1 X47.171 Y63.910 E1.27537
G1 X47.134 Y64.379 E1.31647
G1 X44.621 Y64.379 E1.53618
G1 X44.621 Y62.247 E1.72256
G1 X48.829 Y63.910 F7800.000
G1 X49.187 Y63.853 E1.75429 F1080.000
G1 X50.258 Y63.308 E1.85936
G1 X51.379 Y62.187 E1.99794
G1 X51.379 Y64.379 E2.18956
G1 X48.866 Y64.379 E2.40927
G1 X48.833 Y63.970 E2.44512
G1 X51.379 Y58.213 F7800.000
G1 X50.258 Y57.092 E2.58369 F1080.000
G1 X49.187 Y56.547 E2.68876
G1 X48.000 Y56.359 E2.79384
G1 X46.813 Y56.547 E2.89892
G1 X45.742 Y57.092 E3.00399
G1 X44.621 Y58.213 E3.14256
G1 X44.621 Y53.947 E3.51547
G1 X45.801 Y55.127 E3.66131
G1 X46.844 Y55.658 E3.76365
G1 X48.000 Y55.841 E3.86598
G1 X49.156 Y55.658 E3.96832
G1 X51.379 Y54.526 E4.18640
G1 X51.379 Y58.153 E4.50351
G1 X51.379 Y50.253 F7800.000
G1 X50.199 Y49.073 E4.64936 F1080.000
G1 X49.156 Y48.542 E4.75168
G1 X48.000 Y48.359 E4.85402
G1 X46.844 Y48.542 E4.95637
G1 X45.801 Y49.073 E5.05870
G1 X44.621 Y50.253 E5.20454
G1 X44.621 Y45.908 E5.58439
G1 X45.860 Y47.146 E5.73749
G1 X46.875 Y47.663 E5.83708
G1 X48.000 Y47.841 E5.93669
G1 X49.125 Y47.663 E6.03630
G1 X50.140 Y47.146 E6.13589
G1 X51.379 Y45.908 E6.28899
G1 X51.379 Y50.193 E6.66360
G1 X51.379 Y42.492 F7800.000
G1 X50.140 Y41.254 E6.81670 F1080.000
G1 X49.125 Y40.737 E6.91629
G1 X48.000 Y40.559 E7.01590
G1 X46.875 Y40.737 E7.11551
G1 X45.860 Y41.254 E7.21510
G1 X44.621 Y42.492 E7.36820
G1 X44.621 Y38.432 E7.72316
G1 X45.011 Y38.338 E7.75821
G1 X45.135 Y38.582 E7.78206
G1 X45.918 Y39.365 E7.87892
G1 X46.906 Y39.868 E7.97578
G1 X48.000 Y40.041 E8.07266
G1 X49.094 Y39.868 E8.16954
G1 X50.082 Y39.365 E8.26640
G1 X50.865 Y38.582 E8.36326
G1 X50.989 Y38.338 E8.38711
G1 X51.379 Y38.432 E8.42216
G1 X51.379 Y42.432 E8.77187
G1 X50.989 Y34.662 F7800.000
G1 X50.865 Y34.418 E8.79575 F1080.000
G1 X50.082 Y33.635 E8.89260
G1 X49.095 Y33.132 E8.98945
G1 X48.000 Y32.959 E9.08633
G1 X46.905 Y33.132 E9.18322
G1 X45.918 Y33.635 E9.28007
G1 X45.135 Y34.418 E9.37692
G1 X45.011 Y34.662 E9.40080
G1 X44.621 Y34.568 E9.43584
G1 X44.621 Y30.714 E9.77273
G1 X45.011 Y30.621 E9.80777
G1 X45.216 Y31.023 E9.84721
G1 X45.977 Y31.784 E9.94132
G1 X46.937 Y32.273 E10.03548
G1 X48.000 Y32.441 E10.12960
G1 X49.063 Y32.273 E10.22372
G1 X50.023 Y31.784 E10.31788
G1 X50.784 Y31.023 E10.41199
G1 X50.989 Y30.621 E10.45143
G1 X51.379 Y30.715 E10.48647
G1 X51.379 Y34.568 E10.82336
G1 X51.047 Y34.648 E10.85316
G1 F1800.000 E9.85316
G92 E0
G1 X44.621 Y27.285 F7800.000
G1 E1.00000 F1800.000
G1 X44.621 Y25.621 E1.14550 F1080.000
G1 X46.286 Y25.621 E1.29099
G1 X46.379 Y26.011 E1.32604
G1 X45.977 Y26.216 E1.36547
G1 X45.216 Y26.977 E1.45959
G1 X45.011 Y27.379 E1.49904
G1 X44.680 Y27.300 E1.52884
G1 X49.714 Y25.621 F7800.000
G1 X51.379 Y25.621 E1.67433 F1080.000
G1 X51.379 Y27.285 E1.81983
G1 X50.989 Y27.379 E1.85487
G1 X50.784 Y26.977 E1.89432
G1 X50.023 Y26.216 E1.98844
G1 X49.621 Y26.011 E2.02787
G1 X49.700 Y25.680 E2.05767
G1 X52.014 Y24.986 F7800.000
G1 X52.014 Y65.014 E5.55714 F1080.000
G1 X43.986 Y65.014 E6.25905
G1 X43.986 Y24.986 E9.75852
G1 X51.954 Y24.986 E10.45518
G1 X52.650 Y24.350 F7800.000
G1 X52.650 Y65.650 E14.06579 F756.000
G1 X43.350 Y65.650 E14.87883
G1 X43.350 Y24.350 E18.48944
G1 X52.590 Y24.350 E19.29724
G1 X52.450 Y24.696 F7800.000
G1 X50.904 Y63.285 F7800.000
G1 X50.938 Y63.319 E19.30146 F1080.000
G1 X50.424 Y63.891 E19.36866
G1 X50.471 Y63.938 E19.37448
G1 X45.607 Y63.764 F7800.000
G1 X45.544 Y63.702 E19.38219 F1080.000
G1 X45.096 Y57.115 F7800.000
G1 X45.062 Y57.081 E19.38641 F1080.000
G1 X45.062 Y55.776 E19.50045
G1 X45.836 Y56.550 E19.59611
G1 X46.685 Y56.095 E19.68035
G1 X46.639 Y56.049 E19.68601
G1 X49.315 Y56.095 F7800.000
G1 X49.361 Y56.140 E19.69166 F1080.000
G1 X50.938 Y56.508 E19.83324
G1 X50.102 Y55.671 E19.93664
G1 X50.938 Y55.298 E20.01672
G1 X50.903 Y55.263 E20.02103
G1 X49.294 Y48.095 F7800.000
G1 X49.339 Y48.140 E20.02669 F1080.000
G1 X49.875 Y47.776 E20.08329
G1 X50.938 Y48.839 E20.21475
G1 X50.938 Y47.940 E20.29339
G1 X50.454 Y47.456 E20.35323
G1 X50.938 Y47.040 E20.40900
G1 X50.904 Y47.006 E20.41322
G1 X51.249 Y45.417 F7800.000
G1 X51.444 Y45.036 E20.43443 F360.000
G1 X51.507 Y44.230 E20.47456
G1 X51.444 Y43.364 E20.51760
G1 X51.249 Y42.983 E20.53882
G1 X49.272 Y40.295 F7800.000
G1 X49.318 Y40.340 E20.54447 F1080.000
G1 X49.867 Y39.969 E20.60239
G1 X50.938 Y41.040 E20.73481
G1 X50.938 Y40.120 E20.81524
G1 X50.444 Y39.626 E20.87633
G1 X50.938 Y39.200 E20.93335
G1 X50.904 Y39.166 E20.93757
G1 X51.392 Y37.358 F7800.000
G1 X51.457 Y36.463 E20.98214 F360.000
G1 X51.392 Y35.642 E21.02300
G1 X49.251 Y32.695 F7800.000
G1 X49.297 Y32.740 E21.02866 F1080.000
G1 X49.859 Y32.362 E21.08789
G1 X50.938 Y33.441 E21.22127
G1 X50.938 Y32.501 E21.30347
G1 X50.434 Y31.997 E21.36581
G1 X50.938 Y31.561 E21.42409
G1 X50.904 Y31.527 E21.42831
G1 X46.703 Y32.649 F7800.000
G1 X46.749 Y32.695 E21.43396 F1080.000
G1 X46.147 Y33.024 E21.49391
G1 X45.062 Y31.938 E21.62808
G1 X45.062 Y32.869 E21.70944
G1 X45.562 Y33.368 E21.77119
G1 X45.096 Y33.834 E21.82872
G1 X45.062 Y33.800 E21.83294
G1 X44.608 Y35.642 F7800.000
G1 X44.543 Y36.463 E21.87380 F360.000
G1 X44.608 Y37.359 E21.91837
G1 X46.682 Y40.249 F7800.000
G1 X46.728 Y40.295 E21.92403 F1080.000
G1 X46.139 Y40.617 E21.98266
G1 X45.062 Y39.539 E22.11586
G1 X45.062 Y40.450 E22.19545
G1 X45.551 Y40.939 E22.25594
G1 X45.096 Y41.394 E22.31222
G1 X45.062 Y41.360 E22.31644
G1 X44.751 Y42.983 F7800.000
G1 X44.556 Y43.364 E22.33765 F360.000
G1 X44.493 Y44.230 E22.38069
G1 X44.556 Y45.036 E22.42082
G1 X44.751 Y45.417 E22.44203
G1 X46.661 Y48.049 F7800.000
G1 X46.706 Y48.095 E22.44769 F1080.000
G1 X45.837 Y48.560 E22.53392
G1 X45.062 Y47.785 E22.62971
G1 X45.062 Y49.120 E22.74642
G1 X45.096 Y49.154 E22.75064
M106 S255
G1 F1800.000 E21.75064
G92 E0
G1 Z0.650 F7800.000
G1 X49.964 Y27.036 F7800.000
G1 E1.00000 F1800.000
G1 X50.275 Y27.347 E1.02075 F1995.504
G1 X50.675 Y28.131 E1.06224
G1 X50.812 Y29.000 E1.10374
G1 X50.675 Y29.869 E1.14523
G1 X50.275 Y30.653 E1.18673
G1 X49.653 Y31.275 E1.22822
G1 X48.869 Y31.675 E1.26972
G1 X48.000 Y31.812 E1.31121
G1 X47.131 Y31.675 E1.35271
G1 X46.347 Y31.275 E1.39420
G1 X45.725 Y30.653 E1.43570
G1 X45.325 Y29.869 E1.47719
G1 X45.188 Y29.000 E1.51869
G1 X45.325 Y28.131 E1.56018
G1 X45.725 Y27.347 E1.60168
G1 X46.347 Y26.725 E1.64317
G1 X47.131 Y26.325 E1.68467
G1 X48.000 Y26.188 E1.72616
G1 X48.184 Y26.217 E1.73496
G1 X48.869 Y26.325 E1.76766 F1995.504
G1 X49.653 Y26.725 E1.80915
G1 X49.922 Y26.993 E1.82707
G1 X49.681 Y27.319 F7800.000
G1 X49.948 Y27.585 E1.84483 F1995.504
G1 X50.290 Y28.256 E1.88035
G1 X50.407 Y29.000 E1.91587
G1 X50.290 Y29.744 E1.95139
G1 X49.948 Y30.415 E1.98691
G1 X49.415 Y30.948 E2.02243
G1 X48.744 Y31.290 E2.05795
G1 X48.000 Y31.407 E2.09347
G1 X47.256 Y31.290 E2.12899
G1 X46.585 Y30.948 E2.16451
G1 X46.052 Y30.415 E2.20003
G1 X45.710 Y29.744 E2.23555
G1 X45.593 Y29.000 E2.27107
G1 X45.710 Y28.256 E2.30659
G1 X46.052 Y27.585 E2.34211
G1 X46.585 Y27.052 E2.37763
G1 X47.256 Y26.710 E2.41315
G1 X47.878 Y26.612 E2.44286
G1 X48.000 Y26.593 E2.44867 F1995.504
G1 X48.744 Y26.710 E2.48419
G1 X49.415 Y27.052 E2.51971
G1 X49.639 Y27.276 E2.53464
G1 X49.399 Y27.601 F7800.000
G1 X49.620 Y27.823 E2.54941 F1396.853
G1 X49.904 Y28.381 E2.57896
G1 X50.002 Y29.000 E2.60850
G1 X49.904 Y29.619 E2.63805
G1 X49.620 Y30.177 E2.66759
G1 X49.177 Y30.620 E2.69713
G1 X48.619 Y30.904 E2.72668
