; generated by Slic3r 1.1.7 on 2014-10-07 at 20:28:10

; perimeters extrusion width = 0.40mm
; infill extrusion width = 0.42mm
; solid infill extrusion width = 0.42mm
; top infill extrusion width = 0.42mm
; support material extrusion width = 0.40mm

G21 ; set units to millimeters
M107
M104 S195 ; set temperature
G28 ; home all axes
G1 Z5 F5000 ; lift nozzle
M109 S195 ; wait for temperature to be reached
G90 ; use absolute coordinates
G92 E0
M82 ; use absolute distances for extrusion
G1 F1800.000 E-1.00000
G92 E0
G1 Z0.300 F7800.000
G1 X26.001 Y37.919 F7800.000
G1 E1.00000 F1800.000
G1 X28.168 Y37.082 E1.10958 F1405.983
G1 X29.500 Y36.950 E1.17269
G1 X66.500 Y36.950 E2.91750
G1 X68.790 Y37.347 E3.02708
G1 X70.812 Y38.492 E3.13667 F1405.983
G1 X72.331 Y40.251 E3.24625
G1 X73.168 Y42.418 E3.35583
G1 X73.300 Y43.750 E3.41894
G1 X73.300 Y46.250 E3.53683
G1 X72.903 Y48.540 E3.64642
G1 X71.758 Y50.562 E3.75600
G1 X69.999 Y52.081 E3.86558
G1 X67.832 Y52.918 E3.97517
G1 X66.500 Y53.050 E4.03827
G1 X29.500 Y53.050 E5.78308
G1 X27.210 Y52.653 E5.89267
G1 X25.188 Y51.508 E6.00225
G1 X23.669 Y49.749 E6.11183
G1 X22.832 Y47.582 E6.22142
G1 X22.700 Y46.250 E6.28452
G1 X22.700 Y43.750 E6.40242
G1 X23.097 Y41.460 E6.51200
G1 X24.242 Y39.438 E6.62158
G1 X25.955 Y37.959 E6.72834
G1 X26.272 Y38.251 F7800.000
G1 X26.383 Y38.161 E6.73508 F1405.983
G1 X29.500 Y37.350 E6.88697
G1 X66.500 Y37.350 E8.63178
G1 X68.719 Y37.747 E8.73806
G1 X70.662 Y38.888 E8.84435 F1405.983
G1 X72.089 Y40.633 E8.95064
G1 X72.900 Y43.750 E9.10253
G1 X72.900 Y46.250 E9.22042
G1 X72.503 Y48.469 E9.32671
G1 X71.362 Y50.412 E9.43300
G1 X69.617 Y51.839 E9.53928
G1 X66.500 Y52.650 E9.69118
G1 X29.500 Y52.650 E11.43599
G1 X27.281 Y52.253 E11.54227
G1 X25.338 Y51.112 E11.64856
G1 X23.911 Y49.367 E11.75484
G1 X23.100 Y46.250 E11.90674
G1 X23.100 Y43.750 E12.02463
G1 X23.497 Y41.531 E12.13092
G1 X24.638 Y39.588 E12.23720
G1 X26.226 Y38.289 E12.33392
G1 F1800.000 E11.33392
G92 E0
G1 X65.500 Y45.250 F7800.000
G1 E1.00000 F1800.000
G1 X30.500 Y45.250 E2.65050 F1687.179
G1 X30.500 Y44.750 E2.67407
G1 X65.500 Y44.750 E4.32457
G1 X65.500 Y45.190 E4.34532
G1 X65.900 Y45.650 F7800.000
G1 X30.100 Y45.650 E6.03354 F1687.179
G1 X30.100 Y44.350 E6.09484
G1 X65.900 Y44.350 E7.78307
G1 X65.900 Y45.590 E7.84154
G1 X66.300 Y46.050 F7800.000
G1 X29.700 Y46.050 E9.56749 F1012.308
G1 X29.700 Y43.950 E9.66652
G1 X66.300 Y43.950 E11.39246
G1 X66.300 Y45.990 E11.48866
G1 X65.954 Y45.850 F7800.000
M106 S255
G1 F1800.000 E10.48866
G92 E0
G1 Z0.600 F7800.000
G1 X65.500 Y45.250 F7800.000
G1 E1.00000 F1800.000
G1 X30.500 Y45.250 E2.65050 F900.000
G1 X30.500 Y44.750 E2.67407
G1 X65.500 Y44.750 E4.32457
G1 X65.500 Y45.190 E4.34532
G1 X65.900 Y45.650 F7800.000
G1 X30.100 Y45.650 E6.03354 F900.000
G1 X30.100 Y44.350 E6.09484
G1 X65.900 Y44.350 E7.78307
G1 X65.900 Y45.590 E7.84154
G1 X66.300 Y46.050 F7800.000
G1 X29.700 Y46.050 E9.56749 F900.000
G1 X29.700 Y43.950 E9.66652
G1 X66.300 Y43.950 E11.39246
G1 X66.300 Y45.990 E11.48866
G1 X65.954 Y45.850 F7800.000
G1 F1800.000 E10.48866
G92 E0
G1 Z0.900 F7800.000
G1 X65.500 Y45.250 F7800.000
G1 E1.00000 F1800.000
G1 X30.500 Y45.250 E2.65050 F900.000
G1 X30.500 Y44.750 E2.67407
G1 X65.500 Y44.750 E4.32457
G1 X65.500 Y45.190 E4.34532
G1 X65.900 Y45.650 F7800.000
G1 X30.100 Y45.650 E6.03354 F900.000
G1 X30.100 Y44.350 E6.09484
G1 X65.900 Y44.350 E7.78307
G1 X65.900 Y45.590 E7.84154
G1 X66.300 Y46.050 F7800.000
G1 X29.700 Y46.050 E9.56749 F900.000
G1 X29.700 Y43.950 E9.66652
G1 X66.300 Y43.950 E11.39246
G1 X66.300 Y45.990 E11.48866
G1 X65.954 Y45.850 F7800.000
G1 F1800.000 E10.48866
G92 E0
G1 Z1.200 F7800.000
G1 X65.500 Y45.250 F7800.000
G1 E1.00000 F1800.000
G1 X30.500 Y45.250 E2.65050 F900.000
G1 X30.500 Y44.750 E2.67407
G1 X65.500 Y44.750 E4.32457
G1 X65.500 Y45.190 E4.34532
G1 X65.900 Y45.650 F7800.000
G1 X30.100 Y45.650 E6.03354 F900.000
G1 X30.100 Y44.350 E6.09484
G1 X65.900 Y44.350 E7.78307
G1 X65.900 Y45.590 E7.84154
G1 X66.300 Y46.050 F7800.000
G1 X29.700 Y46.050 E9.56749 F900.000
G1 X29.700 Y43.950 E9.66652
G1 X66.300 Y43.950 E11.39246
G1 X66.300 Y45.990 E11.48866
G1 X65.954 Y45.850 F7800.000
G1 F1800.000 E10.48866
G92 E0
G1 Z1.500 F7800.000
G1 X65.500 Y45.250 F7800.000
G1 E1.00000 F1800.000
G1 X30.500 Y45.250 E2.65050 F900.000
G1 X30.500 Y44.750 E2.67407
G1 X65.500 Y44.750 E4.32457
G1 X65.500 Y45.190 E4.34532
G1 X65.900 Y45.650 F7800.000
G1 X30.100 Y45.650 E6.03354 F900.000
G1 X30.100 Y44.350 E6.09484
G1 X65.900 Y44.350 E7.78307
G1 X65.900 Y45.590 E7.84154
G1 X66.300 Y46.050 F7800.000
G1 X29.700 Y46.050 E9.56749 F900.000
G1 X29.700 Y43.950 E9.66652
G1 X66.300 Y43.950 E11.39246
G1 X66.300 Y45.990 E11.48866
G1 X65.954 Y45.850 F7800.000
G1 F1800.000 E10.48866
G92 E0
G1 Z1.800 F7800.000
G1 X65.500 Y45.250 F7800.000
G1 E1.00000 F1800.000
G1 X30.500 Y45.250 E2.65050 F900.000
G1 X30.500 Y44.750 E2.67407
G1 X65.500 Y44.750 E4.32457
G1 X65.500 Y45.190 E4.34532
G1 X65.900 Y45.650 F7800.000
G1 X30.100 Y45.650 E6.03354 F900.000
G1 X30.100 Y44.350 E6.09484
G1 X65.900 Y44.350 E7.78307
G1 X65.900 Y45.590 E7.84154
G1 X66.300 Y46.050 F7800.000
G1 X29.700 Y46.050 E9.56749 F900.000
G1 X29.700 Y43.950 E9.66652
G1 X66.300 Y43.950 E11.39246
G1 X66.300 Y45.990 E11.48866
G1 X65.954 Y45.850 F7800.000
G1 F1800.000 E10.48866
G92 E0
G1 Z2.100 F7800.000
G1 X65.500 Y45.250 F7800.000
G1 E1.00000 F1800.000
G1 X64.928 Y45.250 E1.02699 F900.000
G1 X64.928 Y44.750 E1.05057
G1 X65.500 Y44.750 E1.07755
G1 X65.500 Y45.190 E1.09830
G1 X65.900 Y45.650 F7800.000
G1 X64.528 Y45.650 E1.16302 F900.000
G1 X64.528 Y44.350 E1.22432
G1 X65.900 Y44.350 E1.28903
G1 X65.900 Y45.590 E1.34751
G1 X66.300 Y46.050 F7800.000
G1 X64.128 Y46.050 E1.44995 F900.000
G1 X64.128 Y43.950 E1.54898
G1 X66.300 Y43.950 E1.65141
G1 X66.300 Y45.990 E1.74761
G1 X65.954 Y45.850 F7800.000
G1 F1800.000 E0.74761
G92 E0
G1 X62.072 Y45.250 F7800.000
G1 E1.00000 F1800.000
G1 X60.985 Y45.250 E1.05128 F900.000
G1 X60.985 Y44.750 E1.07486
G1 X62.072 Y44.750 E1.12614
G1 X62.072 Y45.190 E1.14689
G1 X62.472 Y45.650 F7800.000
G1 X60.585 Y45.650 E1.23590 F900.000
G1 X60.585 Y44.350 E1.29720
G1 X62.472 Y44.350 E1.38621
G1 X62.472 Y45.590 E1.44469
G1 X62.872 Y46.050 F7800.000
G1 X60.185 Y46.050 E1.57142 F900.000
G1 X60.185 Y43.950 E1.67045
G1 X62.872 Y43.950 E1.79718
G1 X62.872 Y45.990 E1.89338
G1 X62.526 Y45.850 F7800.000
G1 F1800.000 E0.89338
G92 E0
G1 X58.315 Y45.250 F7800.000
G1 E1.00000 F1800.000
G1 X57.126 Y45.250 E1.05609 F900.000
G1 X57.126 Y44.750 E1.07967
G1 X58.315 Y44.750 E1.13575
G1 X58.315 Y45.190 E1.15650
G1 X58.715 Y45.650 F7800.000
G1 X56.726 Y45.650 E1.25032 F900.000
G1 X56.726 Y44.350 E1.31162
G1 X58.715 Y44.350 E1.40543
G1 X58.715 Y45.590 E1.46391
G1 X59.115 Y46.050 F7800.000
G1 X56.326 Y46.050 E1.59545 F900.000
G1 X56.326 Y43.950 E1.69448
G1 X59.115 Y43.950 E1.82601
G1 X59.115 Y45.990 E1.92221
G1 X58.769 Y45.850 F7800.000
G1 F1800.000 E0.92221
G92 E0
G1 X54.674 Y45.250 F7800.000
G1 E1.00000 F1800.000
G1 X30.500 Y45.250 E2.13998 F900.000
G1 X30.500 Y44.750 E2.16356
G1 X54.674 Y44.750 E3.30354
G1 X54.674 Y45.190 E3.32428
G1 X55.074 Y45.650 F7800.000
G1 X30.100 Y45.650 E4.50199 F900.000
G1 X30.100 Y44.350 E4.56329
G1 X55.074 Y44.350 E5.74100
G1 X55.074 Y45.590 E5.79947
G1 X55.474 Y46.050 F7800.000
G1 X29.700 Y46.050 E7.01490 F900.000
G1 X29.700 Y43.950 E7.11393
G1 X55.474 Y43.950 E8.32936
G1 X55.474 Y45.990 E8.42556
G1 X55.128 Y45.850 F7800.000
G1 F1800.000 E7.42556
G92 E0
G1 Z2.400 F7800.000
G1 X65.149 Y45.250 F7800.000
G1 E1.00000 F1800.000
G1 X65.149 Y44.750 E1.02358 F900.000
G1 X65.500 Y44.750 E1.04015
G1 X65.500 Y45.250 E1.06373
G1 X65.209 Y45.250 E1.07748
G1 X64.749 Y45.650 F7800.000
G1 X64.749 Y44.350 E1.13878 F900.000
G1 X65.900 Y44.350 E1.19308
G1 X65.900 Y45.650 E1.25438
G1 X64.809 Y45.650 E1.30585
G1 X64.349 Y46.050 F7800.000
G1 X64.349 Y43.950 E1.40488 F900.000
G1 X66.300 Y43.950 E1.49691
G1 X66.300 Y46.050 E1.59594
G1 X64.409 Y46.050 E1.68513
G1 X64.549 Y45.704 F7800.000
G1 F1800.000 E0.68513
G92 E0
G1 X61.851 Y45.250 F7800.000
G1 E1.00000 F1800.000
G1 X61.243 Y45.250 E1.02869 F900.000
G1 X61.243 Y44.750 E1.05226
G1 X61.851 Y44.750 E1.08095
G1 X61.851 Y45.190 E1.10170
G1 X62.251 Y45.650 F7800.000
G1 X60.843 Y45.650 E1.16811 F900.000
G1 X60.843 Y44.350 E1.22941
G1 X62.251 Y44.350 E1.29582
G1 X62.251 Y45.590 E1.35430
G1 X62.651 Y46.050 F7800.000
G1 X60.443 Y46.050 E1.45844 F900.000
G1 X60.443 Y43.950 E1.55747
G1 X62.651 Y43.950 E1.66160
G1 X62.651 Y45.990 E1.75780
G1 X62.305 Y45.850 F7800.000
G1 F1800.000 E0.75780
G92 E0
G1 X58.057 Y45.250 F7800.000
G1 E1.00000 F1800.000
G1 X57.438 Y45.250 E1.02920 F900.000
G1 X57.438 Y44.750 E1.05278
G1 X58.057 Y44.750 E1.08197
G1 X58.057 Y45.190 E1.10272
G1 X58.457 Y45.650 F7800.000
G1 X57.038 Y45.650 E1.16964 F900.000
G1 X57.038 Y44.350 E1.23095
G1 X58.457 Y44.350 E1.29787
G1 X58.457 Y45.590 E1.35634
G1 X58.857 Y46.050 F7800.000
G1 X56.638 Y46.050 E1.46099 F900.000
G1 X56.638 Y43.950 E1.56002
G1 X58.857 Y43.950 E1.66467
G1 X58.857 Y45.990 E1.76087
G1 X58.510 Y45.850 F7800.000
G1 F1800.000 E0.76087
G92 E0
G1 X54.362 Y45.250 F7800.000
G1 E1.00000 F1800.000
G1 X53.732 Y45.250 E1.02971 F900.000
G1 X53.732 Y44.750 E1.05329
G1 X54.362 Y44.750 E1.08299
G1 X54.362 Y45.190 E1.10374
G1 X54.762 Y45.650 F7800.000
G1 X53.332 Y45.650 E1.17118 F900.000
G1 X53.332 Y44.350 E1.23248
G1 X54.762 Y44.350 E1.29991
G1 X54.762 Y45.590 E1.35839
G1 X55.162 Y46.050 F7800.000
G1 X52.932 Y46.050 E1.46355 F900.000
G1 X52.932 Y43.950 E1.56258
G1 X55.162 Y43.950 E1.66774
G1 X55.162 Y45.990 E1.76394
G1 X54.816 Y45.850 F7800.000
G1 F1800.000 E0.76394
G92 E0
G1 X50.768 Y45.250 F7800.000
G1 E1.00000 F1800.000
G1 X50.127 Y45.250 E1.03022 F900.000
G1 X50.127 Y44.750 E1.05380
G1 X50.768 Y44.750 E1.08402
G1 X50.768 Y45.190 E1.10477
G1 X51.168 Y45.650 F7800.000
G1 X49.727 Y45.650 E1.17271 F900.000
G1 X49.727 Y44.350 E1.23401
G1 X51.168 Y44.350 E1.30196
G1 X51.168 Y45.590 E1.36043
G1 X51.568 Y46.050 F7800.000
G1 X49.327 Y46.050 E1.46610 F900.000
G1 X49.327 Y43.950 E1.56513
G1 X51.568 Y43.950 E1.67080
G1 X51.568 Y45.990 E1.76700
G1 X51.221 Y45.850 F7800.000
G1 F1800.000 E0.76700
G92 E0
G1 X47.273 Y45.250 F7800.000
G1 E1.00000 F1800.000
G1 X46.621 Y45.250 E1.03073 F900.000
G1 X46.621 Y44.750 E1.05431
G1 X47.273 Y44.750 E1.08504
G1 X47.273 Y45.190 E1.10579
G1 X47.673 Y45.650 F7800.000
G1 X46.221 Y45.650 E1.17424 F900.000
G1 X46.221 Y44.350 E1.23555
G1 X47.673 Y44.350 E1.30400
G1 X47.673 Y45.590 E1.36248
G1 X48.073 Y46.050 F7800.000
G1 X45.821 Y46.050 E1.46866 F900.000
G1 X45.821 Y43.950 E1.56769
G1 X48.073 Y43.950 E1.67387
G1 X48.073 Y45.990 E1.77007
G1 X47.727 Y45.850 F7800.000
G1 F1800.000 E0.77007
G92 E0
G1 X43.879 Y45.250 F7800.000
G1 E1.00000 F1800.000
G1 X43.209 Y45.250 E1.03159 F900.000
G1 X43.209 Y44.750 E1.05516
G1 X43.879 Y44.750 E1.08675
G1 X43.879 Y45.190 E1.10750
G1 X44.279 Y45.650 F7800.000
G1 X42.809 Y45.650 E1.17681 F900.000
G1 X42.809 Y44.350 E1.23811
G1 X44.279 Y44.350 E1.30743
G1 X44.279 Y45.590 E1.36590
G1 X44.679 Y46.050 F7800.000
G1 X42.409 Y46.050 E1.47294 F900.000
G1 X42.409 Y43.950 E1.57197
G1 X44.679 Y43.950 E1.67900
G1 X44.679 Y45.990 E1.77520
G1 X44.332 Y45.850 F7800.000
G1 F1800.000 E0.77520
G92 E0
G1 X40.591 Y45.250 F7800.000
G1 E1.00000 F1800.000
G1 X39.889 Y45.250 E1.03312 F900.000
G1 X39.889 Y44.750 E1.05670
G1 X40.591 Y44.750 E1.08983
G1 X40.591 Y45.190 E1.11057
G1 X40.991 Y45.650 F7800.000
G1 X39.489 Y45.650 E1.18142 F900.000
G1 X39.489 Y44.350 E1.24273
G1 X40.991 Y44.350 E1.31358
G1 X40.991 Y45.590 E1.37205
G1 X41.391 Y46.050 F7800.000
G1 X39.089 Y46.050 E1.48063 F900.000
G1 X39.089 Y43.950 E1.57966
G1 X41.391 Y43.950 E1.68823
G1 X41.391 Y45.990 E1.78443
G1 X41.045 Y45.850 F7800.000
G1 F1800.000 E0.78443
G92 E0
G1 X37.411 Y45.250 F7800.000
G1 E1.00000 F1800.000
G1 X36.662 Y45.250 E1.03532 F900.000
G1 X36.662 Y44.750 E1.05890
G1 X37.411 Y44.750 E1.09423
G1 X37.411 Y45.190 E1.11498
G1 X37.811 Y45.650 F7800.000
G1 X36.262 Y45.650 E1.18803 F900.000
G1 X36.262 Y44.350 E1.24933
G1 X37.811 Y44.350 E1.32238
G1 X37.811 Y45.590 E1.38086
G1 X38.211 Y46.050 F7800.000
G1 X35.862 Y46.050 E1.49163 F900.000
G1 X35.862 Y43.950 E1.59066
G1 X38.211 Y43.950 E1.70144
G1 X38.211 Y45.990 E1.79764
G1 X37.865 Y45.850 F7800.000
G1 F1800.000 E0.79764
G92 E0
G1 X34.338 Y45.250 F7800.000
G1 E1.00000 F1800.000
G1 X30.500 Y45.250 E1.18099 F900.000
G1 X30.500 Y44.750 E1.20457
G1 X34.338 Y44.750 E1.38555
G1 X34.338 Y45.190 E1.40630
G1 X34.738 Y45.650 F7800.000
G1 X30.100 Y45.650 E1.62501 F900.000
G1 X30.100 Y44.350 E1.68632
G1 X34.738 Y44.350 E1.90503
G1 X34.738 Y45.590 E1.96351
G1 X35.138 Y46.050 F7800.000
G1 X29.700 Y46.050 E2.21994 F900.000
G1 X29.700 Y43.950 E2.31897
G1 X35.138 Y43.950 E2.57541
G1 X35.138 Y45.990 E2.67161
G1 X34.792 Y45.850 F7800.000
G1 F1800.000 E1.67161
G92 E0
G1 Z2.700 F7800.000
G1 X64.792 Y45.650 F7800.000
G1 E1.00000 F1800.000
G1 X64.792 Y44.350 E1.06130 F900.000
G1 X65.900 Y44.350 E1.11355
G1 X65.900 Y45.650 E1.17485
G1 X64.852 Y45.650 E1.22427
G1 X64.392 Y46.050 F7800.000
G1 X64.392 Y43.950 E1.32330 F900.000
G1 X66.300 Y43.950 E1.41327
G1 X66.300 Y46.050 E1.51230
G1 X64.452 Y46.050 E1.59945
G1 X64.592 Y45.704 F7800.000
G1 X65.066 Y45.336 F7800.000
G1 X65.106 Y45.376 E1.60224 F900.000
G1 X65.626 Y45.280 E1.62833
G1 X65.066 Y44.720 E1.66740
G1 X65.626 Y44.664 E1.69516
G1 X65.586 Y44.624 E1.69796
G1 F1800.000 E0.69796
G92 E0
G1 X61.808 Y45.250 F7800.000
G1 E1.00000 F1800.000
G1 X61.292 Y45.250 E1.02433 F900.000
G1 X61.292 Y44.750 E1.04790
G1 X61.808 Y44.750 E1.07223
G1 X61.808 Y45.190 E1.09298
G1 X62.208 Y45.650 F7800.000
G1 X60.892 Y45.650 E1.15503 F900.000
G1 X60.892 Y44.350 E1.21633
G1 X62.208 Y44.350 E1.27839
G1 X62.208 Y45.590 E1.33686
G1 X62.608 Y46.050 F7800.000
G1 X60.492 Y46.050 E1.43664 F900.000
G1 X60.492 Y43.950 E1.53567
G1 X62.608 Y43.950 E1.63544
G1 X62.608 Y45.990 E1.73164
G1 X62.262 Y45.850 F7800.000
G1 F1800.000 E0.73164
G92 E0
G1 X58.008 Y45.250 F7800.000
G1 E1.00000 F1800.000
G1 X57.492 Y45.250 E1.02433 F900.000
G1 X57.492 Y44.750 E1.04790
G1 X58.008 Y44.750 E1.07223
G1 X58.008 Y45.190 E1.09298
G1 X58.408 Y45.650 F7800.000
G1 X57.092 Y45.650 E1.15503 F900.000
G1 X57.092 Y44.350 E1.21633
G1 X58.408 Y44.350 E1.27839
G1 X58.408 Y45.590 E1.33686
G1 X58.808 Y46.050 F7800.000
G1 X56.692 Y46.050 E1.43664 F900.000
G1 X56.692 Y43.950 E1.53567
G1 X58.808 Y43.950 E1.63544
G1 X58.808 Y45.990 E1.73164
G1 X58.462 Y45.850 F7800.000
G1 F1800.000 E0.73164
G92 E0
G1 X54.308 Y45.250 F7800.000
G1 E1.00000 F1800.000
G1 X53.792 Y45.250 E1.02433 F900.000
G1 X53.792 Y44.750 E1.04790
G1 X54.308 Y44.750 E1.07223
G1 X54.308 Y45.190 E1.09298
G1 X54.708 Y45.650 F7800.000
G1 X53.392 Y45.650 E1.15503 F900.000
G1 X53.392 Y44.350 E1.21633
G1 X54.708 Y44.350 E1.27839
G1 X54.708 Y45.590 E1.33686
G1 X55.108 Y46.050 F7800.000
G1 X52.992 Y46.050 E1.43664 F900.000
G1 X52.992 Y43.950 E1.53567
G1 X55.108 Y43.950 E1.63544
G1 X55.108 Y45.990 E1.73164
G1 X54.762 Y45.850 F7800.000
G1 F1800.000 E0.73164
G92 E0
G1 X50.708 Y45.250 F7800.000
G1 E1.00000 F1800.000
G1 X50.192 Y45.250 E1.02433 F900.000
G1 X50.192 Y44.750 E1.04790
G1 X50.708 Y44.750 E1.07223
G1 X50.708 Y45.190 E1.09298
G1 X51.108 Y45.650 F7800.000
G1 X49.792 Y45.650 E1.15503 F900.000
G1 X49.792 Y44.350 E1.21633
G1 X51.108 Y44.350 E1.27839
G1 X51.108 Y45.590 E1.33686
G1 X51.508 Y46.050 F7800.000
G1 X49.392 Y46.050 E1.43664 F900.000
G1 X49.392 Y43.950 E1.53567
G1 X51.508 Y43.950 E1.63544
G1 X51.508 Y45.990 E1.73164
G1 X51.162 Y45.850 F7800.000
G1 F1800.000 E0.73164
G92 E0
G1 X47.208 Y45.250 F7800.000
G1 E1.00000 F1800.000
G1 X46.692 Y45.250 E1.02433 F900.000
G1 X46.692 Y44.750 E1.04790
G1 X47.208 Y44.750 E1.07223
G1 X47.208 Y45.190 E1.09298
G1 X47.608 Y45.650 F7800.000
G1 X46.292 Y45.650 E1.15503 F900.000
G1 X46.292 Y44.350 E1.21633
G1 X47.608 Y44.350 E1.27838
G1 X47.608 Y45.590 E1.33686
G1 X48.008 Y46.050 F7800.000
G1 X45.892 Y46.050 E1.43664 F900.000
G1 X45.892 Y43.950 E1.53567
G1 X48.008 Y43.950 E1.63544
G1 X48.008 Y45.990 E1.73164
G1 X47.662 Y45.850 F7800.000
G1 F1800.000 E0.73164
G92 E0
G1 X43.808 Y45.250 F7800.000
