; generated by Slic3r 1.1.7 on 2014-10-12 at 19:10:15

; perimeters extrusion width = 0.40mm
; infill extrusion width = 0.42mm
; solid infill extrusion width = 0.42mm
; top infill extrusion width = 0.42mm
; support material extrusion width = 0.40mm

G21 ; set units to millimeters
M107
M104 S195 ; set temperature
G28 ; home all axes
G1 Z5 F5000 ; lift nozzle
M109 S195 ; wait for temperature to be reached
G90 ; use absolute coordinates
G92 E0
M82 ; use absolute distances for extrusion
G1 F1800.000 E-1.00000
G92 E0
G1 Z0.400 F7800.000
G1 X37.261 Y34.941 F7800.000
G1 E1.00000 F1800.000
G1 X37.809 Y34.387 E1.08744 F768.903
G1 X38.355 Y33.888 E1.17056
G1 X38.925 Y33.417 E1.25350
G1 X39.560 Y32.947 E1.34211
G1 X40.211 Y32.516 E1.42981
G1 X40.849 Y32.140 E1.51294
G1 X41.505 Y31.797 E1.59602
G1 X42.176 Y31.487 E1.67904
G1 X42.908 Y31.195 E1.76756
G1 X43.650 Y30.944 E1.85539
G1 X44.361 Y30.743 E1.93840
G1 X45.082 Y30.578 E2.02145
G1 X45.810 Y30.450 E2.10437
G1 X46.592 Y30.353 E2.19289
G1 X47.336 Y30.301 E2.27657
G1 X48.113 Y30.286 E2.36378
G1 X49.313 Y30.345 E2.49872 F768.903
G1 X49.956 Y30.416 E2.57134
G1 X50.596 Y30.517 E2.64400
G1 X51.230 Y30.645 E2.71669
G1 X51.817 Y30.790 E2.78457
G1 X52.392 Y30.957 E2.85173
G1 X53.005 Y31.163 E2.92435
G1 X53.608 Y31.396 E2.99690
G1 X54.201 Y31.656 E3.06958
G1 X55.268 Y32.206 E3.20442
G1 X55.824 Y32.539 E3.27711
G1 X56.364 Y32.894 E3.34962
G1 X56.854 Y33.248 E3.41747
G1 X57.363 Y33.649 E3.49024
G1 X57.854 Y34.072 E3.56299
G1 X58.324 Y34.516 E3.63557
G1 X58.741 Y34.943 E3.70258
G1 X59.172 Y35.424 E3.77511
G1 X59.583 Y35.925 E3.84783
G1 X59.947 Y36.411 E3.91603
G1 X60.285 Y36.902 E3.98289
G1 X60.628 Y37.448 E4.05531
G1 X61.203 Y38.505 E4.19033
G1 X61.475 Y39.091 E4.26287
G1 X61.722 Y39.690 E4.33562
G1 X61.943 Y40.298 E4.40824
G1 X62.136 Y40.915 E4.48085
G1 X62.422 Y42.082 E4.61576
G1 X62.536 Y42.720 E4.68845
G1 X62.618 Y43.317 E4.75609
G1 X62.674 Y43.913 E4.82328
G1 X62.708 Y44.559 E4.89592
G1 X62.694 Y45.764 E5.03118
G1 X62.647 Y46.406 E5.10350
G1 X62.571 Y47.048 E5.17604
G1 X62.355 Y48.231 E5.31100
G1 X62.201 Y48.854 E5.38308
G1 X62.017 Y49.475 E5.45581
G1 X61.603 Y50.608 E5.59122
G1 X61.344 Y51.201 E5.66385
G1 X61.058 Y51.781 E5.73647
G1 X60.748 Y52.349 E5.80909
G1 X60.414 Y52.899 E5.88135
G1 X59.724 Y53.891 E6.01704
G1 X59.325 Y54.395 E6.08912
G1 X58.900 Y54.884 E6.16181
G1 X58.454 Y55.355 E6.23474
G1 X57.991 Y55.802 E6.30694
G1 X57.072 Y56.584 E6.44237
G1 X56.557 Y56.970 E6.51470
G1 X56.026 Y57.332 E6.58680
G1 X54.989 Y57.949 E6.72226
G1 X54.415 Y58.242 E6.79461
G1 X53.825 Y58.512 E6.86741
G1 X52.702 Y58.943 E7.00248
G1 X52.085 Y59.136 E7.07505
G1 X51.460 Y59.302 E7.14764
G1 X50.278 Y59.537 E7.28297
G1 X49.640 Y59.622 E7.35515
G1 X48.994 Y59.680 E7.42793
G1 X47.794 Y59.713 E7.56274
G1 X47.147 Y59.689 E7.63542
G1 X46.505 Y59.638 E7.70773
G1 X45.311 Y59.466 E7.84312
G1 X44.681 Y59.335 E7.91535
G1 X44.052 Y59.175 E7.98823
G1 X43.433 Y58.987 E8.06084
G1 X42.824 Y58.774 E8.13328
G1 X41.715 Y58.305 E8.26843
G1 X41.137 Y58.015 E8.34106
G1 X40.573 Y57.702 E8.41351
G1 X39.559 Y57.052 E8.54867
G1 X39.040 Y56.672 E8.62086
G1 X38.534 Y56.265 E8.69375
G1 X37.643 Y55.452 E8.82920
G1 X37.198 Y54.991 E8.90111
G1 X36.767 Y54.504 E8.97406
G1 X36.363 Y54.005 E9.04613
G1 X35.977 Y53.482 E9.11912
G1 X35.323 Y52.470 E9.25444
G1 X35.009 Y51.910 E9.32654
G1 X34.717 Y51.330 E9.39942
G1 X34.245 Y50.225 E9.53424
G1 X34.029 Y49.616 E9.60685
G1 X33.839 Y48.998 E9.67938
G1 X33.677 Y48.371 E9.75212
G1 X33.543 Y47.740 E9.82453
G1 X33.367 Y46.547 E9.95989
G1 X33.314 Y45.903 E10.03248
G1 X33.288 Y45.258 E10.10493
G1 X33.316 Y44.055 E10.23994
G1 X33.372 Y43.410 E10.31269
G1 X33.450 Y42.810 E10.38056
G1 X33.551 Y42.222 E10.44758
G1 X33.687 Y41.589 E10.52026
G1 X33.850 Y40.964 E10.59279
G1 X34.041 Y40.346 E10.66537
G1 X34.259 Y39.737 E10.73803
G1 X34.489 Y39.173 E10.80639
G1 X34.756 Y38.588 E10.87850
G1 X35.028 Y38.056 E10.94563
G1 X35.346 Y37.492 E11.01833
G1 X35.667 Y36.975 E11.08656
G1 X36.030 Y36.443 E11.15896
G1 X36.386 Y35.965 E11.22582
G1 X36.795 Y35.463 E11.29855
G1 X37.220 Y34.985 E11.37034
G1 F1800.000 E10.37034
G92 E0
G1 X50.880 Y47.671 F7800.000
G1 E1.00000 F1800.000
G1 X50.541 Y47.996 E1.05268 F768.903
G1 X50.143 Y48.292 E1.10842
G1 X49.717 Y48.533 E1.16335
G1 X49.259 Y48.721 E1.21887
G1 X48.782 Y48.850 E1.27433
G1 X48.315 Y48.916 E1.32731
G1 X47.827 Y48.925 E1.38214
G1 X47.338 Y48.872 E1.43734
G1 X46.879 Y48.765 E1.49021
G1 X46.417 Y48.595 E1.54546
G1 X45.980 Y48.369 E1.60077
G1 X45.573 Y48.089 E1.65619
G1 X45.206 Y47.761 E1.71143
G1 X44.892 Y47.403 E1.76490
G1 X44.617 Y46.996 E1.82004
G1 X44.394 Y46.558 E1.87518
G1 X44.227 Y46.095 E1.93048
G1 X44.120 Y45.615 E1.98573
G1 X44.074 Y45.144 E2.03882
G1 X44.087 Y44.654 E2.09387
G1 X44.161 Y44.169 E2.14888
G1 X44.295 Y43.695 E2.20420
G1 X44.487 Y43.241 E2.25951
G1 X44.724 Y42.832 E2.31257
G1 X45.004 Y42.459 E2.36498
G1 X45.346 Y42.104 E2.42024
G1 X45.728 Y41.795 E2.47546
G1 X46.150 Y41.535 E2.53109
G1 X46.579 Y41.338 E2.58411
G1 X47.044 Y41.190 E2.63884
G1 X47.533 Y41.100 E2.69470
G1 X48.015 Y41.072 E2.74895
G1 X48.589 Y41.116 E2.81349 F768.903
G1 X49.163 Y41.248 E2.87964
G1 X49.696 Y41.457 E2.94395
G1 X50.187 Y41.737 E3.00743
G1 X50.633 Y42.085 E3.07087
G1 X51.026 Y42.495 E3.13466
G1 X51.330 Y42.916 E3.19293
G1 X51.678 Y43.540 E3.27314
G1 X51.678 Y46.460 E3.60099
G1 X51.289 Y47.148 E3.68965
G1 X50.921 Y47.627 E3.75755
G1 X50.357 Y47.186 F7800.000
G1 X50.079 Y47.451 E3.80063 F768.903
G1 X49.754 Y47.693 E3.84620
G1 X49.405 Y47.891 E3.89121
G1 X49.031 Y48.044 E3.93661
G1 X48.641 Y48.150 E3.98196
G1 X48.259 Y48.204 E4.02527
G1 X47.858 Y48.211 E4.07021
G1 X47.458 Y48.168 E4.11542
G1 X47.083 Y48.081 E4.15863
G1 X46.705 Y47.942 E4.20386
G1 X46.347 Y47.756 E4.24913
G1 X46.014 Y47.527 E4.29446
G1 X45.714 Y47.259 E4.33969
G1 X45.460 Y46.970 E4.38282
G1 X45.243 Y46.652 E4.42604
G1 X45.057 Y46.292 E4.47160
G1 X44.919 Y45.914 E4.51672
G1 X44.829 Y45.522 E4.56186
G1 X44.788 Y45.123 E4.60692
G1 X44.797 Y44.737 E4.65029
G1 X44.854 Y44.341 E4.69520
G1 X44.962 Y43.952 E4.74051
G1 X45.117 Y43.579 E4.78584
G1 X45.309 Y43.242 E4.82938
G1 X45.549 Y42.921 E4.87442
G1 X45.828 Y42.630 E4.91965
G1 X46.127 Y42.388 E4.96281
G1 X46.469 Y42.174 E5.00814
G1 X46.837 Y42.004 E5.05363
G1 X47.218 Y41.882 E5.09854
G1 X47.598 Y41.811 E5.14192
G1 X47.998 Y41.786 E5.18686
G1 X48.462 Y41.819 E5.23914 F768.903
G1 X48.914 Y41.919 E5.29112
G1 X49.351 Y42.083 E5.34347
G1 X49.758 Y42.309 E5.39574
G1 X50.126 Y42.589 E5.44768
G1 X50.450 Y42.920 E5.49969
G1 X50.702 Y43.259 E5.54708
G1 X50.964 Y43.722 E5.60680
G1 X50.964 Y46.278 E5.89374
G1 X50.691 Y46.757 E5.95561
G1 X50.397 Y47.141 E6.00996
G1 X49.833 Y46.700 F7800.000
G1 X49.618 Y46.906 E6.04346 F600.000
G1 X49.365 Y47.095 E6.07884
G1 X49.093 Y47.249 E6.11393
G1 X48.802 Y47.368 E6.14921
G1 X48.499 Y47.450 E6.18447
G1 X48.202 Y47.492 E6.21808
G1 X47.890 Y47.498 E6.25315
G1 X47.578 Y47.464 E6.28836
G1 X47.287 Y47.396 E6.32190
G1 X46.993 Y47.288 E6.35711
G1 X46.714 Y47.144 E6.39235
G1 X46.455 Y46.966 E6.42759
G1 X46.221 Y46.757 E6.46281
G1 X46.023 Y46.531 E6.49654
G1 X45.847 Y46.271 E6.53173
G1 X45.705 Y45.993 E6.56685
G1 X45.599 Y45.697 E6.60209
G1 X45.531 Y45.391 E6.63730
G1 X45.502 Y45.093 E6.67095
G1 X45.510 Y44.780 E6.70607
G1 X45.557 Y44.471 E6.74118
G1 X45.642 Y44.168 E6.77646
G1 X45.765 Y43.880 E6.81170
G1 X45.915 Y43.621 E6.84528
G1 X46.094 Y43.382 E6.87871
G1 X46.311 Y43.157 E6.91393
G1 X46.555 Y42.960 E6.94914
G1 X46.823 Y42.794 E6.98443
G1 X47.095 Y42.670 E7.01800
G1 X47.393 Y42.575 E7.05311
G1 X47.702 Y42.518 E7.08846
G1 X48.013 Y42.500 E7.12340
G1 X48.360 Y42.526 E7.16241 F600.000
G1 X48.697 Y42.599 E7.20117
G1 X49.022 Y42.718 E7.23997
G1 X49.326 Y42.881 E7.27872
G1 X49.606 Y43.084 E7.31751
G1 X49.854 Y43.323 E7.35625
G1 X50.068 Y43.595 E7.39501
G1 X50.250 Y43.904 E7.43533
G1 X50.250 Y46.096 E7.68137
G1 X50.076 Y46.394 E7.72010
G1 X49.873 Y46.655 E7.75725
G1 F1800.000 E6.75725
G92 E0
G1 X47.974 Y42.155 F7800.000
G1 X52.533 Y49.188 F7800.000
G1 E1.00000 F1800.000
G1 X51.993 Y49.706 E1.08401 F768.903
G1 X51.372 Y50.169 E1.17102
G1 X50.698 Y50.551 E1.25802
G1 X49.981 Y50.845 E1.34499
G1 X49.270 Y51.040 E1.42769
G1 X48.503 Y51.151 E1.51470
G1 X47.729 Y51.166 E1.60169
G1 X46.958 Y51.083 E1.68867
G1 X46.204 Y50.904 E1.77571
G1 X45.513 Y50.649 E1.85835
G1 X44.825 Y50.292 E1.94535
G1 X44.187 Y49.853 E2.03236
G1 X43.609 Y49.336 E2.11938
G1 X43.123 Y48.782 E2.20206
G1 X42.688 Y48.142 E2.28904
G1 X42.336 Y47.451 E2.37607
G1 X42.073 Y46.722 E2.46303
G1 X41.904 Y45.966 E2.55004
G1 X41.833 Y45.232 E2.63273
G1 X41.852 Y44.458 E2.71973
G1 X41.961 Y43.729 E2.80240
G1 X42.167 Y42.982 E2.88940
G1 X42.466 Y42.267 E2.97641
G1 X42.852 Y41.595 E3.06340
G1 X43.294 Y41.007 E3.14604
G1 X43.832 Y40.448 E3.23306
G1 X44.436 Y39.962 E3.32011
G1 X45.094 Y39.555 E3.40701
G1 X45.801 Y39.233 E3.49413
G1 X46.540 Y39.003 E3.58107
G1 X47.304 Y38.868 E3.66812
G1 X48.039 Y38.828 E3.75079
G1 X48.504 Y38.849 E3.80301 F768.903
G1 X48.927 Y38.898 E3.85083
G1 X49.346 Y38.977 E3.89872
G1 X49.796 Y39.096 E3.95097
G1 X50.236 Y39.247 E4.00315
G1 X50.628 Y39.416 E4.05102
G1 X51.041 Y39.629 E4.10327
G1 X51.405 Y39.852 E4.15117
G1 X51.783 Y40.123 E4.20338
G1 X52.110 Y40.396 E4.25125
G1 X52.419 Y40.691 E4.29914
G1 X52.705 Y41.006 E4.34699
G1 X52.993 Y41.372 E4.39924
G1 X53.232 Y41.726 E4.44714
G1 X53.463 Y42.129 E4.49934
G1 X53.649 Y42.514 E4.54722
G1 X53.807 Y42.910 E4.59510
G1 X53.948 Y43.353 E4.64730
G1 X54.047 Y43.767 E4.69516
G1 X54.123 Y44.227 E4.74743
G1 X54.164 Y44.690 E4.79962
G1 X54.171 Y45.116 E4.84750
G1 X54.144 Y45.581 E4.89973
G1 X54.089 Y46.004 E4.94764
G1 X54.006 Y46.422 E4.99546
G1 X53.881 Y46.870 E5.04773
G1 X53.738 Y47.272 E5.09559
G1 X53.551 Y47.698 E5.14778
G1 X53.351 Y48.075 E5.19567
G1 X53.105 Y48.469 E5.24789
G1 X52.853 Y48.813 E5.29578
G1 X52.574 Y49.143 E5.34429
G1 X53.059 Y49.672 F7800.000
G1 X52.776 Y49.960 E5.38960 F768.903
G1 X52.455 Y50.250 E5.43817
G1 X52.117 Y50.519 E5.48671
G1 X51.762 Y50.767 E5.53530
G1 X51.049 Y51.174 E5.62752
G1 X50.655 Y51.353 E5.67609
G1 X50.251 Y51.508 E5.72465
G1 X49.838 Y51.636 E5.77317
G1 X49.417 Y51.738 E5.82176
G1 X48.991 Y51.814 E5.87032
G1 X48.562 Y51.863 E5.91890
G1 X47.741 Y51.881 E6.01108
G1 X47.309 Y51.851 E6.05967
G1 X46.880 Y51.794 E6.10821
G1 X46.079 Y51.613 E6.20041
G1 X45.667 Y51.479 E6.24901
G1 X45.265 Y51.320 E6.29756
G1 X44.874 Y51.135 E6.34611
G1 X44.495 Y50.927 E6.39468
G1 X44.129 Y50.695 E6.44326
G1 X43.780 Y50.441 E6.49181
G1 X43.162 Y49.899 E6.58404
G1 X42.864 Y49.586 E6.63260
G1 X42.586 Y49.254 E6.68118
G1 X42.329 Y48.906 E6.72971
G1 X42.095 Y48.542 E6.77829
G1 X41.884 Y48.165 E6.82683
G1 X41.698 Y47.775 E6.87536
G1 X41.412 Y47.004 E6.96761
G1 X41.299 Y46.586 E7.01621
G1 X41.213 Y46.163 E7.06472
G1 X41.153 Y45.734 E7.11330
G1 X41.121 Y45.302 E7.16189
G1 X41.115 Y44.870 E7.21041
G1 X41.137 Y44.438 E7.25900
G1 X41.186 Y44.009 E7.30752
G1 X41.262 Y43.582 E7.35613
G1 X41.478 Y42.790 E7.44831
G1 X41.630 Y42.385 E7.49689
G1 X41.807 Y41.990 E7.54545
G1 X42.210 Y41.274 E7.63772
G1 X42.694 Y40.611 E7.72989
G1 X42.980 Y40.287 E7.77843
G1 X43.286 Y39.981 E7.82697
G1 X43.611 Y39.694 E7.87558
G1 X43.953 Y39.429 E7.92417
G1 X44.310 Y39.186 E7.97266
G1 X44.682 Y38.966 E8.02123
G1 X45.068 Y38.770 E8.06981
G1 X45.465 Y38.598 E8.11839
G1 X46.246 Y38.341 E8.21064
G1 X46.668 Y38.244 E8.25923
G1 X47.094 Y38.174 E8.30777
G1 X47.524 Y38.131 E8.35625
G1 X47.957 Y38.114 E8.40488
G1 X48.433 Y38.128 E8.45830 F768.903
G1 X48.949 Y38.180 E8.51653
G1 X49.418 Y38.262 E8.56999
G1 X49.921 Y38.388 E8.62825
G1 X50.414 Y38.551 E8.68652
G1 X50.854 Y38.733 E8.73998
G1 X51.280 Y38.945 E8.79336
G1 X51.726 Y39.210 E8.85164
G1 X52.151 Y39.506 E8.90984
G1 X52.521 Y39.806 E8.96327
G1 X52.899 Y40.161 E9.02151
G1 X53.222 Y40.512 E9.07498
G1 X53.519 Y40.883 E9.12837
G1 X53.814 Y41.310 E9.18661
G1 X54.055 Y41.721 E9.24006
G1 X54.285 Y42.186 E9.29831
G1 X54.479 Y42.668 E9.35662
G1 X54.624 Y43.121 E9.41002
G1 X54.738 Y43.583 E9.46343
G1 X54.826 Y44.094 E9.52167
G1 X54.875 Y44.611 E9.57995
G1 X54.885 Y45.086 E9.63337
G1 X54.863 Y45.562 E9.68678
G1 X54.801 Y46.077 E9.74506
G1 X54.701 Y46.586 E9.80332
G1 X54.575 Y47.045 E9.85673
G1 X54.418 Y47.495 E9.91017
G1 X54.212 Y47.971 E9.96841
G1 X53.971 Y48.430 E10.02668
G1 X53.719 Y48.835 E10.08014
G1 X53.414 Y49.254 E10.13838
G1 X53.099 Y49.627 E10.19318
G1 X53.584 Y50.155 F7800.000
G1 X53.272 Y50.474 E10.24328 F600.000
G1 X52.918 Y50.795 E10.29688
G1 X52.544 Y51.092 E10.35046
G1 X52.153 Y51.365 E10.40408
G1 X51.745 Y51.613 E10.45766
G1 X51.322 Y51.835 E10.51127
G1 X50.886 Y52.031 E10.56487
G1 X50.439 Y52.198 E10.61845
G1 X49.982 Y52.337 E10.67205
G1 X49.518 Y52.447 E10.72565
G1 X49.047 Y52.528 E10.77925
G1 X48.619 Y52.575 E10.82764
G1 X48.143 Y52.599 E10.88109
G1 X47.666 Y52.593 E10.93468
G1 X47.301 Y52.572 E10.97575
G1 X46.717 Y52.491 E11.04191
G1 X46.249 Y52.396 E11.09552
G1 X45.788 Y52.271 E11.14910
G1 X45.336 Y52.118 E11.20271
G1 X44.937 Y51.955 E11.25107
G1 X44.507 Y51.750 E11.30453
G1 X44.090 Y51.517 E11.35813
G1 X43.689 Y51.259 E11.41172
G1 X43.304 Y50.976 E11.46532
G1 X42.938 Y50.669 E11.51891
G1 X42.592 Y50.340 E11.57252
G1 X42.268 Y49.990 E11.62612
G1 X41.994 Y49.657 E11.67451
G1 X41.714 Y49.272 E11.72796
G1 X41.458 Y48.869 E11.78155
G1 X41.228 Y48.450 E11.83513
G1 X41.025 Y48.018 E11.88877
G1 X40.849 Y47.574 E11.94234
G1 X40.702 Y47.120 E11.99592
G1 X40.583 Y46.658 E12.04953
G1 X40.494 Y46.189 E12.10312
G1 X40.438 Y45.763 E12.15136
G1 X40.399 Y45.240 E12.21021
G1 X40.429 Y44.332 E12.31218
G1 X40.479 Y43.906 E12.36040
G1 X40.563 Y43.435 E12.41402
G1 X40.676 Y42.972 E12.46759
G1 X40.818 Y42.516 E12.52121
G1 X40.988 Y42.070 E12.57477
G1 X41.186 Y41.635 E12.62840
G1 X41.410 Y41.214 E12.68201
G1 X41.661 Y40.808 E12.73558
G1 X41.936 Y40.419 E12.78904
G1 X42.205 Y40.082 E12.83742
G1 X42.526 Y39.728 E12.89103
G1 X42.868 Y39.395 E12.94462
G1 X43.230 Y39.084 E12.99822
G1 X43.611 Y38.796 E13.05183
G1 X44.009 Y38.532 E13.10541
G1 X44.422 Y38.295 E13.15898
G1 X44.807 Y38.103 E13.20725
G1 X45.247 Y37.916 E13.26086
G1 X45.697 Y37.757 E13.31443
G1 X46.156 Y37.627 E13.36802
G1 X46.623 Y37.526 E13.42164
G1 X47.095 Y37.454 E13.47524
G1 X47.570 Y37.412 E13.52882
G1 X48.047 Y37.400 E13.58229
G1 X48.573 Y37.422 E13.64140 F600.000
G1 X49.142 Y37.486 E13.70569
G1 X49.658 Y37.583 E13.76465
G1 X50.212 Y37.729 E13.82897
G1 X50.752 Y37.916 E13.89312
G1 X51.236 Y38.123 E13.95221
G1 X51.744 Y38.386 E14.01640
G1 X52.192 Y38.661 E14.07549
G1 X52.657 Y38.994 E14.13966
G1 X53.061 Y39.330 E14.19862
G1 X53.441 Y39.694 E14.25773
G1 X53.795 Y40.082 E14.31666
G1 X54.149 Y40.533 E14.38099
G1 X54.442 Y40.968 E14.43995
G1 X54.728 Y41.465 E14.50425
G1 X54.956 Y41.938 E14.56321
G1 X55.151 Y42.426 E14.62218
G1 X55.324 Y42.972 E14.68647
G1 X55.447 Y43.482 E14.74542
G1 X55.540 Y44.048 E14.80975
G1 X55.590 Y44.617 E14.87391
G1 X55.599 Y45.143 E14.93300
G1 X55.566 Y45.715 E14.99731
G1 X55.499 Y46.236 E15.05629
G1 X55.396 Y46.751 E15.11522
G1 X55.243 Y47.303 E15.17955
G1 X55.066 Y47.799 E15.23864
G1 X54.836 Y48.322 E15.30280
G1 X54.590 Y48.786 E15.36175
G1 X54.286 Y49.272 E15.42607
G1 X53.976 Y49.696 E15.48503
G1 X53.624 Y50.111 E15.54611
G1 X48.415 Y37.556 F7800.000
G1 X51.702 Y40.707 F7800.000
G1 X52.288 Y41.293 E15.63917 F768.903
G1 X52.050 Y43.187 F7800.000
G1 X53.663 Y44.800 E15.89529 F768.903
G1 X53.609 Y45.812 E16.00906
G1 X52.176 Y44.379 E16.23654
G1 X52.176 Y45.445 E16.35620
G1 X53.416 Y46.685 E16.55299
G1 X53.111 Y47.446 E16.64505
G1 X52.176 Y46.511 E16.79347
G1 X51.822 Y47.223 E16.88274
G1 X52.728 Y48.129 E17.02660
G1 X52.264 Y48.731 E17.11191
G1 X51.384 Y47.851 E17.25162
G1 X50.847 Y48.380 E17.33623
G1 X51.731 Y49.264 E17.47659
G1 X51.132 Y49.731 E17.56185
G1 X50.219 Y48.817 E17.70682
G1 X49.492 Y49.157 E17.79684
G1 X50.447 Y50.112 E17.94842
G1 X49.684 Y50.414 E18.04061
G1 X48.648 Y49.379 E18.20501
G1 X47.610 Y49.407 E18.32154
G1 X48.812 Y50.609 E18.51228
G1 X47.801 Y50.664 E18.62591
G1 X46.157 Y49.020 E18.88698
G1 X46.550 Y50.479 E19.05663
G1 X42.522 Y46.450 E19.69616
G1 X42.333 Y45.196 E19.83852
G1 X43.980 Y46.843 E20.09997
