; generated by Slic3r 1.1.7 on 2014-10-07 at 19:06:34

; perimeters extrusion width = 0.40mm
; infill extrusion width = 0.42mm
; solid infill extrusion width = 0.42mm
; top infill extrusion width = 0.42mm
; support material extrusion width = 0.40mm

G21 ; set units to millimeters
M107
M104 S195 ; set temperature
G28 ; home all axes
G1 Z5 F5000 ; lift nozzle
M109 S195 ; wait for temperature to be reached
G90 ; use absolute coordinates
G92 E0
M82 ; use absolute distances for extrusion
G1 F1800.000 E-1.00000
G92 E0
G1 Z0.300 F7800.000
G1 X25.993 Y32.143 F7800.000
G1 E1.00000 F1800.000
G1 X28.161 Y31.306 E1.10958 F2100.000
G1 X29.493 Y31.174 E1.17269
G1 X66.493 Y31.174 E2.91750
G1 X68.782 Y31.571 E3.02708
G1 X70.804 Y32.716 E3.13667 F2100.000
G1 X72.323 Y34.475 E3.24625
G1 X73.161 Y36.642 E3.35583
G1 X73.293 Y37.965 E3.41853
G1 X73.307 Y52.026 E4.08160
G1 X72.910 Y54.316 E4.19119
G1 X71.766 Y56.338 E4.30077
G1 X70.007 Y57.857 E4.41035
G1 X67.839 Y58.694 E4.51994
G1 X66.507 Y58.826 E4.58304
G1 X29.507 Y58.826 E6.32785
G1 X27.218 Y58.429 E6.43744
G1 X25.196 Y57.284 E6.54702
G1 X23.677 Y55.525 E6.65660
G1 X22.839 Y53.358 E6.76619
G1 X22.707 Y52.035 E6.82888
G1 X22.693 Y37.974 E7.49196
G1 X23.090 Y35.684 E7.60154
G1 X24.234 Y33.662 E7.71112
G1 X25.948 Y32.183 E7.81788
G1 X26.265 Y32.475 F7800.000
G1 X26.375 Y32.384 E7.82462 F2100.000
G1 X29.493 Y31.574 E7.97651
G1 X66.493 Y31.574 E9.72132
G1 X68.711 Y31.971 E9.82761
G1 X70.655 Y33.112 E9.93389 F2100.000
G1 X72.082 Y34.857 E10.04018
G1 X72.893 Y37.966 E10.19170
G1 X72.907 Y52.026 E10.85475
G1 X72.511 Y54.245 E10.96103
G1 X71.369 Y56.188 E11.06732
G1 X69.625 Y57.616 E11.17361
G1 X66.507 Y58.426 E11.32550
G1 X29.507 Y58.426 E13.07031
G1 X27.289 Y58.029 E13.17660
G1 X25.345 Y56.888 E13.28288
G1 X23.918 Y55.143 E13.38917
G1 X23.107 Y52.034 E13.54069
G1 X23.093 Y37.974 E14.20374
G1 X23.489 Y35.755 E14.31002
G1 X24.631 Y33.812 E14.41631
G1 X26.218 Y32.513 E14.51303
G1 F1800.000 E13.51303
G92 E0
G1 X65.507 Y51.026 F7800.000
G1 E1.00000 F1800.000
G1 X30.507 Y51.026 E2.65050 F2520.000
G1 X30.507 Y50.526 E2.67407
G1 X65.507 Y50.526 E4.32457
G1 X65.507 Y50.966 E4.34532
G1 X65.907 Y51.426 F7800.000
G1 X30.107 Y51.426 E6.03354 F2520.000
G1 X30.107 Y50.126 E6.09484
G1 X65.907 Y50.126 E7.78307
G1 X65.907 Y51.366 E7.84154
G1 X66.307 Y51.826 F7800.000
G1 X29.707 Y51.826 E9.56749 F1512.000
G1 X29.707 Y49.726 E9.66652
G1 X66.307 Y49.726 E11.39246
G1 X66.307 Y51.766 E11.48866
G1 X65.961 Y51.626 F7800.000
G1 F1800.000 E10.48866
G92 E0
G1 X65.493 Y39.474 F7800.000
G1 E1.00000 F1800.000
G1 X30.493 Y39.474 E2.65050 F2520.000
G1 X30.493 Y38.974 E2.67407
G1 X65.493 Y38.974 E4.32457
G1 X65.493 Y39.414 E4.34532
G1 X65.893 Y39.874 F7800.000
G1 X30.093 Y39.874 E6.03354 F2520.000
G1 X30.093 Y38.574 E6.09484
G1 X65.893 Y38.574 E7.78307
G1 X65.893 Y39.814 E7.84154
G1 X66.293 Y40.274 F7800.000
G1 X29.693 Y40.274 E9.56749 F1512.000
G1 X29.693 Y38.174 E9.66652
G1 X66.293 Y38.174 E11.39247
G1 X66.293 Y40.214 E11.48867
G1 X65.946 Y40.074 F7800.000
M106 S255
G1 F1800.000 E10.48867
G92 E0
G1 Z0.600 F7800.000
G1 X65.507 Y51.026 F7800.000
G1 E1.00000 F1800.000
G1 X30.507 Y51.026 E2.65050 F1643.880
G1 X30.507 Y50.526 E2.67407
G1 X65.507 Y50.526 E4.32457
G1 X65.507 Y50.966 E4.34532
G1 X65.907 Y51.426 F7800.000
G1 X30.107 Y51.426 E6.03354 F1643.880
G1 X30.107 Y50.126 E6.09484
G1 X65.907 Y50.126 E7.78307
G1 X65.907 Y51.366 E7.84154
G1 X66.307 Y51.826 F7800.000
G1 X29.707 Y51.826 E9.56749 F986.328
G1 X29.707 Y49.726 E9.66652
G1 X66.307 Y49.726 E11.39246
G1 X66.307 Y51.766 E11.48866
G1 X65.961 Y51.626 F7800.000
G1 F1800.000 E10.48866
G92 E0
G1 X65.493 Y39.474 F7800.000
G1 E1.00000 F1800.000
G1 X30.493 Y39.474 E2.65050 F1643.880
G1 X30.493 Y38.974 E2.67407
G1 X65.493 Y38.974 E4.32457
G1 X65.493 Y39.414 E4.34532
G1 X65.893 Y39.874 F7800.000
G1 X30.093 Y39.874 E6.03354 F1643.880
G1 X30.093 Y38.574 E6.09484
G1 X65.893 Y38.574 E7.78307
G1 X65.893 Y39.814 E7.84154
G1 X66.293 Y40.274 F7800.000
G1 X29.693 Y40.274 E9.56749 F986.328
G1 X29.693 Y38.174 E9.66652
G1 X66.293 Y38.174 E11.39247
G1 X66.293 Y40.214 E11.48867
G1 X65.946 Y40.074 F7800.000
G1 F1800.000 E10.48867
G92 E0
G1 Z0.900 F7800.000
G1 X65.507 Y51.026 F7800.000
G1 E1.00000 F1800.000
G1 X30.507 Y51.026 E2.65050 F1643.880
G1 X30.507 Y50.526 E2.67407
G1 X65.507 Y50.526 E4.32457
G1 X65.507 Y50.966 E4.34532
G1 X65.907 Y51.426 F7800.000
G1 X30.107 Y51.426 E6.03354 F1643.880
G1 X30.107 Y50.126 E6.09484
G1 X65.907 Y50.126 E7.78307
G1 X65.907 Y51.366 E7.84154
G1 X66.307 Y51.826 F7800.000
G1 X29.707 Y51.826 E9.56749 F986.328
G1 X29.707 Y49.726 E9.66652
G1 X66.307 Y49.726 E11.39246
G1 X66.307 Y51.766 E11.48866
G1 X65.961 Y51.626 F7800.000
G1 F1800.000 E10.48866
G92 E0
G1 X65.493 Y39.474 F7800.000
G1 E1.00000 F1800.000
G1 X30.493 Y39.474 E2.65050 F1643.880
G1 X30.493 Y38.974 E2.67407
G1 X65.493 Y38.974 E4.32457
G1 X65.493 Y39.414 E4.34532
G1 X65.893 Y39.874 F7800.000
G1 X30.093 Y39.874 E6.03354 F1643.880
G1 X30.093 Y38.574 E6.09484
G1 X65.893 Y38.574 E7.78307
G1 X65.893 Y39.814 E7.84154
G1 X66.293 Y40.274 F7800.000
G1 X29.693 Y40.274 E9.56749 F986.328
G1 X29.693 Y38.174 E9.66652
G1 X66.293 Y38.174 E11.39247
G1 X66.293 Y40.214 E11.48867
G1 X65.946 Y40.074 F7800.000
G1 F1800.000 E10.48867
G92 E0
G1 Z1.200 F7800.000
G1 X65.507 Y51.026 F7800.000
G1 E1.00000 F1800.000
G1 X30.507 Y51.026 E2.65050 F1643.880
G1 X30.507 Y50.526 E2.67407
G1 X65.507 Y50.526 E4.32457
G1 X65.507 Y50.966 E4.34532
G1 X65.907 Y51.426 F7800.000
G1 X30.107 Y51.426 E6.03354 F1643.880
G1 X30.107 Y50.126 E6.09484
G1 X65.907 Y50.126 E7.78307
G1 X65.907 Y51.366 E7.84154
G1 X66.307 Y51.826 F7800.000
G1 X29.707 Y51.826 E9.56749 F986.328
G1 X29.707 Y49.726 E9.66652
G1 X66.307 Y49.726 E11.39246
G1 X66.307 Y51.766 E11.48866
G1 X65.961 Y51.626 F7800.000
G1 F1800.000 E10.48866
G92 E0
G1 X65.493 Y39.474 F7800.000
G1 E1.00000 F1800.000
G1 X30.493 Y39.474 E2.65050 F1643.880
G1 X30.493 Y38.974 E2.67407
G1 X65.493 Y38.974 E4.32457
G1 X65.493 Y39.414 E4.34532
G1 X65.893 Y39.874 F7800.000
G1 X30.093 Y39.874 E6.03354 F1643.880
G1 X30.093 Y38.574 E6.09484
G1 X65.893 Y38.574 E7.78307
G1 X65.893 Y39.814 E7.84154
G1 X66.293 Y40.274 F7800.000
G1 X29.693 Y40.274 E9.56749 F986.328
G1 X29.693 Y38.174 E9.66652
G1 X66.293 Y38.174 E11.39247
G1 X66.293 Y40.214 E11.48867
G1 X65.946 Y40.074 F7800.000
G1 F1800.000 E10.48867
G92 E0
G1 Z1.500 F7800.000
G1 X65.507 Y51.026 F7800.000
G1 E1.00000 F1800.000
G1 X30.507 Y51.026 E2.65050 F1643.880
G1 X30.507 Y50.526 E2.67407
G1 X65.507 Y50.526 E4.32457
G1 X65.507 Y50.966 E4.34532
G1 X65.907 Y51.426 F7800.000
G1 X30.107 Y51.426 E6.03354 F1643.880
G1 X30.107 Y50.126 E6.09484
G1 X65.907 Y50.126 E7.78307
G1 X65.907 Y51.366 E7.84154
G1 X66.307 Y51.826 F7800.000
G1 X29.707 Y51.826 E9.56749 F986.328
G1 X29.707 Y49.726 E9.66652
G1 X66.307 Y49.726 E11.39246
G1 X66.307 Y51.766 E11.48866
G1 X65.961 Y51.626 F7800.000
G1 F1800.000 E10.48866
G92 E0
G1 X65.493 Y39.474 F7800.000
G1 E1.00000 F1800.000
G1 X30.493 Y39.474 E2.65050 F1643.880
G1 X30.493 Y38.974 E2.67407
G1 X65.493 Y38.974 E4.32457
G1 X65.493 Y39.414 E4.34532
G1 X65.893 Y39.874 F7800.000
G1 X30.093 Y39.874 E6.03354 F1643.880
G1 X30.093 Y38.574 E6.09484
G1 X65.893 Y38.574 E7.78307
G1 X65.893 Y39.814 E7.84154
G1 X66.293 Y40.274 F7800.000
G1 X29.693 Y40.274 E9.56749 F986.328
G1 X29.693 Y38.174 E9.66652
G1 X66.293 Y38.174 E11.39247
G1 X66.293 Y40.214 E11.48867
G1 X65.946 Y40.074 F7800.000
G1 F1800.000 E10.48867
G92 E0
G1 Z1.800 F7800.000
G1 X65.507 Y51.026 F7800.000
G1 E1.00000 F1800.000
G1 X65.015 Y51.026 E1.02323 F1586.295
G1 X65.015 Y50.526 E1.04681
G1 X65.507 Y50.526 E1.07004
G1 X65.507 Y50.966 E1.09079
G1 X65.907 Y51.426 F7800.000
G1 X64.615 Y51.426 E1.15175 F1586.295
G1 X64.615 Y50.126 E1.21305
G1 X65.907 Y50.126 E1.27401
G1 X65.907 Y51.366 E1.33248
G1 X66.307 Y51.826 F7800.000
G1 X64.215 Y51.826 E1.43117 F951.777
G1 X64.215 Y49.726 E1.53020
G1 X66.307 Y49.726 E1.62888
G1 X66.307 Y51.766 E1.72508
G1 X65.961 Y51.626 F7800.000
G1 F1800.000 E0.72508
G92 E0
G1 X62.000 Y51.026 F7800.000
G1 E1.00000 F1800.000
G1 X61.056 Y51.026 E1.04452 F1586.295
G1 X61.056 Y50.526 E1.06810
G1 X62.000 Y50.526 E1.11262
G1 X62.000 Y50.966 E1.13336
G1 X62.400 Y51.426 F7800.000
G1 X60.656 Y51.426 E1.21561 F1586.295
G1 X60.656 Y50.126 E1.27691
G1 X62.400 Y50.126 E1.35916
G1 X62.400 Y51.366 E1.41763
G1 X62.800 Y51.826 F7800.000
G1 X60.256 Y51.826 E1.53760 F951.777
G1 X60.256 Y49.726 E1.63663
G1 X62.800 Y49.726 E1.75660
G1 X62.800 Y51.766 E1.85280
G1 X62.454 Y51.626 F7800.000
G1 F1800.000 E0.85280
G92 E0
G1 X58.259 Y51.026 F7800.000
G1 E1.00000 F1800.000
G1 X57.197 Y51.026 E1.05006 F1586.295
G1 X57.197 Y50.526 E1.07364
G1 X58.259 Y50.526 E1.12370
G1 X58.259 Y50.966 E1.14445
G1 X58.659 Y51.426 F7800.000
G1 X56.797 Y51.426 E1.23224 F1586.295
G1 X56.797 Y50.126 E1.29355
G1 X58.659 Y50.126 E1.38134
G1 X58.659 Y51.366 E1.43981
G1 X59.059 Y51.826 F7800.000
G1 X56.397 Y51.826 E1.56532 F951.777
G1 X56.397 Y49.726 E1.66435
G1 X59.059 Y49.726 E1.78987
G1 X59.059 Y51.766 E1.88607
G1 X58.712 Y51.626 F7800.000
G1 F1800.000 E0.88607
G92 E0
G1 X54.618 Y51.026 F7800.000
G1 E1.00000 F1800.000
G1 X30.507 Y51.026 E2.13697 F1586.295
G1 X30.507 Y50.526 E2.16054
G1 X54.618 Y50.526 E3.29751
G1 X54.618 Y50.966 E3.31826
G1 X55.018 Y51.426 F7800.000
G1 X30.107 Y51.426 E4.49295 F1586.295
G1 X30.107 Y50.126 E4.55426
G1 X55.018 Y50.126 E5.72895
G1 X55.018 Y51.366 E5.78742
G1 X55.418 Y51.826 F7800.000
G1 X29.707 Y51.826 E6.99984 F951.777
G1 X29.707 Y49.726 E7.09887
G1 X55.418 Y49.726 E8.31129
G1 X55.418 Y51.766 E8.40749
G1 X55.071 Y51.626 F7800.000
G1 F1800.000 E7.40749
G92 E0
G1 X65.493 Y39.474 F7800.000
G1 E1.00000 F1800.000
G1 X65.000 Y39.474 E1.02323 F1586.295
G1 X65.000 Y38.974 E1.04681
G1 X65.493 Y38.974 E1.07004
G1 X65.493 Y39.414 E1.09079
G1 X65.893 Y39.874 F7800.000
G1 X64.600 Y39.874 E1.15175 F1586.295
G1 X64.600 Y38.574 E1.21305
G1 X65.893 Y38.574 E1.27401
G1 X65.893 Y39.814 E1.33248
G1 X66.293 Y40.274 F7800.000
G1 X64.200 Y40.274 E1.43117 F951.777
G1 X64.200 Y38.174 E1.53020
G1 X66.293 Y38.174 E1.62888
G1 X66.293 Y40.214 E1.72508
G1 X65.946 Y40.074 F7800.000
G1 F1800.000 E0.72508
G92 E0
G1 X61.985 Y39.474 F7800.000
G1 E1.00000 F1800.000
G1 X61.041 Y39.474 E1.04452 F1586.295
G1 X61.041 Y38.974 E1.06810
G1 X61.985 Y38.974 E1.11262
G1 X61.985 Y39.414 E1.13336
G1 X62.385 Y39.874 F7800.000
G1 X60.641 Y39.874 E1.21561 F1586.295
G1 X60.641 Y38.574 E1.27691
G1 X62.385 Y38.574 E1.35916
G1 X62.385 Y39.814 E1.41763
G1 X62.785 Y40.274 F7800.000
G1 X60.241 Y40.274 E1.53760 F951.777
G1 X60.241 Y38.174 E1.63663
G1 X62.785 Y38.174 E1.75660
G1 X62.785 Y40.214 E1.85280
G1 X62.439 Y40.074 F7800.000
G1 F1800.000 E0.85280
G92 E0
G1 X58.244 Y39.474 F7800.000
G1 E1.00000 F1800.000
G1 X57.182 Y39.474 E1.05006 F1586.295
G1 X57.182 Y38.974 E1.07364
G1 X58.244 Y38.974 E1.12370
G1 X58.244 Y39.414 E1.14445
G1 X58.644 Y39.874 F7800.000
G1 X56.782 Y39.874 E1.23224 F1586.295
G1 X56.782 Y38.574 E1.29355
G1 X58.644 Y38.574 E1.38134
G1 X58.644 Y39.814 E1.43981
G1 X59.044 Y40.274 F7800.000
G1 X56.382 Y40.274 E1.56532 F951.777
G1 X56.382 Y38.174 E1.66435
G1 X59.044 Y38.174 E1.78987
G1 X59.044 Y40.214 E1.88607
G1 X58.698 Y40.074 F7800.000
G1 F1800.000 E0.88607
G92 E0
G1 X54.603 Y39.474 F7800.000
G1 E1.00000 F1800.000
G1 X30.493 Y39.474 E2.13697 F1586.295
G1 X30.493 Y38.974 E2.16054
G1 X54.603 Y38.974 E3.29751
G1 X54.603 Y39.414 E3.31826
G1 X55.003 Y39.874 F7800.000
G1 X30.093 Y39.874 E4.49295 F1586.295
G1 X30.093 Y38.574 E4.55426
G1 X55.003 Y38.574 E5.72895
G1 X55.003 Y39.814 E5.78742
G1 X55.403 Y40.274 F7800.000
G1 X29.693 Y40.274 E6.99984 F951.777
G1 X29.693 Y38.174 E7.09887
G1 X55.403 Y38.174 E8.31129
G1 X55.403 Y40.214 E8.40749
G1 X55.056 Y40.074 F7800.000
G1 F1800.000 E7.40749
G92 E0
G1 Z2.100 F7800.000
G1 X64.936 Y51.426 F7800.000
G1 E1.00000 F1800.000
G1 X64.936 Y50.126 E1.06130 F1353.551
G1 X65.907 Y50.126 E1.10713
G1 X65.907 Y51.426 E1.16843
G1 X64.996 Y51.426 E1.21143
G1 X64.536 Y51.826 F7800.000
G1 X64.536 Y49.726 E1.31046 F900.000
G1 X66.307 Y49.726 E1.39401
G1 X66.307 Y51.826 E1.49304
G1 X64.596 Y51.826 E1.57376
G1 X64.736 Y51.480 F7800.000
G1 X65.250 Y51.152 F7800.000
G1 X65.210 Y51.112 E1.57655 F1127.959
G1 X65.633 Y50.440 E1.61575
G1 X65.593 Y50.400 E1.61854
G1 F1800.000 E0.61854
G92 E0
G1 X62.079 Y51.426 F7800.000
G1 E1.00000 F1800.000
G1 X61.030 Y51.426 E1.04946 F1353.551
G1 X61.030 Y50.126 E1.11077
G1 X62.079 Y50.126 E1.16023
G1 X62.079 Y51.366 E1.21870
G1 X62.479 Y51.826 F7800.000
G1 X60.630 Y51.826 E1.30589 F900.000
G1 X60.630 Y49.726 E1.40492
G1 X62.479 Y49.726 E1.49210
G1 X62.479 Y51.766 E1.58830
G1 X62.133 Y51.626 F7800.000
G1 X61.345 Y51.152 F7800.000
G1 X61.305 Y51.112 E1.59110 F1127.959
G1 X61.805 Y50.440 E1.63245
G1 X61.765 Y50.400 E1.63525
G1 F1800.000 E0.63525
G92 E0
G1 X58.285 Y51.426 F7800.000
G1 E1.00000 F1800.000
G1 X57.215 Y51.426 E1.05046 F1353.551
G1 X57.215 Y50.126 E1.11176
G1 X58.285 Y50.126 E1.16222
G1 X58.285 Y51.366 E1.22070
G1 X58.685 Y51.826 F7800.000
G1 X56.815 Y51.826 E1.30888 F900.000
G1 X56.815 Y49.726 E1.40791
G1 X58.685 Y49.726 E1.49609
G1 X58.685 Y51.766 E1.59229
G1 X58.338 Y51.626 F7800.000
G1 X57.489 Y51.112 F7800.000
G1 X57.529 Y51.152 E1.59509 F1127.959
G1 X58.010 Y51.037 E1.61954
G1 X57.489 Y50.515 E1.65596
G1 X58.010 Y50.440 E1.68198
G1 X57.970 Y50.400 E1.68477
G1 F1800.000 E0.68477
G92 E0
G1 X54.600 Y51.426 F7800.000
G1 E1.00000 F1800.000
G1 X53.495 Y51.426 E1.05214 F1353.551
G1 X53.495 Y50.126 E1.11344
G1 X54.600 Y50.126 E1.16558
G1 X54.600 Y51.366 E1.22405
G1 X55.000 Y51.826 F7800.000
G1 X53.095 Y51.826 E1.31391 F900.000
G1 X53.095 Y49.726 E1.41294
G1 X55.000 Y49.726 E1.50280
G1 X55.000 Y51.766 E1.59900
G1 X54.654 Y51.626 F7800.000
G1 X53.769 Y51.112 F7800.000
G1 X53.809 Y51.152 E1.60180 F1127.959
G1 X54.326 Y51.055 E1.62778
G1 X53.769 Y50.498 E1.66669
G1 X54.326 Y50.440 E1.69434
G1 X54.286 Y50.400 E1.69714
G1 F1800.000 E0.69714
G92 E0
G1 X50.620 Y51.026 F7800.000
G1 E1.00000 F1800.000
G1 X50.275 Y51.026 E1.01628 F1353.551
G1 X50.275 Y50.526 E1.03986
G1 X50.620 Y50.526 E1.05614
G1 X50.620 Y50.966 E1.07689
G1 X51.020 Y51.426 F7800.000
G1 X49.875 Y51.426 E1.13090 F1353.551
G1 X49.875 Y50.126 E1.19220
G1 X51.020 Y50.126 E1.24621
G1 X51.020 Y51.366 E1.30469
G1 X51.420 Y51.826 F7800.000
G1 X49.475 Y51.826 E1.39642 F900.000
G1 X49.475 Y49.726 E1.49545
G1 X51.420 Y49.726 E1.58718
G1 X51.420 Y51.766 E1.68338
G1 X51.074 Y51.626 F7800.000
G1 F1800.000 E0.68338
G92 E0
G1 X47.140 Y51.026 F7800.000
G1 E1.00000 F1800.000
G1 X46.755 Y51.026 E1.01815 F1353.551
G1 X46.755 Y50.526 E1.04173
G1 X47.140 Y50.526 E1.05989
G1 X47.140 Y50.966 E1.08064
G1 X47.540 Y51.426 F7800.000
G1 X46.355 Y51.426 E1.13652 F1353.551
G1 X46.355 Y50.126 E1.19782
G1 X47.540 Y50.126 E1.25370
G1 X47.540 Y51.366 E1.31218
G1 X47.940 Y51.826 F7800.000
G1 X45.955 Y51.826 E1.40578 F900.000
G1 X45.955 Y49.726 E1.50481
G1 X47.940 Y49.726 E1.59842
G1 X47.940 Y51.766 E1.69462
G1 X47.594 Y51.626 F7800.000
G1 F1800.000 E0.69462
G92 E0
G1 X43.760 Y51.026 F7800.000
G1 E1.00000 F1800.000
G1 X43.335 Y51.026 E1.02003 F1353.551
G1 X43.335 Y50.526 E1.04361
G1 X43.760 Y50.526 E1.06363
G1 X43.760 Y50.966 E1.08438
G1 X44.160 Y51.426 F7800.000
G1 X42.935 Y51.426 E1.14214 F1353.551
G1 X42.935 Y50.126 E1.20344
G1 X44.160 Y50.126 E1.26119
G1 X44.160 Y51.366 E1.31967
G1 X44.560 Y51.826 F7800.000
G1 X42.535 Y51.826 E1.41515 F900.000
G1 X42.535 Y49.726 E1.51418
G1 X44.560 Y49.726 E1.60965
G1 X44.560 Y51.766 E1.70585
G1 X44.213 Y51.626 F7800.000
G1 F1800.000 E0.70585
G92 E0
G1 X40.480 Y51.026 F7800.000
G1 E1.00000 F1800.000
G1 X39.992 Y51.026 E1.02299 F1353.551
G1 X39.992 Y50.526 E1.04657
G1 X40.480 Y50.526 E1.06957
G1 X40.480 Y50.966 E1.09032
G1 X40.880 Y51.426 F7800.000
G1 X39.592 Y51.426 E1.15104 F1353.551
G1 X39.592 Y50.126 E1.21234
G1 X40.880 Y50.126 E1.27306
G1 X40.880 Y51.366 E1.33153
G1 X41.280 Y51.826 F7800.000
G1 X39.192 Y51.826 E1.42998 F900.000
G1 X39.192 Y49.726 E1.52901
G1 X41.280 Y49.726 E1.62745
G1 X41.280 Y51.766 E1.72365
G1 X40.933 Y51.626 F7800.000
G1 F1800.000 E0.72365
G92 E0
G1 X37.323 Y51.026 F7800.000
