; generated by Slic3r 1.1.7 on 2014-10-07 at 19:27:26

; perimeters extrusion width = 0.40mm
; infill extrusion width = 0.42mm
; solid infill extrusion width = 0.42mm
; top infill extrusion width = 0.42mm
; support material extrusion width = 0.40mm

G21 ; set units to millimeters
M107
M104 S195 ; set temperature
G28 ; home all axes
G1 Z5 F5000 ; lift nozzle
M109 S195 ; wait for temperature to be reached
G90 ; use absolute coordinates
G92 E0
M82 ; use absolute distances for extrusion
G1 F1800.000 E-1.00000
G92 E0
G1 Z0.300 F7800.000
G1 X32.358 Y22.181 F7800.000
G1 E1.00000 F1800.000
G1 X34.116 Y20.662 E1.10958 F2100.000
G1 X36.284 Y19.824 E1.21917
G1 X37.616 Y19.693 E1.28227
G1 X40.121 Y19.693 E1.40043
G1 X58.390 Y19.707 E2.26192 F2100.000
G1 X60.679 Y20.106 E2.37151
G1 X62.700 Y21.253 E2.48109
G1 X64.218 Y23.013 E2.59067
G1 X65.054 Y25.181 E2.70026
G1 X65.184 Y26.507 E2.76310
G1 X65.184 Y63.507 E4.50791
G1 X64.787 Y65.797 E4.61750
G1 X63.642 Y67.819 E4.72708
G1 X61.884 Y69.338 E4.83666
G1 X59.716 Y70.176 E4.94625
G1 X58.384 Y70.307 E5.00935
G1 X37.610 Y70.293 E5.98900
G1 X35.321 Y69.894 E6.09859
G1 X33.300 Y68.747 E6.20817
G1 X31.782 Y66.987 E6.31775
G1 X30.946 Y64.819 E6.42734
G1 X30.816 Y63.493 E6.49018
G1 X30.816 Y26.493 E8.23499
G1 X31.213 Y24.203 E8.34458
G1 X32.328 Y22.233 E8.45133
G1 X32.718 Y22.392 F7800.000
G1 X32.754 Y22.330 E8.45471 F2100.000
G1 X34.498 Y20.903 E8.56100
G1 X37.616 Y20.093 E8.71289
G1 X40.121 Y20.093 E8.83103
G1 X58.390 Y20.107 E9.69252 F2100.000
G1 X60.608 Y20.506 E9.79881
G1 X62.550 Y21.649 E9.90510
G1 X63.976 Y23.395 E10.01138
G1 X64.784 Y26.507 E10.16304
G1 X64.784 Y63.507 E11.90785
G1 X64.387 Y65.726 E12.01413
G1 X63.246 Y67.670 E12.12042
G1 X61.502 Y69.097 E12.22671
G1 X58.384 Y69.907 E12.37860
G1 X37.610 Y69.893 E13.35823
G1 X35.392 Y69.494 E13.46452
G1 X33.450 Y68.351 E13.57081
G1 X32.024 Y66.605 E13.67709
G1 X31.216 Y63.493 E13.82875
G1 X31.216 Y26.493 E15.57356
G1 X31.613 Y24.274 E15.67984
G1 X32.687 Y22.444 E15.77992
G1 F1800.000 E14.77992
G92 E0
G1 X57.384 Y62.507 F7800.000
G1 E1.00000 F1800.000
G1 X56.884 Y62.507 E1.02358 F2520.000
G1 X56.884 Y27.507 E2.67407
G1 X57.384 Y27.507 E2.69765
G1 X57.384 Y62.447 E4.34532
G1 X57.784 Y62.907 F7800.000
G1 X56.484 Y62.907 E4.40662 F2520.000
G1 X56.484 Y27.107 E6.09484
G1 X57.784 Y27.107 E6.15615
G1 X57.784 Y62.847 E7.84154
G1 X58.184 Y63.307 F7800.000
G1 X56.084 Y63.307 E7.94057 F1512.000
G1 X56.084 Y26.707 E9.66652
G1 X58.184 Y26.707 E9.76555
G1 X58.184 Y63.247 E11.48866
G1 X57.838 Y63.107 F7800.000
G1 F1800.000 E10.48866
G92 E0
G1 X39.116 Y62.493 F7800.000
G1 E1.00000 F1800.000
G1 X38.616 Y62.493 E1.02358 F2520.000
G1 X38.616 Y27.493 E2.67407
G1 X39.116 Y27.493 E2.69765
G1 X39.116 Y62.433 E4.34532
G1 X39.516 Y62.893 F7800.000
G1 X38.216 Y62.893 E4.40662 F2520.000
G1 X38.216 Y27.093 E6.09484
G1 X39.516 Y27.093 E6.15615
G1 X39.516 Y62.833 E7.84154
G1 X39.916 Y63.293 F7800.000
G1 X37.816 Y63.293 E7.94057 F1512.000
G1 X37.816 Y26.693 E9.66652
G1 X39.916 Y26.693 E9.76555
G1 X39.916 Y63.233 E11.48866
G1 X39.569 Y63.093 F7800.000
M106 S255
G1 F1800.000 E10.48866
G92 E0
G1 Z0.600 F7800.000
G1 X57.384 Y62.507 F7800.000
G1 E1.00000 F1800.000
G1 X56.884 Y62.507 E1.02358 F1643.880
G1 X56.884 Y27.507 E2.67407
G1 X57.384 Y27.507 E2.69765
G1 X57.384 Y62.447 E4.34532
G1 X57.784 Y62.907 F7800.000
G1 X56.484 Y62.907 E4.40662 F1643.880
G1 X56.484 Y27.107 E6.09484
G1 X57.784 Y27.107 E6.15615
G1 X57.784 Y62.847 E7.84154
G1 X58.184 Y63.307 F7800.000
G1 X56.084 Y63.307 E7.94057 F986.328
G1 X56.084 Y26.707 E9.66652
G1 X58.184 Y26.707 E9.76555
G1 X58.184 Y63.247 E11.48866
G1 X57.838 Y63.107 F7800.000
G1 F1800.000 E10.48866
G92 E0
G1 X39.116 Y62.493 F7800.000
G1 E1.00000 F1800.000
G1 X38.616 Y62.493 E1.02358 F1643.880
G1 X38.616 Y27.493 E2.67407
G1 X39.116 Y27.493 E2.69765
G1 X39.116 Y62.433 E4.34532
G1 X39.516 Y62.893 F7800.000
G1 X38.216 Y62.893 E4.40662 F1643.880
G1 X38.216 Y27.093 E6.09484
G1 X39.516 Y27.093 E6.15615
G1 X39.516 Y62.833 E7.84154
G1 X39.916 Y63.293 F7800.000
G1 X37.816 Y63.293 E7.94057 F986.328
G1 X37.816 Y26.693 E9.66652
G1 X39.916 Y26.693 E9.76555
G1 X39.916 Y63.233 E11.48866
G1 X39.569 Y63.093 F7800.000
G1 F1800.000 E10.48866
G92 E0
G1 Z0.900 F7800.000
G1 X57.384 Y62.507 F7800.000
G1 E1.00000 F1800.000
G1 X56.884 Y62.507 E1.02358 F1643.880
G1 X56.884 Y27.507 E2.67407
G1 X57.384 Y27.507 E2.69765
G1 X57.384 Y62.447 E4.34532
G1 X57.784 Y62.907 F7800.000
G1 X56.484 Y62.907 E4.40662 F1643.880
G1 X56.484 Y27.107 E6.09484
G1 X57.784 Y27.107 E6.15615
G1 X57.784 Y62.847 E7.84154
G1 X58.184 Y63.307 F7800.000
G1 X56.084 Y63.307 E7.94057 F986.328
G1 X56.084 Y26.707 E9.66652
G1 X58.184 Y26.707 E9.76555
G1 X58.184 Y63.247 E11.48866
G1 X57.838 Y63.107 F7800.000
G1 F1800.000 E10.48866
G92 E0
G1 X39.116 Y62.493 F7800.000
G1 E1.00000 F1800.000
G1 X38.616 Y62.493 E1.02358 F1643.880
G1 X38.616 Y27.493 E2.67407
G1 X39.116 Y27.493 E2.69765
G1 X39.116 Y62.433 E4.34532
G1 X39.516 Y62.893 F7800.000
G1 X38.216 Y62.893 E4.40662 F1643.880
G1 X38.216 Y27.093 E6.09484
G1 X39.516 Y27.093 E6.15615
G1 X39.516 Y62.833 E7.84154
G1 X39.916 Y63.293 F7800.000
G1 X37.816 Y63.293 E7.94057 F986.328
G1 X37.816 Y26.693 E9.66652
G1 X39.916 Y26.693 E9.76555
G1 X39.916 Y63.233 E11.48866
G1 X39.569 Y63.093 F7800.000
G1 F1800.000 E10.48866
G92 E0
G1 Z1.200 F7800.000
G1 X57.384 Y62.507 F7800.000
G1 E1.00000 F1800.000
G1 X56.884 Y62.507 E1.02358 F1643.880
G1 X56.884 Y27.507 E2.67407
G1 X57.384 Y27.507 E2.69765
G1 X57.384 Y62.447 E4.34532
G1 X57.784 Y62.907 F7800.000
G1 X56.484 Y62.907 E4.40662 F1643.880
G1 X56.484 Y27.107 E6.09484
G1 X57.784 Y27.107 E6.15615
G1 X57.784 Y62.847 E7.84154
G1 X58.184 Y63.307 F7800.000
G1 X56.084 Y63.307 E7.94057 F986.328
G1 X56.084 Y26.707 E9.66652
G1 X58.184 Y26.707 E9.76555
G1 X58.184 Y63.247 E11.48866
G1 X57.838 Y63.107 F7800.000
G1 F1800.000 E10.48866
G92 E0
G1 X39.116 Y62.493 F7800.000
G1 E1.00000 F1800.000
G1 X38.616 Y62.493 E1.02358 F1643.880
G1 X38.616 Y27.493 E2.67407
G1 X39.116 Y27.493 E2.69765
G1 X39.116 Y62.433 E4.34532
G1 X39.516 Y62.893 F7800.000
G1 X38.216 Y62.893 E4.40662 F1643.880
G1 X38.216 Y27.093 E6.09484
G1 X39.516 Y27.093 E6.15615
G1 X39.516 Y62.833 E7.84154
G1 X39.916 Y63.293 F7800.000
G1 X37.816 Y63.293 E7.94057 F986.328
G1 X37.816 Y26.693 E9.66652
G1 X39.916 Y26.693 E9.76555
G1 X39.916 Y63.233 E11.48866
G1 X39.569 Y63.093 F7800.000
G1 F1800.000 E10.48866
G92 E0
G1 Z1.500 F7800.000
G1 X57.384 Y62.507 F7800.000
G1 E1.00000 F1800.000
G1 X56.884 Y62.507 E1.02358 F1643.880
G1 X56.884 Y27.507 E2.67407
G1 X57.384 Y27.507 E2.69765
G1 X57.384 Y62.447 E4.34532
G1 X57.784 Y62.907 F7800.000
G1 X56.484 Y62.907 E4.40662 F1643.880
G1 X56.484 Y27.107 E6.09484
G1 X57.784 Y27.107 E6.15615
G1 X57.784 Y62.847 E7.84154
G1 X58.184 Y63.307 F7800.000
G1 X56.084 Y63.307 E7.94057 F986.328
G1 X56.084 Y26.707 E9.66652
G1 X58.184 Y26.707 E9.76555
G1 X58.184 Y63.247 E11.48866
G1 X57.838 Y63.107 F7800.000
G1 F1800.000 E10.48866
G92 E0
G1 X39.116 Y62.493 F7800.000
G1 E1.00000 F1800.000
G1 X38.616 Y62.493 E1.02358 F1643.880
G1 X38.616 Y27.493 E2.67407
G1 X39.116 Y27.493 E2.69765
G1 X39.116 Y62.433 E4.34532
G1 X39.516 Y62.893 F7800.000
G1 X38.216 Y62.893 E4.40662 F1643.880
G1 X38.216 Y27.093 E6.09484
G1 X39.516 Y27.093 E6.15615
G1 X39.516 Y62.833 E7.84154
G1 X39.916 Y63.293 F7800.000
G1 X37.816 Y63.293 E7.94057 F986.328
G1 X37.816 Y26.693 E9.66652
G1 X39.916 Y26.693 E9.76555
G1 X39.916 Y63.233 E11.48866
G1 X39.569 Y63.093 F7800.000
G1 F1800.000 E10.48866
G92 E0
G1 Z1.800 F7800.000
G1 X57.384 Y62.507 F7800.000
G1 E1.00000 F1800.000
G1 X56.884 Y62.507 E1.02358 F1586.295
G1 X56.884 Y62.015 E1.04681
G1 X57.384 Y62.015 E1.07039
G1 X57.384 Y62.447 E1.09079
G1 X57.784 Y62.907 F7800.000
G1 X56.484 Y62.907 E1.15209 F1586.295
G1 X56.484 Y61.615 E1.21305
G1 X57.784 Y61.615 E1.27436
G1 X57.784 Y62.847 E1.33248
G1 X58.184 Y63.307 F7800.000
G1 X56.084 Y63.307 E1.43151 F951.777
G1 X56.084 Y61.215 E1.53020
G1 X58.184 Y61.215 E1.62923
G1 X58.184 Y63.247 E1.72508
G1 X57.838 Y63.107 F7800.000
G1 F1800.000 E0.72508
G92 E0
G1 X57.384 Y59.000 F7800.000
G1 E1.00000 F1800.000
G1 X56.884 Y59.000 E1.02358 F1586.295
G1 X56.884 Y58.056 E1.06810
G1 X57.384 Y58.056 E1.09168
G1 X57.384 Y58.940 E1.13336
G1 X57.784 Y59.400 F7800.000
G1 X56.484 Y59.400 E1.19467 F1586.295
G1 X56.484 Y57.656 E1.27691
G1 X57.784 Y57.656 E1.33822
G1 X57.784 Y59.340 E1.41763
G1 X58.184 Y59.800 F7800.000
G1 X56.084 Y59.800 E1.51666 F951.777
G1 X56.084 Y57.256 E1.63663
G1 X58.184 Y57.256 E1.73566
G1 X58.184 Y59.740 E1.85280
G1 X57.838 Y59.600 F7800.000
G1 F1800.000 E0.85280
G92 E0
G1 X57.384 Y55.259 F7800.000
G1 E1.00000 F1800.000
G1 X56.884 Y55.259 E1.02358 F1586.295
G1 X56.884 Y54.197 E1.07364
G1 X57.384 Y54.197 E1.09722
G1 X57.384 Y55.199 E1.14445
G1 X57.784 Y55.659 F7800.000
G1 X56.484 Y55.659 E1.20576 F1586.295
G1 X56.484 Y53.797 E1.29355
G1 X57.784 Y53.797 E1.35485
G1 X57.784 Y55.599 E1.43981
G1 X58.184 Y56.059 F7800.000
G1 X56.084 Y56.059 E1.53884 F951.777
G1 X56.084 Y53.397 E1.66435
G1 X58.184 Y53.397 E1.76338
G1 X58.184 Y55.999 E1.88607
G1 X57.838 Y55.859 F7800.000
G1 F1800.000 E0.88607
G92 E0
G1 X57.384 Y51.618 F7800.000
G1 E1.00000 F1800.000
G1 X56.884 Y51.618 E1.02358 F1586.295
G1 X56.884 Y27.507 E2.16054
G1 X57.384 Y27.507 E2.18412
G1 X57.384 Y51.558 E3.31826
G1 X57.784 Y52.018 F7800.000
G1 X56.484 Y52.018 E3.37956 F1586.295
G1 X56.484 Y27.107 E4.55426
G1 X57.784 Y27.107 E4.61556
G1 X57.784 Y51.958 E5.78742
G1 X58.184 Y52.418 F7800.000
G1 X56.084 Y52.418 E5.88645 F951.777
G1 X56.084 Y26.707 E7.09887
G1 X58.184 Y26.707 E7.19790
G1 X58.184 Y52.358 E8.40749
G1 X57.838 Y52.218 F7800.000
G1 F1800.000 E7.40749
G92 E0
G1 X39.116 Y62.493 F7800.000
G1 E1.00000 F1800.000
G1 X38.616 Y62.493 E1.02358 F1586.295
G1 X38.616 Y62.000 E1.04681
G1 X39.116 Y62.000 E1.07039
G1 X39.116 Y62.433 E1.09079
G1 X39.516 Y62.893 F7800.000
G1 X38.216 Y62.893 E1.15209 F1586.295
G1 X38.216 Y61.600 E1.21305
G1 X39.516 Y61.600 E1.27436
G1 X39.516 Y62.833 E1.33248
G1 X39.916 Y63.293 F7800.000
G1 X37.816 Y63.293 E1.43151 F951.777
G1 X37.816 Y61.200 E1.53020
G1 X39.916 Y61.200 E1.62923
G1 X39.916 Y63.233 E1.72508
G1 X39.569 Y63.093 F7800.000
G1 F1800.000 E0.72508
G92 E0
G1 X39.116 Y58.985 F7800.000
G1 E1.00000 F1800.000
G1 X38.616 Y58.985 E1.02358 F1586.295
G1 X38.616 Y58.041 E1.06810
G1 X39.116 Y58.041 E1.09168
G1 X39.116 Y58.925 E1.13336
G1 X39.516 Y59.385 F7800.000
G1 X38.216 Y59.385 E1.19467 F1586.295
G1 X38.216 Y57.641 E1.27691
G1 X39.516 Y57.641 E1.33822
G1 X39.516 Y59.325 E1.41763
G1 X39.916 Y59.785 F7800.000
G1 X37.816 Y59.785 E1.51666 F951.777
G1 X37.816 Y57.241 E1.63663
G1 X39.916 Y57.241 E1.73566
G1 X39.916 Y59.725 E1.85280
G1 X39.569 Y59.585 F7800.000
G1 F1800.000 E0.85280
G92 E0
G1 X39.116 Y55.244 F7800.000
G1 E1.00000 F1800.000
G1 X38.616 Y55.244 E1.02358 F1586.295
G1 X38.616 Y54.182 E1.07364
G1 X39.116 Y54.182 E1.09722
G1 X39.116 Y55.184 E1.14445
G1 X39.516 Y55.644 F7800.000
G1 X38.216 Y55.644 E1.20576 F1586.295
G1 X38.216 Y53.782 E1.29355
G1 X39.516 Y53.782 E1.35485
G1 X39.516 Y55.584 E1.43981
G1 X39.916 Y56.044 F7800.000
G1 X37.816 Y56.044 E1.53884 F951.777
G1 X37.816 Y53.382 E1.66435
G1 X39.916 Y53.382 E1.76338
G1 X39.916 Y55.984 E1.88607
G1 X39.569 Y55.844 F7800.000
G1 F1800.000 E0.88607
G92 E0
G1 X39.116 Y51.603 F7800.000
G1 E1.00000 F1800.000
G1 X38.616 Y51.603 E1.02358 F1586.295
G1 X38.616 Y27.493 E2.16054
G1 X39.116 Y27.493 E2.18412
G1 X39.116 Y51.543 E3.31826
G1 X39.516 Y52.003 F7800.000
G1 X38.216 Y52.003 E3.37956 F1586.295
G1 X38.216 Y27.093 E4.55426
G1 X39.516 Y27.093 E4.61556
G1 X39.516 Y51.943 E5.78742
G1 X39.916 Y52.403 F7800.000
G1 X37.816 Y52.403 E5.88645 F951.777
G1 X37.816 Y26.693 E7.09887
G1 X39.916 Y26.693 E7.19790
G1 X39.916 Y52.343 E8.40749
G1 X39.569 Y52.203 F7800.000
G1 F1800.000 E7.40749
G92 E0
G1 Z2.100 F7800.000
G1 X57.784 Y61.936 F7800.000
G1 E1.00000 F1800.000
G1 X57.784 Y62.907 E1.04582 F1353.254
G1 X56.484 Y62.907 E1.10713
G1 X56.484 Y61.936 E1.15295
G1 X57.724 Y61.936 E1.21143
G1 X58.184 Y61.536 F7800.000
G1 X58.184 Y63.307 E1.29498 F900.000
G1 X56.084 Y63.307 E1.39401
G1 X56.084 Y61.536 E1.47756
G1 X58.124 Y61.536 E1.57376
G1 X57.984 Y61.882 F7800.000
G1 X57.470 Y62.210 F7800.000
G1 X57.510 Y62.250 E1.57655 F1127.711
G1 X56.799 Y62.633 E1.61646
G1 X56.759 Y62.593 E1.61925
G1 F1800.000 E0.61925
G92 E0
G1 X57.784 Y59.079 F7800.000
G1 E1.00000 F1800.000
G1 X56.484 Y59.079 E1.06130 F1353.254
G1 X56.484 Y58.030 E1.11077
G1 X57.784 Y58.030 E1.17207
G1 X57.784 Y59.019 E1.21870
G1 X58.184 Y59.479 F7800.000
G1 X56.084 Y59.479 E1.31773 F900.000
G1 X56.084 Y57.630 E1.40492
G1 X58.184 Y57.630 E1.50395
G1 X58.184 Y59.419 E1.58830
G1 X57.838 Y59.279 F7800.000
G1 X57.470 Y58.305 F7800.000
G1 X57.510 Y58.345 E1.59110 F1127.711
G1 X56.799 Y58.805 E1.63295
G1 X56.759 Y58.765 E1.63574
G1 F1800.000 E0.63574
G92 E0
G1 X57.784 Y55.285 F7800.000
G1 E1.00000 F1800.000
G1 X56.484 Y55.285 E1.06130 F1353.254
G1 X56.484 Y54.215 E1.11176
G1 X57.784 Y54.215 E1.17307
G1 X57.784 Y55.225 E1.22070
G1 X58.184 Y55.685 F7800.000
G1 X56.084 Y55.685 E1.31973 F900.000
G1 X56.084 Y53.815 E1.40791
G1 X58.184 Y53.815 E1.50694
G1 X58.184 Y55.625 E1.59229
G1 X57.838 Y55.485 F7800.000
G1 X57.470 Y54.489 F7800.000
G1 X57.510 Y54.529 E1.59509 F1127.711
G1 X57.395 Y55.010 E1.61954
G1 X56.874 Y54.489 E1.65596
G1 X56.759 Y54.970 E1.68041
G1 X56.799 Y55.010 E1.68320
G1 F1800.000 E0.68320
G92 E0
G1 X57.784 Y51.600 F7800.000
G1 E1.00000 F1800.000
G1 X56.484 Y51.600 E1.06130 F1353.254
G1 X56.484 Y50.495 E1.11344
G1 X57.784 Y50.495 E1.17474
G1 X57.784 Y51.540 E1.22405
G1 X58.184 Y52.000 F7800.000
G1 X56.084 Y52.000 E1.32308 F900.000
G1 X56.084 Y50.095 E1.41294
G1 X58.184 Y50.095 E1.51197
G1 X58.184 Y51.940 E1.59900
G1 X57.838 Y51.800 F7800.000
G1 X57.470 Y50.769 F7800.000
G1 X57.510 Y50.809 E1.60180 F1127.711
G1 X57.413 Y51.326 E1.62778
G1 X56.856 Y50.769 E1.66669
G1 X56.759 Y51.286 E1.69267
G1 X56.799 Y51.326 E1.69547
G1 F1800.000 E0.69547
G92 E0
G1 X57.384 Y47.620 F7800.000
G1 E1.00000 F1800.000
G1 X56.884 Y47.620 E1.02358 F1353.254
G1 X56.884 Y47.275 E1.03986
G1 X57.384 Y47.275 E1.06344
G1 X57.384 Y47.560 E1.07689
G1 X57.784 Y48.020 F7800.000
G1 X56.484 Y48.020 E1.13820 F1353.254
G1 X56.484 Y46.875 E1.19220
G1 X57.784 Y46.875 E1.25351
G1 X57.784 Y47.960 E1.30469
G1 X58.184 Y48.420 F7800.000
G1 X56.084 Y48.420 E1.40372 F900.000
G1 X56.084 Y46.475 E1.49545
G1 X58.184 Y46.475 E1.59448
G1 X58.184 Y48.360 E1.68338
G1 X57.838 Y48.220 F7800.000
G1 F1800.000 E0.68338
G92 E0
G1 X57.384 Y44.140 F7800.000
G1 E1.00000 F1800.000
G1 X56.884 Y44.140 E1.02358 F1353.254
G1 X56.884 Y43.755 E1.04173
G1 X57.384 Y43.755 E1.06531
G1 X57.384 Y44.080 E1.08064
G1 X57.784 Y44.540 F7800.000
G1 X56.484 Y44.540 E1.14194 F1353.254
G1 X56.484 Y43.355 E1.19782
G1 X57.784 Y43.355 E1.25913
G1 X57.784 Y44.480 E1.31218
G1 X58.184 Y44.940 F7800.000
G1 X56.084 Y44.940 E1.41121 F900.000
G1 X56.084 Y42.955 E1.50481
G1 X58.184 Y42.955 E1.60384
G1 X58.184 Y44.880 E1.69462
G1 X57.838 Y44.740 F7800.000
G1 F1800.000 E0.69462
G92 E0
G1 X57.384 Y40.760 F7800.000
G1 E1.00000 F1800.000
G1 X56.884 Y40.760 E1.02358 F1353.254
G1 X56.884 Y40.335 E1.04361
G1 X57.384 Y40.335 E1.06718
G1 X57.384 Y40.700 E1.08438
G1 X57.784 Y41.160 F7800.000
G1 X56.484 Y41.160 E1.14569 F1353.254
G1 X56.484 Y39.935 E1.20344
G1 X57.784 Y39.935 E1.26474
G1 X57.784 Y41.100 E1.31967
G1 X58.184 Y41.560 F7800.000
G1 X56.084 Y41.560 E1.41870 F900.000
G1 X56.084 Y39.535 E1.51418
G1 X58.184 Y39.535 E1.61321
G1 X58.184 Y41.500 E1.70585
G1 X57.838 Y41.360 F7800.000
G1 F1800.000 E0.70585
G92 E0
G1 X57.384 Y37.480 F7800.000
G1 E1.00000 F1800.000
G1 X56.884 Y37.480 E1.02358 F1353.254
G1 X56.884 Y36.992 E1.04657
G1 X57.384 Y36.992 E1.07015
G1 X57.384 Y37.420 E1.09032
G1 X57.784 Y37.880 F7800.000
G1 X56.484 Y37.880 E1.15162 F1353.254
G1 X56.484 Y36.592 E1.21234
G1 X57.784 Y36.592 E1.27364
G1 X57.784 Y37.820 E1.33153
G1 X58.184 Y38.280 F7800.000
G1 X56.084 Y38.280 E1.43056 F900.000
G1 X56.084 Y36.192 E1.52901
G1 X58.184 Y36.192 E1.62804
G1 X58.184 Y38.220 E1.72365
G1 X57.838 Y38.080 F7800.000
G1 F1800.000 E0.72365
